_SYSTEM/luts/Colorify CL Fashion LUT.cube
LUT_3D_SIZE 16
-0.009092 -0.007496 -0.001989
0.036541 0.008902 0.007058
0.117762 0.027973 0.021365
0.208788 0.048147 0.036451
0.301344 0.066445 0.048686
0.418244 0.095122 0.068000
0.537591 0.139359 0.093823
0.642828 0.180935 0.118121
0.724087 0.219578 0.132968
0.773586 0.240671 0.134926
0.797024 0.250858 0.144078
0.806021 0.255324 0.147681
0.814698 0.259855 0.151007
0.823617 0.265345 0.154802
0.832262 0.270758 0.158669
0.842029 0.276874 0.163057
-0.006247 0.026074 0.003796
0.014217 0.028516 0.007676
0.103712 0.042138 0.021707
0.193891 0.057573 0.035317
0.286074 0.076361 0.047361
0.399392 0.100377 0.065016
0.521984 0.143697 0.090872
0.633224 0.188111 0.116705
0.718510 0.228141 0.134138
0.770337 0.250247 0.134453
0.798726 0.262543 0.144944
0.807514 0.267085 0.148639
0.817047 0.271654 0.152286
0.826141 0.276757 0.156696
0.835074 0.282415 0.161184
0.844813 0.288444 0.165620
-0.002852 0.087040 0.007498
-0.012695 0.086839 0.008426
0.076310 0.092117 0.019494
0.173193 0.098333 0.037582
0.264136 0.111702 0.047820
0.364840 0.127557 0.061280
0.493220 0.157910 0.086020
0.615253 0.197074 0.114153
0.705518 0.234665 0.133650
0.763272 0.258170 0.133739
0.801712 0.273932 0.146317
0.810514 0.278668 0.150435
0.820074 0.283449 0.154227
0.828999 0.288296 0.158584
0.837804 0.293309 0.163170
0.847562 0.299387 0.167879
-0.002852 0.156737 0.010649
-0.008310 0.155850 0.011479
0.022172 0.157056 0.012169
0.134883 0.155232 0.027292
0.242562 0.160603 0.053139
0.333524 0.176136 0.062829
0.446442 0.202599 0.081721
0.580301 0.238699 0.113020
0.687364 0.273126 0.136082
0.756486 0.293745 0.137485
0.808335 0.308654 0.150426
0.817169 0.306739 0.154392
0.825956 0.307603 0.158287
0.834405 0.309355 0.162743
0.842199 0.310844 0.166936
0.851543 0.315534 0.172154
-0.002266 0.232176 0.018613
0.007721 0.230798 0.019204
-0.008497 0.227760 0.019470
0.064093 0.235008 0.018041
0.200027 0.226750 0.032726
0.316737 0.233046 0.071302
0.420688 0.255127 0.085772
0.540731 0.284778 0.111595
0.660118 0.315016 0.138820
0.748606 0.337913 0.145639
0.807575 0.356051 0.154898
0.824586 0.357871 0.163212
0.833547 0.357947 0.167641
0.842360 0.359498 0.173311
0.850376 0.360882 0.179734
0.859690 0.365964 0.186837
-0.002176 0.309473 0.037068
0.008975 0.308400 0.037519
0.015215 0.305225 0.037390
0.045076 0.308100 0.037579
0.103101 0.317016 0.022288
0.277718 0.304611 0.036716
0.409837 0.317490 0.095957
0.525154 0.339988 0.118917
0.641252 0.365191 0.143958
0.743036 0.389528 0.156690
0.802089 0.403359 0.159374
0.830922 0.411289 0.174383
0.839075 0.409430 0.178778
0.847093 0.410057 0.184865
0.854670 0.410712 0.191640
0.863841 0.415133 0.199023
-0.002908 0.389971 0.059462
0.008569 0.387794 0.059844
0.017423 0.384194 0.059675
0.031426 0.382206 0.059405
0.080494 0.399672 0.051773
0.175634 0.404742 0.016745
0.379589 0.390575 0.047814
0.515213 0.405918 0.131951
0.630412 0.427085 0.155116
0.732801 0.448227 0.169343
0.798932 0.456864 0.165930
0.838467 0.468617 0.184351
0.847440 0.466569 0.191379
0.854440 0.465417 0.198144
0.861508 0.464182 0.204709
0.870012 0.467669 0.212233
0.004418 0.477211 0.090083
0.015968 0.475285 0.090574
0.025690 0.472214 0.090500
0.032240 0.466981 0.089230
0.077990 0.474015 0.088723
0.132273 0.494537 0.073715
0.273536 0.484309 0.011066
0.490446 0.480852 0.079935
0.621873 0.498113 0.170642
0.722077 0.514717 0.182158
0.797281 0.517971 0.175724
0.843387 0.526564 0.190934
0.854991 0.524520 0.202269
0.861239 0.521980 0.209098
0.867299 0.518966 0.215925
0.874907 0.520563 0.223610
0.016368 0.563693 0.123306
0.026680 0.560649 0.123440
0.036257 0.556855 0.123182
0.044491 0.551392 0.122377
0.068055 0.550739 0.122481
0.122935 0.562670 0.124212
0.173455 0.575895 0.100042
0.379154 0.562677 0.022267
0.593487 0.573172 0.094439
0.710481 0.587781 0.197614
0.792489 0.587785 0.197069
0.849595 0.588517 0.194877
0.866412 0.585482 0.213847
0.870965 0.580460 0.221214
0.875806 0.575507 0.229759
0.881919 0.575199 0.239733
0.037972 0.651651 0.156575
0.047055 0.648919 0.157808
0.055450 0.645392 0.158380
0.062901 0.640193 0.158115
0.072274 0.634504 0.156172
0.121903 0.638079 0.157968
0.179520 0.649683 0.161080
0.233310 0.652955 0.123060
0.512368 0.645115 0.034166
0.690278 0.664522 0.094798
0.778710 0.661464 0.222605
0.848322 0.654339 0.218193
0.875899 0.649235 0.240404
0.879981 0.642444 0.240301
0.884883 0.636110 0.243605
0.890425 0.634089 0.251382
0.067183 0.722336 0.180954
0.076723 0.719839 0.182909
0.085609 0.717020 0.184461
0.093760 0.713260 0.185438
0.100378 0.708733 0.184521
0.129791 0.706131 0.184304
0.189119 0.712104 0.188283
0.241205 0.724200 0.196227
0.332973 0.735212 0.112932
0.625755 0.730476 0.039421
0.764630 0.739848 0.105715
0.836395 0.722947 0.257818
0.880573 0.711602 0.277379
0.887077 0.703297 0.277488
0.893144 0.697093 0.277677
0.900002 0.695436 0.280562
0.080585 0.791005 0.201944
0.090073 0.788041 0.204339
0.099135 0.784764 0.206221
0.108021 0.780761 0.207661
0.116638 0.776662 0.207193
0.129730 0.772784 0.206324
0.183622 0.775211 0.212712
0.242619 0.783664 0.228170
0.294508 0.792229 0.240364
0.436895 0.801694 0.134391
0.701893 0.804197 0.081055
0.819569 0.796935 0.157700
0.879060 0.779102 0.300020
0.893300 0.771085 0.311109
0.898926 0.764143 0.310955
0.906100 0.762476 0.312576
0.087439 0.830042 0.216815
0.097556 0.828726 0.220113
0.107289 0.828042 0.223459
0.116990 0.827219 0.226728
0.126832 0.826621 0.228327
0.134842 0.825950 0.228722
0.175970 0.826877 0.236591
0.239072 0.833454 0.253287
0.300559 0.845148 0.272321
0.348195 0.847407 0.274449
0.573333 0.859200 0.193462
0.758849 0.860016 0.161700
0.871470 0.853385 0.163899
0.905449 0.836151 0.245452
0.909638 0.828585 0.274717
0.916210 0.827251 0.291376
0.090918 0.840380 0.222677
0.100892 0.839148 0.225872
0.110633 0.838024 0.229018
0.120412 0.837234 0.232366
0.130447 0.837442 0.234495
0.139702 0.837891 0.235915
0.164390 0.839668 0.240639
0.227196 0.847248 0.257540
0.290543 0.858863 0.277186
0.350530 0.875605 0.294951
0.450673 0.877872 0.265417
0.695304 0.889152 0.211433
0.818805 0.902063 0.162565
0.905510 0.900381 0.170617
0.913428 0.896189 0.174799
0.922698 0.893239 0.179713
0.095162 0.851150 0.229110
0.104999 0.850073 0.232115
0.114482 0.848922 0.235110
0.124124 0.847908 0.238267
0.134055 0.848085 0.240329
0.143726 0.848456 0.241993
0.158740 0.849356 0.244762
0.218923 0.855710 0.259930
0.282748 0.866238 0.279539
0.344545 0.882216 0.298126
0.404970 0.884142 0.287207
0.647399 0.898310 0.227154
0.790393 0.909619 0.169413
0.889396 0.910428 0.170836
0.913429 0.911393 0.176023
0.921898 0.910408 0.180644
0.101166 0.875898 0.238477
0.110385 0.874604 0.241483
0.117567 0.873758 0.244167
0.121728 0.872752 0.246661
0.120817 0.872804 0.247676
0.109710 0.873150 0.247417
0.091885 0.873901 0.247379
0.161185 0.879859 0.259525
0.234536 0.890302 0.277947
0.315965 0.905291 0.307031
0.378359 0.909513 0.300573
0.614657 0.923393 0.243103
0.776725 0.934256 0.172566
0.880818 0.934745 0.172636
0.909717 0.935906 0.177185
0.921013 0.936627 0.179689
-0.023513 -0.216295 -0.055326
0.025051 -0.216026 -0.055136
0.119359 -0.215278 -0.051555
0.211118 -0.213920 -0.044605
0.306890 -0.211834 -0.034546
0.424651 -0.206446 0.042947
0.543969 -0.191508 0.080939
0.651442 -0.164644 0.107785
0.733424 -0.118915 0.121425
0.782841 -0.054835 0.121131
0.804921 0.081506 0.133869
0.810677 0.090158 0.141542
0.815489 0.100135 0.148420
0.821544 0.120227 0.154985
0.828973 0.139640 0.161190
0.838472 0.158232 0.168839
-0.005743 0.025406 0.022279
0.006606 0.024987 0.022411
0.103552 0.040275 0.033627
0.194326 0.056110 0.045265
0.286530 0.074483 0.057282
0.399832 0.098528 0.074608
0.522078 0.142591 0.099736
0.633079 0.187273 0.125161
0.718535 0.227172 0.142649
0.770165 0.249360 0.143206
0.798836 0.262859 0.153743
0.807553 0.267446 0.157411
0.817054 0.272249 0.160943
0.826223 0.277504 0.165092
0.835137 0.283241 0.169721
0.844623 0.289502 0.175106
-0.001901 0.085922 0.019462
-0.011551 0.085861 0.020694
0.072246 0.092083 0.029324
0.173604 0.096898 0.046762
0.264772 0.110261 0.056789
0.366188 0.124657 0.070464
0.494892 0.155654 0.095154
0.616083 0.195754 0.122721
0.705685 0.233827 0.141887
0.763631 0.257047 0.142315
0.801595 0.273846 0.155315
0.810442 0.278798 0.159501
0.819867 0.283746 0.163065
0.829029 0.288727 0.167117
0.837599 0.293796 0.171749
0.847248 0.299984 0.177329
-0.002877 0.155214 0.022143
-0.007314 0.154223 0.022169
0.021815 0.155952 0.023327
0.134031 0.155765 0.036812
0.243555 0.158926 0.062113
0.334359 0.174701 0.071601
0.448916 0.200400 0.090805
0.582254 0.237500 0.121896
0.688415 0.272453 0.144328
0.758600 0.292739 0.146351
0.809298 0.308506 0.159786
0.817667 0.306761 0.163953
0.826147 0.307567 0.167612
0.834360 0.309463 0.171663
0.842156 0.310988 0.175921
0.851309 0.315707 0.181596
-0.002315 0.230514 0.031531
0.007990 0.230333 0.031290
-0.007663 0.227492 0.031436
0.062900 0.234513 0.030500
0.198112 0.225821 0.043274
0.317382 0.231145 0.080156
0.421885 0.253655 0.094426
0.543014 0.284017 0.120715
0.662179 0.315334 0.147390
0.751435 0.337447 0.154753
0.809983 0.356149 0.164919
0.826634 0.358605 0.174630
0.835560 0.358739 0.179151
0.844142 0.360597 0.184791
0.852071 0.361896 0.190867
0.860872 0.366819 0.198885
-0.002216 0.308072 0.049982
0.009184 0.307948 0.049950
0.015492 0.304747 0.049700
0.044221 0.307799 0.050392
0.103443 0.315391 0.035986
0.277997 0.303813 0.047602
0.411165 0.316852 0.104692
0.527854 0.339643 0.127948
0.644019 0.365653 0.152798
0.745733 0.389809 0.165393
0.804848 0.403737 0.169625
0.832794 0.411936 0.186947
0.840748 0.410363 0.191419
0.848854 0.411212 0.197139
0.856403 0.411846 0.204021
0.864992 0.416384 0.212359
-0.002831 0.388689 0.072846
0.008823 0.387628 0.072263
0.017593 0.384177 0.072299
0.031330 0.382036 0.072086
0.079649 0.398633 0.066939
0.171854 0.405957 0.031972
0.378354 0.390750 0.058185
0.517024 0.406729 0.141078
0.632959 0.428153 0.164020
0.734745 0.449177 0.178197
0.801470 0.458040 0.176803
0.838740 0.468579 0.197374
0.847832 0.466647 0.204377
0.854968 0.466003 0.211016
0.861548 0.464541 0.218290
0.869625 0.467814 0.226829
0.001749 0.475536 0.105136
0.015522 0.474439 0.103212
0.025274 0.471305 0.102663
0.031914 0.466054 0.101441
0.077427 0.473391 0.101563
0.131580 0.494172 0.088245
0.272872 0.486433 0.030992
0.492780 0.482433 0.092177
0.624393 0.499085 0.179578
0.724367 0.516232 0.191009
0.799748 0.519419 0.187334
0.843284 0.526356 0.203572
0.854597 0.524152 0.216305
0.860648 0.521622 0.222720
0.866193 0.518059 0.230230
0.873415 0.519458 0.238237
0.015368 0.562005 0.136506
0.026681 0.560630 0.135933
0.036128 0.557091 0.135975
0.044436 0.551887 0.135127
0.067478 0.551053 0.134330
0.122267 0.563805 0.137112
0.172957 0.576071 0.113013
0.377146 0.566545 0.037085
0.595263 0.575854 0.103521
0.713207 0.589872 0.206299
0.793751 0.588405 0.207587
0.847753 0.587295 0.206140
0.864855 0.584198 0.226202
0.869462 0.579176 0.233531
0.873904 0.574054 0.242643
0.879830 0.573531 0.253149
0.037467 0.650000 0.168936
0.047295 0.648069 0.168452
0.055564 0.644748 0.169036
0.063033 0.639664 0.168808
0.072543 0.634421 0.167107
0.121830 0.637722 0.168850
0.179327 0.649327 0.173264
0.230739 0.649120 0.141665
0.510223 0.647693 0.046667
0.693478 0.666258 0.106947
0.780171 0.663027 0.233701
0.846519 0.653140 0.228410
0.874293 0.647953 0.249883
0.878959 0.641282 0.250709
0.883689 0.634878 0.254362
0.889294 0.632862 0.262343
0.067064 0.720851 0.193184
0.077102 0.719263 0.193357
0.085671 0.716444 0.194750
0.093854 0.712745 0.195818
0.100486 0.708298 0.194686
0.129739 0.705797 0.194376
0.188957 0.711787 0.199085
0.241194 0.723877 0.207082
0.333362 0.732267 0.136921
0.629345 0.732243 0.052345
0.765430 0.741381 0.120138
0.835071 0.721591 0.268276
0.880015 0.710767 0.286918
0.886156 0.702153 0.286992
0.892315 0.696094 0.287204
0.899144 0.694523 0.290143
0.080545 0.789510 0.213526
0.090667 0.788041 0.214444
0.099572 0.784823 0.216361
0.108400 0.781008 0.217713
0.116863 0.776568 0.217053
0.129849 0.772581 0.216193
0.183640 0.775105 0.222631
0.243227 0.783644 0.239283
0.294739 0.791974 0.251620
0.437535 0.802406 0.149142
0.703186 0.806178 0.096058
0.818382 0.795498 0.173400
0.878478 0.777896 0.308538
0.892790 0.769897 0.319209
0.898351 0.762953 0.318928
0.905571 0.761355 0.320533
0.087612 0.828771 0.228367
0.098665 0.829362 0.230614
0.108182 0.828582 0.233950
0.117823 0.827724 0.237177
0.127449 0.826986 0.238664
0.135394 0.825962 0.239035
0.176277 0.827159 0.246766
0.239414 0.833776 0.263445
0.301932 0.845495 0.283213
0.348380 0.846415 0.284039
0.574151 0.859206 0.207254
0.758298 0.858727 0.176357
0.871106 0.852735 0.175402
0.905291 0.835445 0.257592
0.909466 0.828265 0.286190
0.916131 0.826953 0.302709
0.091153 0.839444 0.234584
0.102125 0.839673 0.236364
0.111635 0.838743 0.239449
0.121307 0.837973 0.242720
0.131130 0.837660 0.244744
0.140346 0.838067 0.246136
0.164590 0.839761 0.250758
0.227603 0.847609 0.267728
0.292023 0.859683 0.288310
0.351826 0.876181 0.305423
0.449296 0.877548 0.279314
0.692760 0.888926 0.223809
0.816990 0.901844 0.173677
0.905455 0.899938 0.181409
0.913885 0.895527 0.186505
0.923146 0.892559 0.191349
0.095293 0.850177 0.240831
0.106211 0.850682 0.242589
0.115498 0.849618 0.245464
0.125083 0.848612 0.248578
0.134817 0.848582 0.250614
0.144371 0.848661 0.252179
0.159118 0.849473 0.254927
0.219417 0.855987 0.270103
0.283407 0.866960 0.289885
0.345996 0.882781 0.308539
0.404394 0.883950 0.300013
0.644996 0.898494 0.240722
0.788792 0.909505 0.182369
0.889324 0.910564 0.181283
0.913841 0.911444 0.187117
0.922323 0.910433 0.191835
0.101277 0.874862 0.250024
0.111696 0.875297 0.251875
0.118745 0.874436 0.254436
0.122865 0.873443 0.256916
0.121629 0.872990 0.257852
0.110161 0.873445 0.257582
0.092408 0.873999 0.257658
0.161599 0.880471 0.269931
0.234910 0.891087 0.288218
0.317694 0.905776 0.317412
0.378817 0.909677 0.312848
0.612919 0.923232 0.257594
0.775162 0.934131 0.186229
0.880724 0.934746 0.183165
0.910128 0.935978 0.188161
0.921540 0.936802 0.190588
-0.023327 -0.216097 0.045571
-0.012083 -0.216087 0.046389
0.116007 -0.215807 0.050728
0.209060 -0.214384 0.065786
0.306589 -0.212195 0.080319
0.428074 -0.206928 0.099903
0.545377 -0.194484 0.117849
0.651388 -0.169606 0.135042
0.734490 -0.127537 0.142326
0.783388 -0.072726 0.134997
0.805565 0.074422 0.142031
0.811166 0.085503 0.149006
0.815848 0.097722 0.155908
0.821662 0.118706 0.162670
0.829007 0.138295 0.168673
0.838540 0.157268 0.176052
-0.002839 0.029009 0.069478
-0.014129 0.021636 0.068788
0.097896 0.027628 0.074018
0.193696 0.051119 0.083380
0.286817 0.069729 0.092548
0.403759 0.095560 0.106732
0.522492 0.137909 0.125550
0.632209 0.183713 0.144836
0.718907 0.225098 0.156973
0.770596 0.247848 0.153718
0.799413 0.262786 0.163340
0.808096 0.267655 0.166403
0.817337 0.272678 0.169835
0.826154 0.277978 0.174128
0.835103 0.283754 0.178838
0.844556 0.290018 0.184178
0.004277 0.085688 0.062467
-0.008618 0.085389 0.062506
0.063100 0.088007 0.068057
0.173498 0.094670 0.075652
0.268157 0.105496 0.082547
0.370727 0.118913 0.091981
0.496590 0.151844 0.111010
0.615522 0.193890 0.133486
0.705394 0.232666 0.151773
0.763825 0.255990 0.152234
0.801871 0.273929 0.164543
0.810553 0.279174 0.168419
0.819838 0.284429 0.172464
0.828748 0.289608 0.176668
0.837499 0.294984 0.181457
0.847083 0.301237 0.187222
-0.002690 0.153521 0.056032
-0.002991 0.152865 0.054056
0.020534 0.154538 0.050641
0.128183 0.157455 0.055182
0.244862 0.156465 0.074970
0.335239 0.171895 0.082140
0.451539 0.196374 0.101171
0.583594 0.234801 0.130960
0.688964 0.271102 0.152565
0.759233 0.291305 0.155070
0.809497 0.308028 0.168524
0.818182 0.306777 0.173100
0.826166 0.307801 0.177236
0.834204 0.309832 0.181579
0.841914 0.311734 0.185818
0.850924 0.316718 0.191691
-0.002381 0.228515 0.048949
0.008135 0.228445 0.047568
-0.002408 0.226426 0.046503
0.061424 0.233591 0.044547
0.195136 0.224249 0.053907
0.317327 0.228622 0.088748
0.422562 0.251512 0.102815
0.544641 0.282491 0.129333
0.663894 0.315008 0.155651
0.753495 0.336488 0.163499
0.811580 0.355922 0.175020
0.828745 0.359026 0.185096
0.837174 0.359355 0.190351
0.844875 0.361300 0.196921
0.852524 0.362881 0.203292
0.861244 0.367934 0.211320
-0.002218 0.306340 0.063907
0.009179 0.306194 0.063336
0.015768 0.303693 0.062470
0.043644 0.306663 0.063241
0.103489 0.313009 0.049882
0.277374 0.302802 0.057785
0.410939 0.315365 0.112972
0.530163 0.339214 0.136777
0.646529 0.365988 0.161485
0.747318 0.390108 0.174097
0.807008 0.404362 0.180167
0.835121 0.412985 0.198904
0.842534 0.411521 0.204535
0.849812 0.412371 0.211490
0.857037 0.413325 0.218868
0.865430 0.417975 0.227841
-0.002699 0.386853 0.086460
0.008887 0.386166 0.085598
0.017835 0.383934 0.084772
0.031288 0.381561 0.084340
0.078223 0.397035 0.081180
0.168881 0.406183 0.045897
0.376865 0.390194 0.068503
0.518967 0.407480 0.150316
0.635198 0.429032 0.172793
0.736425 0.449712 0.186762
0.803440 0.458800 0.187485
0.840187 0.469122 0.208414
0.848658 0.467056 0.216733
0.854948 0.466223 0.225032
0.861238 0.464894 0.232966
0.868867 0.468138 0.242307
-0.002942 0.473680 0.119967
0.014390 0.472495 0.117661
0.024646 0.469921 0.115247
0.031391 0.464847 0.113730
0.076604 0.472162 0.114107
0.130363 0.492926 0.103676
0.271041 0.488328 0.044024
0.493765 0.483095 0.103276
0.625826 0.499730 0.188335
0.726748 0.517686 0.199547
0.802117 0.521075 0.198376
0.843583 0.526838 0.217060
0.854963 0.524301 0.230321
0.860644 0.521665 0.236760
0.865900 0.518138 0.244092
0.872607 0.519086 0.253180
0.014676 0.560899 0.150597
0.026024 0.559632 0.149726
0.036122 0.557281 0.148510
0.044298 0.551868 0.147614
0.066951 0.550839 0.146227
0.121861 0.564448 0.149588
0.172460 0.576370 0.127421
0.377388 0.569921 0.048645
0.597991 0.578574 0.113804
0.715483 0.591580 0.214848
0.795033 0.589076 0.218202
0.846474 0.586522 0.217107
0.863172 0.582911 0.239227
0.867738 0.577754 0.246923
0.872291 0.572673 0.255806
0.878054 0.572165 0.266403
0.036921 0.648350 0.181092
0.046814 0.646528 0.180305
0.055765 0.643752 0.179353
0.063279 0.638833 0.179166
0.072868 0.633987 0.177737
0.121821 0.637216 0.179448
0.178781 0.649121 0.184380
0.229079 0.647010 0.156853
0.507969 0.650823 0.057773
0.695579 0.668301 0.116126
0.780998 0.664340 0.245779
0.845174 0.652770 0.237860
0.872586 0.646429 0.259576
0.877272 0.639776 0.261769
0.882276 0.633260 0.266375
0.888118 0.631517 0.274046
0.066904 0.719209 0.205490
0.076790 0.717907 0.205228
0.085858 0.715812 0.205137
0.093968 0.712227 0.206048
0.100598 0.707740 0.204941
0.129623 0.705375 0.204505
0.188703 0.711290 0.209881
0.241191 0.723190 0.217172
0.332773 0.728562 0.159218
0.632175 0.734210 0.063024
0.766582 0.742376 0.134114
0.833276 0.719935 0.279100
0.879243 0.709613 0.296119
0.885260 0.701063 0.296192
0.891273 0.695264 0.296634
0.898199 0.693782 0.299609
0.080611 0.788243 0.225190
0.090721 0.786868 0.225774
0.100045 0.784775 0.226255
0.108761 0.780990 0.227494
0.117176 0.776608 0.226759
0.129966 0.772351 0.225774
0.183691 0.774876 0.232231
0.243132 0.783456 0.249158
0.294878 0.791484 0.262043
0.438193 0.801702 0.167451
0.705100 0.807180 0.112325
0.817028 0.794092 0.188569
0.877966 0.776800 0.317054
0.892542 0.768953 0.327477
0.897980 0.761862 0.327045
0.905232 0.760423 0.328659
0.087495 0.827881 0.239503
0.098601 0.828466 0.241449
0.109150 0.829304 0.244292
0.118829 0.828542 0.247637
0.128407 0.827687 0.249008
0.136183 0.826227 0.249233
0.176905 0.827672 0.256952
0.240049 0.834091 0.273449
0.303402 0.845775 0.294011
0.348585 0.845778 0.293860
0.574778 0.858881 0.220484
0.757511 0.857958 0.190713
0.870010 0.851832 0.186620
0.905219 0.835082 0.269058
0.909485 0.827918 0.297549
0.916056 0.826628 0.313655
0.091327 0.838377 0.246057
0.102340 0.838811 0.247419
0.112836 0.839309 0.249840
0.122418 0.838605 0.253088
0.132174 0.838417 0.255065
0.141182 0.838435 0.256401
0.165180 0.840175 0.260943
0.228007 0.848172 0.277785
0.292867 0.860266 0.298424
0.353258 0.876607 0.315720
0.447449 0.877168 0.292378
0.691421 0.889389 0.236149
0.815919 0.901550 0.184812
0.905077 0.899439 0.191588
0.913706 0.894996 0.197014
0.922825 0.892099 0.202424
0.095521 0.849337 0.252531
0.106459 0.849880 0.253839
0.116841 0.850123 0.255894
0.126285 0.849394 0.258911
0.136009 0.849196 0.260917
0.145283 0.849133 0.262394
0.159994 0.849906 0.265038
0.219948 0.856517 0.280064
0.284093 0.867510 0.299863
0.347433 0.883312 0.318827
0.404281 0.883927 0.311688
0.642944 0.898849 0.253484
0.787422 0.909301 0.197897
0.889203 0.910616 0.191289
0.914112 0.911371 0.197777
0.922625 0.910397 0.202893
0.101530 0.874044 0.260973
0.112163 0.874641 0.262312
0.120613 0.875003 0.264292
0.125089 0.874103 0.266862
0.124468 0.873735 0.267925
0.112599 0.873683 0.267565
0.093724 0.874505 0.267524
0.161620 0.880786 0.279699
0.235230 0.891647 0.297997
0.316620 0.906413 0.324720
0.379391 0.909932 0.323537
0.611164 0.923596 0.270621
0.773601 0.933905 0.201533
0.880134 0.934792 0.191976
0.910670 0.936059 0.197734
0.922030 0.936802 0.200118
-0.023187 -0.215806 0.155003
-0.014900 -0.215921 0.157350
0.099574 -0.215949 0.153044
0.202165 -0.215576 0.145864
0.292203 -0.213193 0.136597
0.423250 -0.207418 0.157432
0.548365 -0.196129 0.171251
0.654833 -0.174654 0.183247
0.737327 -0.134395 0.188679
0.785907 -0.093743 0.184868
0.807822 0.041981 0.188277
0.812735 0.070440 0.187992
0.816656 0.090358 0.191692
0.821590 0.109200 0.194592
0.828132 0.127158 0.196975
0.836878 0.146462 0.203528
-0.003005 0.034951 0.145197
-0.009079 0.027609 0.148448
0.079506 0.013846 0.151543
0.185838 0.033620 0.142044
0.279154 0.065270 0.139205
0.401714 0.095191 0.155532
0.525900 0.134149 0.172295
0.634426 0.178792 0.189383
0.722304 0.225050 0.202832
0.773322 0.245626 0.201237
0.802031 0.264627 0.206150
0.809718 0.269792 0.203648
0.818397 0.275396 0.204444
0.826883 0.280447 0.206109
0.835281 0.285606 0.208058
0.844451 0.291831 0.213317
0.005220 0.091576 0.125789
0.008990 0.088876 0.125437
0.044160 0.079796 0.136964
0.159689 0.083114 0.134089
0.264838 0.102616 0.130455
0.373367 0.111600 0.139183
0.501849 0.143322 0.158645
0.615340 0.185489 0.177651
0.707618 0.229256 0.191688
0.766456 0.253097 0.190841
0.803642 0.274366 0.198083
0.811763 0.280024 0.196847
0.820694 0.285921 0.197801
0.829358 0.291323 0.200688
0.837851 0.296486 0.203079
0.847058 0.302633 0.208808
-0.002134 0.154339 0.120653
0.009654 0.153751 0.121029
0.024973 0.155164 0.124194
0.105097 0.158773 0.133431
0.242326 0.155535 0.122754
0.342562 0.164178 0.127205
0.463239 0.184147 0.142416
0.589231 0.225810 0.166429
0.690941 0.265873 0.181914
0.761537 0.288125 0.182285
0.809509 0.307898 0.191605
0.818166 0.307146 0.191383
0.825930 0.308403 0.193182
0.834038 0.310852 0.196271
0.841754 0.313309 0.199658
0.850814 0.318830 0.205699
-0.002515 0.227690 0.122161
0.008598 0.227491 0.120337
0.013000 0.225341 0.116019
0.058173 0.233309 0.112986
0.183425 0.227851 0.102402
0.320345 0.222011 0.119755
0.430169 0.244903 0.131266
0.551921 0.276510 0.153210
0.668088 0.313111 0.173655
0.755209 0.335831 0.178386
0.812921 0.356027 0.189189
0.829917 0.359739 0.199822
0.837947 0.359996 0.203566
0.845780 0.362351 0.210005
0.853012 0.364162 0.216303
0.861425 0.368989 0.223793
-0.002249 0.304704 0.118127
0.009405 0.304003 0.114718
0.016211 0.301495 0.109469
0.043933 0.305479 0.103623
0.098335 0.311160 0.087365
0.272488 0.299579 0.079465
0.410832 0.311353 0.127435
0.531891 0.336930 0.148962
0.648485 0.365118 0.171658
0.748089 0.389422 0.183582
0.808335 0.404266 0.191120
0.836150 0.413598 0.213044
0.843744 0.412321 0.218609
0.850904 0.413542 0.225828
0.857830 0.414907 0.233745
0.865767 0.419859 0.243077
-0.002548 0.384548 0.115377
0.009010 0.384049 0.112624
0.017958 0.381796 0.108314
0.031537 0.380305 0.103954
0.076580 0.394373 0.100608
0.165242 0.404412 0.062977
0.374213 0.388304 0.078250
0.520065 0.407114 0.159272
0.637063 0.428866 0.181147
0.737097 0.448814 0.194758
0.804823 0.458997 0.198079
0.840712 0.469254 0.222342
0.849131 0.467162 0.230582
0.855242 0.466560 0.239168
0.860982 0.465431 0.248192
0.868352 0.468884 0.257841
-0.004032 0.471025 0.136273
0.012848 0.469911 0.133513
0.023422 0.467626 0.130182
0.030519 0.462626 0.126423
0.075330 0.470336 0.126500
