_SYSTEM/luts/Colorify CL Fashion LUT.cube
LUT_3D_SIZE 6
-0.009092 -0.007496 -0.001989
0.208788 0.048147 0.036451
0.537591 0.139359 0.093823
0.773586 0.240671 0.134926
0.814698 0.259855 0.151007
0.842029 0.276874 0.163057
-0.002852 0.156737 0.010649
0.134883 0.155232 0.027292
0.446442 0.202599 0.081721
0.756486 0.293745 0.137485
0.825956 0.307603 0.158287
0.851543 0.315534 0.172154
-0.002908 0.389971 0.059462
0.031426 0.382206 0.059405
0.379589 0.390575 0.047814
0.732801 0.448227 0.169343
0.847440 0.466569 0.191379
0.870012 0.467669 0.212233
0.037972 0.651651 0.156575
0.062901 0.640193 0.158115
0.179520 0.649683 0.161080
0.690278 0.664522 0.094798
0.875899 0.649235 0.240404
0.890425 0.634089 0.251382
0.087439 0.830042 0.216815
0.116990 0.827219 0.226728
0.175970 0.826877 0.236591
0.348195 0.847407 0.274449
0.871470 0.853385 0.163899
0.916210 0.827251 0.291376
0.101166 0.875898 0.238477
0.121728 0.872752 0.246661
0.091885 0.873901 0.247379
0.315965 0.905291 0.307031
0.776725 0.934256 0.172566
0.921013 0.936627 0.179689
-0.023187 -0.215806 0.155003
0.202165 -0.215576 0.145864
0.548365 -0.196129 0.171251
0.785907 -0.093743 0.184868
0.816656 0.090358 0.191692
0.836878 0.146462 0.203528
-0.002134 0.154339 0.120653
0.105097 0.158773 0.133431
0.463239 0.184147 0.142416
0.761537 0.288125 0.182285
0.825930 0.308403 0.193182
0.850814 0.318830 0.205699
-0.002548 0.384548 0.115377
0.031537 0.380305 0.103954
0.374213 0.388304 0.078250
0.737097 0.448814 0.194758
0.849131 0.467162 0.230582
0.868352 0.468884 0.257841
0.036395 0.646280 0.193230
0.063628 0.637839 0.189791
0.178920 0.648627 0.195539
0.696434 0.670237 0.124196
0.871047 0.645000 0.269844
0.886787 0.630238 0.285983
0.087809 0.827145 0.250976
0.119972 0.829170 0.257952
0.177507 0.828054 0.266933
0.348765 0.845507 0.304539
0.869211 0.850717 0.198073
0.915730 0.826129 0.324212
0.101831 0.873379 0.270998
0.127700 0.874602 0.275945
0.104914 0.874772 0.277575
0.316151 0.907092 0.331842
0.772401 0.933458 0.214937
0.922560 0.936955 0.207590
0.013926 -0.214740 0.472635
0.149698 -0.214937 0.452412
0.483998 -0.215528 0.387950
0.775811 -0.072457 0.438970
0.814770 0.115279 0.437244
0.833051 0.154579 0.433791
-0.003305 0.190735 0.380159
0.083248 0.149339 0.400878
0.407471 0.128925 0.353437
0.758634 0.298721 0.417989
0.821676 0.321802 0.419959
0.843524 0.334546 0.419104
-0.003113 0.379606 0.358891
0.030327 0.371705 0.347985
0.248375 0.369302 0.351361
0.723837 0.461580 0.425741
0.847370 0.485335 0.430778
0.869404 0.486741 0.430353
0.040399 0.641652 0.351809
0.067760 0.632175 0.341762
0.187704 0.645739 0.327110
0.692704 0.686565 0.238501
0.868593 0.642442 0.387796
0.886748 0.632832 0.389027
0.091799 0.827679 0.317155
0.123000 0.828896 0.316527
0.179373 0.827059 0.314860
0.352120 0.844045 0.343874
0.865474 0.846077 0.234131
0.914562 0.823262 0.356143
0.104738 0.874632 0.292881
0.131723 0.874951 0.295674
0.127288 0.876912 0.302318
0.314095 0.909186 0.348167
0.769070 0.933245 0.228718
0.921525 0.936805 0.215650
0.059155 -0.216135 0.788863
0.186476 -0.216461 0.767179
0.485463 -0.214360 0.746993
0.867399 -0.187102 0.736524
0.905086 -0.178838 0.709320
0.922193 -0.155441 0.693392
0.045740 0.170898 0.727889
0.130229 0.116978 0.738644
0.379902 0.109541 0.698684
0.818371 0.208860 0.684216
0.894761 0.245395 0.664289
0.914229 0.263063 0.645291
0.035964 0.415598 0.622527
0.064776 0.404721 0.613719
0.203288 0.379121 0.649657
0.745924 0.406272 0.636199
0.861043 0.473249 0.625686
0.883182 0.494901 0.623488
0.062516 0.648627 0.606179
0.087991 0.637458 0.593106
0.195793 0.640463 0.591741
0.599841 0.652124 0.613771
0.885390 0.687140 0.650629
0.906214 0.683798 0.648615
0.111487 0.832521 0.569566
0.141610 0.833245 0.560940
0.192072 0.829805 0.545885
0.388755 0.859752 0.566256
0.871093 0.872556 0.509452
0.929035 0.843181 0.563373
0.124547 0.880768 0.515929
0.151086 0.883603 0.506992
0.136043 0.885814 0.493042
0.333480 0.920593 0.530709
0.763506 0.945297 0.461829
0.922395 0.948253 0.356050
0.075033 -0.217999 0.857867
0.203410 -0.219127 0.841696
0.499503 -0.207887 0.867871
0.871414 -0.189731 0.863250
0.931231 -0.192433 0.872682
0.950649 -0.159299 0.875968
0.071108 0.200211 0.827856
0.165649 0.147457 0.848219
0.422657 0.167096 0.872953
0.818596 0.213391 0.860753
0.926353 0.233214 0.870029
0.952487 0.276118 0.871498
0.068641 0.428966 0.812211
0.098341 0.398038 0.808859
0.308556 0.381767 0.849371
0.730360 0.360745 0.853922
0.936465 0.437095 0.887079
0.958323 0.446372 0.882178
0.102059 0.650623 0.824065
0.123616 0.635307 0.814351
0.237385 0.636516 0.820648
0.512768 0.660046 0.863364
0.940875 0.686992 0.884026
0.960037 0.683023 0.869193
0.168609 0.860316 0.843134
0.195438 0.855454 0.833660
0.237520 0.847036 0.819260
0.431119 0.879630 0.850092
0.853658 0.901960 0.874259
0.952886 0.896805 0.862599
0.174078 0.904270 0.797389
0.198489 0.904396 0.788032
0.194701 0.904984 0.774557
0.368388 0.938802 0.795121
0.758933 0.982544 0.838918
0.958053 0.988683 0.783291
0.097445 -0.225197 0.882942
0.233293 -0.224196 0.879373
0.492592 -0.213143 0.914196
0.852285 -0.199038 0.900808
0.937747 -0.177891 0.918654
0.959563 -0.141866 0.921256
0.101339 0.196128 0.867019
0.193892 0.167964 0.885137
0.435003 0.177568 0.917130
0.796697 0.213685 0.900621
0.934777 0.266371 0.925869
0.961767 0.297756 0.927676
0.088906 0.397150 0.851661
0.126567 0.377142 0.858459
0.340996 0.372846 0.897743
0.711030 0.348992 0.896832
0.943229 0.450092 0.933963
0.965838 0.470985 0.930756
0.110212 0.636153 0.852102
0.138825 0.629277 0.850917
0.255429 0.632241 0.859853
0.505827 0.661410 0.910946
0.948175 0.702734 0.947998
0.972605 0.701340 0.947271
0.182658 0.854492 0.902577
0.211348 0.851830 0.901155
0.254815 0.841416 0.899688
0.447989 0.870710 0.940420
0.861837 0.913303 0.979025
0.973521 0.906739 0.980633
0.196832 0.910707 0.917785
0.226281 0.911462 0.917522
0.254673 0.912750 0.920317
0.444906 0.941702 0.946028
0.802546 0.984875 0.986468
0.974587 0.991324 0.990524
