_SYSTEM/luts/D-CINELIKE -0_3 V2.cube
TITLE "Generated by Resolve"
LUT_3D_SIZE 9
0.00384527 0.00105287 0.00166323
0.215091 0.0355383 0.0184634
0.404623 0.0403601 0.0101778
0.577691 0.0514076 0.0137636
0.701808 0.0771649 0.0276493
0.773053 0.102174 0.0429541
0.81883 0.108385 0.0436408
0.847745 0.0995804 0.0363012
0.872831 0.103166 0.0383612
0.0171054 0.138964 0.0263981
0.227131 0.11725 0.0326238
0.402975 0.132937 0.03122
0.572961 0.158999 0.0480201
0.679576 0.168261 0.0590982
0.758846 0.174975 0.0624094
0.81854 0.179889 0.0647593
0.865919 0.188769 0.0672007
0.898436 0.179355 0.0629282
0.0368963 0.25919 0.0289158
0.24564 0.242878 0.0391394
0.411139 0.233112 0.0466468
0.556634 0.269215 0.0554208
0.66717 0.283742 0.0611734
0.748028 0.285527 0.0645457
0.820005 0.294652 0.0668345
0.869093 0.292165 0.0667735
0.902861 0.291188 0.0658579
0.0783856 0.344213 0.0789197
0.279332 0.33666 0.0676432
0.43978 0.345953 0.0683757
0.572595 0.36347 0.0691844
0.683696 0.39379 0.0754711
0.771221 0.399283 0.0780804
0.840085 0.390661 0.0779583
0.888685 0.38938 0.0766613
0.92343 0.388357 0.0744182
0.132555 0.429755 0.129717
0.31284 0.42388 0.105989
0.46595 0.45658 0.083711
0.605554 0.472816 0.0908827
0.711452 0.491524 0.0892348
0.792905 0.504204 0.0912337
0.85658 0.50898 0.0910658
0.900816 0.512062 0.0903029
0.934524 0.512444 0.0872663
0.160861 0.51165 0.158602
0.345602 0.518715 0.132738
0.49073 0.562127 0.101213
0.629816 0.582391 0.113527
0.728496 0.587274 0.108812
0.808606 0.590143 0.102037
0.86656 0.594278 0.0976577
0.909102 0.596292 0.0950332
0.941222 0.597009 0.0913252
0.184405 0.588342 0.175586
0.375219 0.601694 0.153857
0.516869 0.647272 0.119966
0.643778 0.664668 0.131884
0.740047 0.67306 0.132876
0.817456 0.672129 0.110231
0.875578 0.669734 0.0970321
0.916091 0.669215 0.0941634
0.94818 0.67042 0.0908827
0.19704 0.651469 0.181506
0.396094 0.670588 0.158968
0.534127 0.707729 0.132906
0.655863 0.729717 0.145083
0.750652 0.738582 0.146715
0.828107 0.741466 0.12752
0.883787 0.737865 0.104753
0.923018 0.736996 0.100832
0.954284 0.736919 0.0974441
0.196643 0.683467 0.181384
0.400183 0.712413 0.160067
0.533578 0.740764 0.136873
0.661295 0.768994 0.144701
0.756298 0.778485 0.145769
0.836179 0.78233 0.130144
0.891051 0.780148 0.11014
0.929198 0.779934 0.106233
0.958633 0.780285 0.102144
0.0251774 0.0803998 0.22269
0.199405 0.0533761 0.135454
0.384192 0.0543832 0.0717632
0.545266 0.069276 0.0803082
0.648829 0.0969558 0.107195
0.718273 0.119768 0.127001
0.775586 0.133333 0.130709
0.812894 0.12108 0.118471
0.841566 0.123171 0.121248
0.0328985 0.161303 0.157427
0.109606 0.123705 0.100847
0.360449 0.12195 0.0749981
0.535576 0.147707 0.0878462
0.657038 0.160586 0.10248
0.743557 0.172366 0.110674
0.812436 0.174945 0.113252
0.86685 0.178775 0.115099
0.906218 0.177401 0.114
0.0559396 0.287709 0.170199
0.125063 0.255665 0.100923
0.343648 0.238636 0.0753185
0.508751 0.261723 0.0906844
0.637232 0.274357 0.0983749
0.73196 0.275196 0.104875
0.812726 0.282963 0.108431
0.869902 0.281224 0.10898
0.91165 0.280049 0.10869
0.0951705 0.377371 0.205188
0.174746 0.367819 0.142412
0.359945 0.362692 0.106905
0.521737 0.368231 0.101686
0.642802 0.390951 0.111559
0.739895 0.395453 0.116411
0.816968 0.38909 0.116625
0.874647 0.386374 0.114992
0.919799 0.384894 0.113283
0.140078 0.460426 0.242206
0.216449 0.463706 0.179614
0.386191 0.475242 0.134096
0.547509 0.483253 0.126497
0.667353 0.498009 0.12491
0.759655 0.506889 0.126879
0.832715 0.509575 0.12697
0.886519 0.51252 0.127367
0.931517 0.513695 0.1252
0.166567 0.548959 0.265202
0.24979 0.560525 0.206241
0.401266 0.577996 0.148653
0.566201 0.595056 0.149203
0.685618 0.601556 0.145678
0.778927 0.603067 0.139986
0.846525 0.6047 0.135653
0.898939 0.606088 0.13341
0.941848 0.606958 0.130724
0.189563 0.624475 0.275456
0.282383 0.642008 0.222843
0.420066 0.655634 0.1664
0.585794 0.689052 0.171496
0.701671 0.692607 0.172763
0.792309 0.691539 0.151843
0.860243 0.688746 0.138369
0.911192 0.687602 0.135454
0.951629 0.687877 0.13257
0.204883 0.690745 0.278584
0.309392 0.71371 0.229099
0.449271 0.721584 0.193362
0.605127 0.761028 0.190234
0.715923 0.766125 0.190707
0.806531 0.767575 0.173495
0.872908 0.763653 0.149966
0.922026 0.763516 0.146044
0.960433 0.762142 0.142687
0.208652 0.726726 0.270619
0.322042 0.758526 0.226429
0.468986 0.773419 0.201923
0.617105 0.80592 0.192584
0.725078 0.811444 0.192569
0.816632 0.814862 0.17821
0.882124 0.811063 0.155993
0.930205 0.811688 0.152331
0.965866 0.811093 0.148074
0.0310826 0.106416 0.367453
0.140154 0.0950179 0.372366
0.345006 0.0724346 0.228046
0.511925 0.0966659 0.186191
0.625544 0.130358 0.208957
0.715206 0.121172 0.214862
0.769635 0.13817 0.215885
0.810575 0.143969 0.213733
0.830274 0.140154 0.198428
0.0279088 0.192248 0.310231
0.0897688 0.180621 0.292943
0.27541 0.137407 0.209339
0.476005 0.157565 0.167422
0.616007 0.182315 0.181949
0.719371 0.194751 0.193194
0.786709 0.194934 0.196414
0.838819 0.200076 0.197772
0.882902 0.201709 0.194842
0.0751049 0.307012 0.299351
0.118441 0.286244 0.268589
0.246952 0.262776 0.235721
0.49929 0.262135 0.181689
0.62739 0.279088 0.182635
0.733196 0.282582 0.184924
0.816983 0.281544 0.182284
0.871839 0.281758 0.178149
0.912596 0.280644 0.172457
0.114702 0.393179 0.316579
0.166018 0.390814 0.284718
0.280751 0.385061 0.234363
0.490806 0.379171 0.176379
0.628046 0.399878 0.192172
0.741878 0.404059 0.193179
0.829526 0.386709 0.18967
0.889433 0.381079 0.181735
0.935103 0.378714 0.17612
0.149142 0.481239 0.345922
0.209918 0.490639 0.310994
0.333761 0.502754 0.261097
0.50576 0.498711 0.209369
0.645426 0.505531 0.195895
0.750744 0.513039 0.196246
0.835233 0.513283 0.194766
0.896895 0.506813 0.186908
0.945129 0.507439 0.18024
0.172732 0.568597 0.363729
0.239231 0.585367 0.330007
0.363973 0.598459 0.274342
0.529381 0.610315 0.23566
0.662989 0.6103 0.216205
0.76936 0.613108 0.205753
0.847288 0.612894 0.201846
0.904311 0.612253 0.196139
0.951598 0.613046 0.190387
0.193408 0.644541 0.375753
0.270558 0.669566 0.339345
0.396033 0.677485 0.293919
0.551858 0.701198 0.246128
0.681468 0.70277 0.241611
0.782528 0.703273 0.226749
0.858274 0.699458 0.214435
0.914641 0.698192 0.210376
0.959121 0.697948 0.205295
0.20621 0.711391 0.380026
0.297536 0.74612 0.342779
0.427558 0.760113 0.306355
0.568322 0.780758 0.264668
0.693004 0.78761 0.26453
0.795087 0.786755 0.256123
0.869917 0.782223 0.23566
0.924193 0.780362 0.224262
0.966125 0.778759 0.218082
0.207767 0.748226 0.374533
0.310613 0.794049 0.335622
0.444511 0.813764 0.303853
0.57966 0.830304 0.269154
0.705211 0.839887 0.271366
0.802701 0.838071 0.263676
0.878157 0.834501 0.245274
0.931289 0.832166 0.233845
0.969924 0.831052 0.226413
0.0394598 0.125948 0.499596
0.12282 0.126635 0.505837
0.312947 0.115236 0.405737
0.469703 0.12604 0.314931
0.593744 0.150256 0.297963
0.643854 0.136858 0.296483
0.702907 0.140291 0.291112
0.75671 0.149416 0.295216
0.789715 0.150484 0.293309
0.0410163 0.227054 0.430686
0.1075 0.225345 0.427085
0.227893 0.208255 0.369863
0.409094 0.171008 0.288594
0.585931 0.195377 0.271901
0.658198 0.212528 0.264805
0.723934 0.221256 0.262364
0.767666 0.228504 0.258198
0.804822 0.232471 0.250568
0.0763714 0.323873 0.391546
0.126711 0.316594 0.382818
0.220676 0.317983 0.383795
0.398199 0.265049 0.31548
0.593668 0.287602 0.296468
0.708324 0.305501 0.29398
0.802579 0.303975 0.295872
0.862348 0.305898 0.282704
0.903136 0.309331 0.270054
0.123186 0.406897 0.394018
0.170565 0.411551 0.394629
0.255055 0.415641 0.395193
0.413703 0.416876 0.387076
0.627802 0.409949 0.331609
0.737438 0.414343 0.319554
0.83299 0.403143 0.305501
0.895598 0.396246 0.29572
0.9411 0.395941 0.288243
0.149447 0.495552 0.428
0.203418 0.510613 0.424536
0.314794 0.522606 0.411261
0.449195 0.530663 0.36849
0.629221 0.523262 0.318639
0.742672 0.52755 0.322621
0.838743 0.524315 0.312932
0.904799 0.513878 0.304463
0.955016 0.514046 0.297581
0.173892 0.581338 0.454032
0.238193 0.606851 0.444633
0.355093 0.622843 0.420142
0.489387 0.634089 0.371633
0.634089 0.62678 0.340902
0.754406 0.626245 0.321324
0.844617 0.627024 0.314336
0.906813 0.625681 0.307988
0.957183 0.626657 0.302663
0.19321 0.657771 0.467369
0.268605 0.692943 0.454597
0.388708 0.710185 0.425269
0.508873 0.724743 0.372671
0.653452 0.72755 0.359152
0.769268 0.720348 0.340917
0.854246 0.715496 0.320272
0.913695 0.712291 0.314397
0.961166 0.712276 0.312001
0.207538 0.727718 0.475334
0.294865 0.770672 0.458183
0.416129 0.789395 0.43003
0.536416 0.802197 0.390692
0.669383 0.809842 0.372045
0.779156 0.805737 0.363119
0.861997 0.799435 0.340291
0.921096 0.795468 0.325368
0.96701 0.793011 0.322667
0.207675 0.765789 0.472526
0.304692 0.819715 0.451591
0.428565 0.843244 0.426551
0.554253 0.856519 0.398856
0.6804 0.864302 0.380896
0.785351 0.859236 0.370214
0.867781 0.85275 0.350256
0.927779 0.848615 0.334279
0.972412 0.84625 0.3308
0.0480201 0.142702 0.581811
0.11397 0.139712 0.585428
0.286061 0.152071 0.53753
0.436423 0.147662 0.428153
0.56141 0.170825 0.387961
0.663569 0.18146 0.397467
0.713283 0.195758 0.396445
0.773861 0.203616 0.406271
0.801709 0.199893 0.394369
0.0514687 0.219471 0.523369
0.113863 0.239597 0.511589
0.204364 0.24947 0.47039
0.368872 0.210254 0.398184
0.533211 0.208469 0.368246
0.65745 0.220584 0.355337
0.716136 0.229191 0.348714
0.772412 0.23566 0.343359
0.816724 0.240864 0.335439
0.0946365 0.35201 0.474998
0.147387 0.347799 0.466804
0.231678 0.353033 0.477546
0.352972 0.310674 0.440574
0.547539 0.289616 0.39646
0.690578 0.317601 0.381674
0.757595 0.330938 0.370245
0.810483 0.332357 0.357885
0.853361 0.333593 0.344533
0.137331 0.426612 0.462837
0.185687 0.430762 0.474922
0.272725 0.438651 0.481239
0.384939 0.448798 0.50486
0.567483 0.406195 0.442725
0.713268 0.42266 0.424811
0.808515 0.429923 0.409888
0.871443 0.429358 0.401053
0.917037 0.429175 0.392386
0.155779 0.508278 0.496834
0.208408 0.523949 0.50782
0.312428 0.54136 0.517601
0.42092 0.558206 0.533898
0.592096 0.567269 0.518456
0.746914 0.541329 0.458457
0.833494 0.536583 0.441398
0.904295 0.530388 0.424903
0.956344 0.529442 0.417014
0.172335 0.595117 0.52462
0.234928 0.622171 0.53695
0.346883 0.643229 0.538567
0.465248 0.65478 0.522148
0.594888 0.663539 0.494453
0.749752 0.656245 0.454582
0.835676 0.643275 0.444266
0.904448 0.640864 0.428031
0.958358 0.639658 0.419684
0.189014 0.669001 0.544427
0.261921 0.706432 0.551934
0.380926 0.727779 0.545159
0.495903 0.745769 0.521523
0.62211 0.746227 0.487068
0.746929 0.739681 0.468116
0.844617 0.733516 0.445335
0.91014 0.730022 0.431815
0.961654 0.72813 0.425269
0.205982 0.737881 0.556313
0.291371 0.785809 0.55877
0.410101 0.808347 0.54612
0.523339 0.826398 0.520745
0.638422 0.83035 0.48864
0.756283 0.823835 0.472663
0.85153 0.816953 0.452995
0.917266 0.811658 0.43508
0.966369 0.808042 0.431983
0.206775 0.776455 0.559487
0.299931 0.834104 0.558358
0.418479 0.860761 0.542184
0.535348 0.880262 0.517739
0.649302 0.884947 0.489921
0.763973 0.877928 0.470573
0.855879 0.868177 0.452033
0.92163 0.863722 0.437812
0.96965 0.860365 0.436652
0.054139 0.159976 0.622599
0.102983 0.153552 0.596262
0.212116 0.158953 0.585946
0.410224 0.15761 0.519753
0.54284 0.179767 0.484428
0.656779 0.202777 0.467536
0.729625 0.213993 0.479606
0.77995 0.220096 0.488411
0.811963 0.222187 0.485039
0.0563821 0.19675 0.559197
0.0951705 0.180026 0.562783
0.189517 0.223972 0.569421
0.347158 0.242985 0.514794
0.502739 0.2365 0.467231
0.632425 0.242679 0.44593
0.717952 0.259602 0.446876
0.776318 0.270604 0.443671
0.8206 0.275135 0.432624
0.0928817 0.351232 0.553521
0.143175 0.359564 0.538552
0.233967 0.378988 0.556786
0.355093 0.357458 0.552743
0.520287 0.321492 0.509834
0.6663 0.323796 0.479225
0.76762 0.337392 0.464866
0.825086 0.342123 0.452216
0.86862 0.343328 0.435172
0.149508 0.448157 0.525017
0.195697 0.449805 0.539651
0.284489 0.466255 0.568185
0.386679 0.469657 0.579385
0.516243 0.441276 0.553521
0.687175 0.422629 0.514443
0.801633 0.435721 0.499702
0.865797 0.438743 0.489738
0.91249 0.43856 0.475959
0.166873 0.521096 0.555566
0.222461 0.536263 0.575952
0.327794 0.552346 0.595422
0.427405 0.566094 0.603555
0.549844 0.581064 0.625986
0.711101 0.545068 0.57377
0.814557 0.545419 0.543191
0.895171 0.547921 0.53434
0.950988 0.5458 0.525628
0.174228 0.601267 0.585885
0.239506 0.630533 0.611887
0.34905 0.649622 0.629236
0.455604 0.667033 0.638163
0.570047 0.684993 0.654169
0.729671 0.701564 0.659312
0.847944 0.662165 0.58471
0.895476 0.647883 0.551659
0.956161 0.645533 0.540871
0.185061 0.676616 0.609552
0.257801 0.71722 0.634119
0.371511 0.740169 0.645747
0.485069 0.761608 0.647715
0.596918 0.759457 0.624537
0.720088 0.774701 0.615518
0.850858 0.773632 0.5935
0.895766 0.742931 0.562844
0.95639 0.740353 0.550179
0.202152 0.745266 0.625757
0.285863 0.795071 0.644297
0.400946 0.816373 0.647318
0.510033 0.837552 0.640742
0.613764 0.841367 0.615183
0.730892 0.833005 0.589532
0.832166 0.826795 0.573037
0.905119 0.825101 0.559213
0.960571 0.820981 0.549096
0.202228 0.784894 0.633371
0.292134 0.842023 0.64744
0.407294 0.869062 0.647318
0.516518 0.888533 0.631678
0.621271 0.898268 0.605371
0.740169 0.891447 0.579583
0.841932 0.880415 0.562387
0.913771 0.877897 0.553155
0.964218 0.874876 0.547646
0.0562905 0.274022 0.762997
0.111177 0.170611 0.583673
0.147311 0.170413 0.574075
0.294057 0.153277 0.555154
0.504479 0.173556 0.561105
0.631846 0.200793 0.538018
0.722713 0.216419 0.530816
0.777646 0.224704 0.533288
0.808499 0.226429 0.526848
0.0590372 0.20882 0.541009
0.0962997 0.19118 0.536553
0.129015 0.198688 0.566201
0.299977 0.22356 0.616907
0.489326 0.231373 0.586526
0.610254 0.255955 0.549691
0.707897 0.276204 0.531151
0.775372 0.287617 0.530083
0.821439 0.291096 0.51429
0.0879835 0.249317 0.578408
0.122072 0.248768 0.601267
0.22388 0.362158 0.646815
0.357961 0.396918 0.639445
0.498756 0.362341 0.607279
0.641108 0.352544 0.583001
0.752911 0.356909 0.559869
0.819013 0.366155 0.553628
0.863371 0.367773 0.535454
0.148806 0.457115 0.592584
0.19675 0.468544 0.603937
0.292912 0.488487 0.641566
0.400565 0.494194 0.66865
0.52401 0.476646 0.668818
0.665461 0.451606 0.641855
0.78764 0.445716 0.596674
0.861173 0.452064 0.583703
0.908797 0.452674 0.569512
0.174105 0.536248 0.611673
0.233463 0.551064 0.635538
0.33669 0.568765 0.6654
0.440299 0.585946 0.688441
0.539666 0.589029 0.690394
0.667277 0.562264 0.673533
0.8 0.55079 0.636484
0.88751 0.551781 0.615641
0.946258 0.552056 0.613352
0.187945 0.607401 0.640711
0.259236 0.635569 0.672526
0.368566 0.654353 0.698741
0.477165 0.672267 0.71931
0.572961 0.680064 0.715541
0.688151 0.699351 0.748089
0.820645 0.674098 0.712047
0.88426 0.656306 0.66305
0.954253 0.656489 0.654887
0.195071 0.680583 0.66804
0.270146 0.720729 0.701396
0.379721 0.740581 0.723369
0.486809 0.763165 0.745571
0.589364 0.767987 0.74432
0.701915 0.790936 0.767865
0.859236 0.83032 0.802777
0.920485 0.776974 0.716899
0.946578 0.75172 0.675456
0.202792 0.748211 0.685298
0.283528 0.799115 0.716823
0.39324 0.820981 0.732509
0.502281 0.840223 0.74435
0.600229 0.848783 0.741161
0.708507 0.842832 0.715724
0.832502 0.867582 0.728252
0.930053 0.87274 0.71397
0.947967 0.835035 0.678019
0.203128 0.785718 0.69543
0.289311 0.844938 0.723995
0.398413 0.872679 0.73695
0.507485 0.890211 0.739193
0.604364 0.902281 0.731624
0.717739 0.898344 0.701915
0.827176 0.88954 0.685893
0.901228 0.889204 0.683253
0.955749 0.88957 0.67422
0.0584878 0.296208 0.782589
0.179309 0.266102 0.787976
0.295308 0.261967 0.702968
0.235828 0.186709 0.561975
0.363256 0.159823 0.561166
0.545724 0.176028 0.570321
0.681376 0.195621 0.578897
0.765393 0.213306 0.582208
0.803998 0.224506 0.570153
0.068452 0.363363 0.669413
0.124468 0.290425 0.600488
0.133684 0.208408 0.543587
0.208118 0.21857 0.601968
0.380514 0.20264 0.605432
0.567132 0.239963 0.638025
0.686442 0.262989 0.604364
0.767987 0.28426 0.586404
0.817868 0.297719 0.567895
0.0955673 0.258946 0.567529
0.118151 0.24889 0.570047
0.168734 0.267124 0.620401
0.290242 0.302953 0.70399
0.46331 0.324407 0.717815
0.62208 0.356252 0.697047
0.739712 0.379461 0.657313
0.81294 0.379828 0.636149
0.861982 0.38114 0.621759
0.140764 0.383612 0.660655
0.179706 0.418448 0.674113
0.282383 0.484901 0.718563
0.407599 0.516106 0.748623
0.529259 0.506889 0.764096
0.650141 0.485512 0.750881
0.7738 0.472084 0.716915
0.854398 0.468116 0.68069
0.905013 0.465034 0.656275
0.176608 0.550851 0.66508
0.24007 0.566308 0.694514
0.340307 0.582956 0.729351
0.451331 0.602045 0.767971
0.554986 0.606332 0.783154
0.660792 0.588037 0.783505
0.786709 0.566781 0.761425
0.876326 0.564431 0.733074
0.938186 0.562478 0.717098
0.194766 0.615091 0.690898
0.270161 0.641978 0.727382
0.375555 0.660899 0.75848
0.48716 0.680949 0.790036
0.581048 0.692012 0.796216
0.667689 0.68835 0.800214
0.784314 0.668254 0.786145
0.875593 0.661967 0.768536
0.949966 0.66128 0.763867
0.215732 0.681559 0.715572
0.300008 0.718318 0.755383
0.406867 0.738567 0.783795
0.516106 0.756542 0.810346
0.608804 0.767788 0.818067
0.695888 0.773877 0.813184
0.810834 0.801221 0.861738
0.90811 0.792187 0.847868
0.939345 0.765637 0.796338
0.22182 0.747005 0.735592
0.305592 0.793912 0.775525
0.408423 0.820005 0.802579
0.51397 0.837842 0.827131
0.602136 0.849515 0.840146
0.709743 0.85185 0.833875
0.819654 0.880964 0.863691
0.945403 0.928817 0.917708
0.964019 0.871824 0.839628
0.221561 0.784436 0.747494
0.305669 0.841108 0.787991
0.406668 0.870924 0.811276
0.509331 0.889006 0.829618
0.598367 0.903243 0.842542
0.708309 0.90692 0.837308
0.808301 0.900038 0.815122
0.914946 0.931273 0.84567
0.967758 0.932342 0.827756
0.0579843 0.310674 0.795636
0.184344 0.281941 0.804074
0.297612 0.277195 0.731563
0.413245 0.278248 0.711955
0.332753 0.165637 0.543023
0.412467 0.164675 0.564523
0.581704 0.175616 0.57734
0.707301 0.192966 0.600748
0.782193 0.210529 0.602625
0.0819257 0.377951 0.703456
0.13991 0.350545 0.68368
0.209613 0.354833 0.710445
0.210925 0.235248 0.598032
0.291554 0.201221 0.597894
0.437003 0.210529 0.62356
0.603372 0.230365 0.63357
0.725093 0.250202 0.634455
0.80618 0.280858 0.618906
0.101259 0.266667 0.557733
0.122499 0.257618 0.567803
0.170764 0.271214 0.613474
0.241566 0.283848 0.675853
0.360601 0.284596 0.698772
0.530755 0.302144 0.716762
0.692775 0.333959 0.723781
0.796231 0.361105 0.6981
0.856809 0.381613 0.672648
0.132769 0.32549 0.651301
0.164553 0.325368 0.664591
0.214633 0.345693 0.715862
0.340429 0.404532 0.78909
0.51223 0.476738 0.829114
0.64509 0.506004 0.817945
0.764752 0.488716 0.789197
0.847013 0.481453 0.757488
0.902312 0.476143 0.72929
0.170306 0.533486 0.715434
0.226093 0.552895 0.742718
0.331518 0.582788 0.782101
0.453864 0.610056 0.823362
0.563485 0.617761 0.853391
0.667597 0.604166 0.864469
0.77821 0.584863 0.850813
0.867613 0.572931 0.818479
0.932952 0.568627 0.798215
0.194461 0.620813 0.723415
0.274998 0.647089 0.765835
0.380392 0.665919 0.802152
0.487007 0.686046 0.839597
0.586511 0.700832 0.862867
0.675319 0.696422 0.875303
0.780118 0.680598 0.869245
0.873472 0.666316 0.855207
0.94818 0.664073 0.847929
0.21767 0.684443 0.745922
0.308217 0.719799 0.794461
0.414008 0.740093 0.827543
0.520439 0.758465 0.858305
0.614298 0.773831 0.877684
0.698787 0.781292 0.876463
0.784054 0.779431 0.87895
0.867826 0.770596 0.873503
0.936736 0.767315 0.867521
0.225803 0.747906 0.765332
0.320912 0.792142 0.816022
0.421683 0.818235 0.8486
0.52459 0.83505 0.876921
0.616022 0.847562 0.898665
0.715999 0.853239 0.893874
0.80148 0.85452 0.878721
0.90396 0.889326 0.938918
0.960433 0.878202 0.929595
0.225193 0.784039 0.775448
0.317098 0.838437 0.828885
0.417105 0.868223 0.858015
0.518837 0.885939 0.882872
0.60943 0.898787 0.90074
0.712642 0.905028 0.904036
0.809384 0.902983 0.887495
0.901488 0.937011 0.934447
0.987396 0.975296 0.969162
