_SYSTEM/luts/D-CINELIKE -0_3 V2 SCENE.cube
TITLE "Generated by Resolve"
LUT_3D_SIZE 9
0.00384527 0.00105287 0.00166323
0.214908 0.0321355 0.0156863
0.387564 0.0423285 0.0150607
0.542535 0.059678 0.0219272
0.667079 0.0819104 0.0307317
0.775723 0.0857557 0.0298009
0.877867 0.101808 0.0364843
0.876707 0.102129 0.0369268
0.875654 0.102403 0.0373083
0.0102541 0.117708 0.0157321
0.180163 0.0969406 0.0223239
0.370153 0.113069 0.0289921
0.54049 0.124743 0.0410925
0.676814 0.127733 0.046067
0.789181 0.149325 0.0556039
0.879515 0.143435 0.0519722
0.886458 0.138003 0.0491798
0.880323 0.13109 0.045716
0.0289769 0.222965 0.0295567
0.162753 0.213901 0.0277562
0.359518 0.20293 0.0398871
0.53637 0.235889 0.0485847
0.675807 0.245472 0.055024
0.795102 0.252827 0.0600748
0.87744 0.250736 0.0628977
0.899779 0.246952 0.064332
0.898909 0.239109 0.0647898
0.0729686 0.317143 0.070985
0.122667 0.314321 0.0637217
0.367117 0.326909 0.0587625
0.54992 0.34638 0.0635691
0.695445 0.377661 0.0711223
0.809781 0.373205 0.073518
0.88632 0.370367 0.0712444
0.915831 0.365347 0.0693523
0.913832 0.357855 0.0687877
0.119417 0.423774 0.118944
0.128786 0.424903 0.120684
0.359609 0.442161 0.0823987
0.568704 0.478798 0.0920272
0.714244 0.494789 0.0886397
0.822812 0.507378 0.0904402
0.89427 0.506569 0.0896315
0.933516 0.499352 0.0851148
0.933043 0.48748 0.0838636
0.158816 0.533425 0.153231
0.162402 0.535943 0.157351
0.364889 0.547509 0.136904
0.564431 0.600259 0.112215
0.714153 0.608621 0.116457
0.823087 0.606638 0.101091
0.893141 0.603967 0.0960098
0.939864 0.598123 0.0916304
0.940795 0.59086 0.0902571
0.187701 0.628275 0.172915
0.190723 0.62768 0.175631
0.354711 0.636835 0.1561
0.550271 0.68838 0.13167
0.701396 0.702998 0.143801
0.812604 0.700999 0.122438
0.888457 0.688212 0.0975509
0.938888 0.681208 0.092958
0.948547 0.674449 0.0911421
0.194125 0.683589 0.179095
0.195636 0.680705 0.18056
0.27985 0.687221 0.161852
0.507744 0.717586 0.144259
0.68069 0.757824 0.146944
0.801053 0.76321 0.138567
0.884047 0.756512 0.108034
0.935973 0.751019 0.102724
0.955657 0.746303 0.0988022
0.196124 0.683742 0.180911
0.196612 0.683482 0.181353
0.208042 0.6822 0.174746
0.475868 0.725109 0.155734
0.649699 0.767819 0.143893
0.777462 0.780072 0.143618
0.872343 0.781323 0.115755
0.928069 0.779934 0.106371
0.958633 0.780285 0.102144
0.0248569 0.0771038 0.221958
0.190204 0.0480354 0.136843
0.364675 0.0572976 0.080705
0.512123 0.0770886 0.0934005
0.633448 0.101061 0.101778
0.747875 0.107881 0.100969
0.855131 0.119646 0.105501
0.857633 0.118029 0.0986496
0.861585 0.114595 0.0899367
0.0222934 0.134386 0.131853
0.0844587 0.0957656 0.0762341
0.334585 0.0996567 0.0585641
0.520714 0.118029 0.0713664
0.670176 0.125414 0.076936
0.789288 0.144549 0.0819715
0.877302 0.137713 0.0754101
0.886549 0.13228 0.0684062
0.881331 0.126116 0.0614939
0.0395209 0.246036 0.116564
0.0848554 0.22475 0.0703746
0.317571 0.200916 0.0527657
0.508705 0.227436 0.0584115
0.664088 0.237781 0.0650034
0.7888 0.24419 0.0685893
0.87361 0.243687 0.0691234
0.898009 0.242069 0.0678264
0.898558 0.235325 0.0653544
0.0752117 0.3299 0.103639
0.0961776 0.320317 0.0857862
0.343816 0.328267 0.064744
0.542763 0.345083 0.067277
0.693385 0.37644 0.0731518
0.808759 0.372122 0.0735637
0.88455 0.368307 0.0708934
0.914977 0.362173 0.0691234
0.912993 0.354131 0.0684825
0.121218 0.425925 0.124926
0.128328 0.427756 0.125566
0.35671 0.441749 0.0836652
0.566415 0.477272 0.0920882
0.712947 0.493355 0.0885481
0.821469 0.505425 0.0900893
0.892866 0.503197 0.0891737
0.933318 0.494423 0.084596
0.93283 0.482017 0.0833143
0.160143 0.534173 0.154772
0.163241 0.535851 0.158511
0.360494 0.546548 0.137911
0.560052 0.598642 0.111604
0.711284 0.606683 0.116228
0.820645 0.6038 0.101472
0.891127 0.600793 0.0961624
0.938842 0.595056 0.0914931
0.940581 0.587793 0.0897231
0.188998 0.627909 0.173968
0.191196 0.626535 0.17641
0.347341 0.634363 0.156512
0.544503 0.685618 0.130892
0.697307 0.699886 0.143038
0.809293 0.69778 0.122393
0.886427 0.685222 0.0975204
0.937163 0.67808 0.0928664
0.948272 0.671427 0.0909438
0.194736 0.682261 0.17969
0.196048 0.679683 0.181018
0.265156 0.684474 0.163561
0.503929 0.715846 0.146639
0.676402 0.755657 0.146777
0.797543 0.761273 0.139376
0.881743 0.754589 0.108171
0.934264 0.749081 0.102296
0.955413 0.744335 0.0985122
0.196368 0.683604 0.18114
0.196643 0.683467 0.181384
0.204334 0.682383 0.176761
0.471031 0.724743 0.156649
0.645335 0.767376 0.143587
0.77406 0.779889 0.144198
0.870161 0.781491 0.116762
0.926604 0.77995 0.106538
0.958633 0.780285 0.102144
0.0318456 0.100664 0.349508
0.138445 0.090959 0.344045
0.330663 0.0812543 0.22385
0.484352 0.103273 0.192798
0.630564 0.120989 0.195911
0.726635 0.123613 0.207553
0.820844 0.126909 0.202411
0.824643 0.130831 0.199283
0.829252 0.135195 0.195483
0.0285954 0.170123 0.278462
0.073518 0.154849 0.271366
0.260471 0.111864 0.190814
0.47335 0.132815 0.159304
0.636194 0.140429 0.171878
0.743816 0.158572 0.178408
0.840085 0.162493 0.183078
0.851926 0.14931 0.174472
0.846494 0.138857 0.169406
0.0594034 0.261128 0.254261
0.0850233 0.253361 0.240497
0.209003 0.224094 0.198734
0.48661 0.228107 0.146746
0.659861 0.238117 0.150011
0.790463 0.240101 0.149142
0.878233 0.239429 0.145495
0.907469 0.233982 0.142473
0.907088 0.224933 0.138033
0.0956893 0.362203 0.265034
0.10779 0.359701 0.250278
0.225772 0.355352 0.181918
0.476036 0.350576 0.128435
0.654978 0.377111 0.137179
0.786282 0.365606 0.132631
0.877668 0.359579 0.125124
0.917525 0.350362 0.118669
0.915404 0.341176 0.113344
0.133303 0.470451 0.27509
0.137255 0.473259 0.274235
0.246723 0.479362 0.19263
0.484138 0.490867 0.140597
0.664393 0.499855 0.131594
0.789441 0.504921 0.128634
0.874907 0.49807 0.124422
0.929305 0.487694 0.117067
0.928512 0.473671 0.111757
0.167193 0.575036 0.276875
0.169924 0.575189 0.273121
0.260731 0.586069 0.211124
0.4795 0.612772 0.147402
0.666758 0.617533 0.146212
0.79469 0.611536 0.129549
0.876768 0.603983 0.119081
0.936965 0.596979 0.111101
0.940063 0.587915 0.10518
0.195071 0.6636 0.260792
0.196063 0.659525 0.251286
0.260258 0.666316 0.210697
0.478599 0.695247 0.154681
0.663874 0.708736 0.159945
0.79234 0.702678 0.13669
0.879316 0.687755 0.10869
0.935653 0.678676 0.101106
0.94818 0.670268 0.0955367
0.206195 0.713069 0.221363
0.206363 0.705791 0.213397
0.233478 0.703563 0.199023
0.480873 0.724483 0.165331
0.662943 0.757641 0.153216
0.79115 0.761166 0.143755
0.879149 0.753079 0.109224
0.932372 0.747051 0.101915
0.955139 0.742336 0.0982223
0.203906 0.696818 0.195468
0.202029 0.692241 0.190478
0.20325 0.68687 0.183246
0.46598 0.724193 0.157305
0.640925 0.766918 0.143267
0.770657 0.77969 0.144778
0.867979 0.781659 0.117769
0.925139 0.779965 0.106706
0.958633 0.780285 0.102144
0.0393835 0.11873 0.440986
0.11165 0.117235 0.446998
0.296712 0.112322 0.384649
0.461265 0.129 0.315068
0.599329 0.142428 0.308873
0.715328 0.167742 0.326894
0.81413 0.177325 0.334813
0.810666 0.177722 0.337682
0.806577 0.176471 0.338674
0.038468 0.18146 0.397726
0.0852827 0.182956 0.398749
0.215473 0.178744 0.366979
0.423987 0.150698 0.289296
0.58645 0.161059 0.274922
0.695644 0.182391 0.293736
0.786969 0.193256 0.305089
0.803861 0.18381 0.303822
0.799573 0.173327 0.299825
0.0734264 0.2907 0.36231
0.0951553 0.283177 0.358129
0.183444 0.286595 0.363989
0.403235 0.228702 0.297566
0.623682 0.260502 0.283131
0.758663 0.267247 0.276875
0.845243 0.272465 0.26215
0.872724 0.267842 0.252934
0.871656 0.258152 0.247669
0.105821 0.380392 0.369757
0.116732 0.380011 0.366857
0.203662 0.390082 0.370642
0.387854 0.39202 0.362936
0.641642 0.385397 0.299519
0.795209 0.375662 0.278431
0.889906 0.358846 0.259342
0.929824 0.350668 0.244556
0.926421 0.342184 0.23621
0.138659 0.491997 0.398062
0.142626 0.494881 0.400824
0.229343 0.512734 0.382528
0.407889 0.51957 0.325475
0.628504 0.509712 0.262699
0.783261 0.512413 0.25156
0.885908 0.488823 0.231128
0.94609 0.475776 0.209796
0.944747 0.463157 0.199466
0.173754 0.598642 0.409949
0.17673 0.599252 0.409064
0.245594 0.620081 0.379705
0.412558 0.634775 0.30341
0.621973 0.633555 0.257557
0.776394 0.622843 0.224109
0.874434 0.612619 0.206851
0.942641 0.603754 0.188678
0.948547 0.594614 0.177493
0.199039 0.690623 0.40325
0.199985 0.686671 0.398123
0.248035 0.704295 0.36672
0.413733 0.714229 0.302403
0.613214 0.731472 0.246265
0.765621 0.720577 0.222889
0.867323 0.705928 0.192081
0.936294 0.69543 0.176043
0.954955 0.686183 0.164431
0.207141 0.744671 0.375402
0.208225 0.741314 0.367895
0.231495 0.753155 0.343771
0.407935 0.783185 0.281941
0.601892 0.800427 0.233249
0.753445 0.796521 0.224323
0.862425 0.786023 0.185672
0.931411 0.778576 0.167514
0.962142 0.770474 0.157046
0.208499 0.742061 0.343053
0.208469 0.739818 0.333684
0.210452 0.738888 0.322087
0.374487 0.782483 0.252247
0.575341 0.809293 0.207828
0.733654 0.816983 0.204746
0.850126 0.816007 0.17348
0.923369 0.812131 0.154116
0.965515 0.809201 0.144167
0.0437476 0.149203 0.535485
0.098558 0.136568 0.494575
0.226368 0.141085 0.504005
0.441123 0.147173 0.461707
0.601083 0.169711 0.422675
0.718166 0.188937 0.43035
0.817365 0.207279 0.445319
0.815946 0.2112 0.453422
0.814755 0.213962 0.458228
0.04448 0.175616 0.460472
0.0778058 0.161837 0.472724
0.18407 0.183337 0.505486
0.397833 0.184695 0.449027
0.573327 0.195392 0.406027
0.70544 0.220264 0.417578
0.796887 0.230533 0.42501
0.815946 0.229984 0.430304
0.814435 0.225849 0.435447
0.0736095 0.307622 0.473381
0.0984665 0.302403 0.469245
0.18851 0.326589 0.486976
0.354101 0.287953 0.466407
0.585504 0.268193 0.41474
0.730526 0.283253 0.392386
0.813901 0.286183 0.375067
0.840085 0.281758 0.362768
0.834119 0.272496 0.356405
0.122011 0.406821 0.462699
0.131121 0.406683 0.461646
0.219547 0.421576 0.485786
0.351781 0.429175 0.50309
0.577859 0.37673 0.431281
0.763073 0.401419 0.413092
0.848814 0.398581 0.393133
0.889738 0.390585 0.370794
0.886458 0.381399 0.358373
0.144808 0.509422 0.495018
0.148531 0.512001 0.497459
0.228122 0.531441 0.514763
0.374151 0.546242 0.51986
0.58587 0.561669 0.513375
0.770184 0.525154 0.436103
0.886198 0.506767 0.40235
0.952789 0.493782 0.380529
0.951766 0.481025 0.368643
0.171298 0.614603 0.519921
0.17377 0.615381 0.519753
0.23595 0.641367 0.524804
0.392309 0.663737 0.508949
0.564828 0.658763 0.450538
0.749828 0.639033 0.394263
0.870115 0.630014 0.3691
0.947692 0.61854 0.346578
0.95816 0.607462 0.333501
0.198856 0.706279 0.524697
0.199512 0.702998 0.520653
0.240085 0.725124 0.511803
0.397192 0.750591 0.483253
0.557168 0.759686 0.413809
0.73611 0.745083 0.382589
0.859419 0.724834 0.339498
0.936294 0.712322 0.321584
0.96054 0.703059 0.308522
0.207706 0.764889 0.51014
0.208515 0.762432 0.503609
0.226825 0.774136 0.487953
0.385504 0.820188 0.455711
0.551293 0.829816 0.400778
0.721172 0.827756 0.368887
0.848234 0.813321 0.33637
0.929488 0.799939 0.30193
0.967193 0.790021 0.286625
0.207599 0.767102 0.482475
0.20766 0.765911 0.473487
0.20795 0.764614 0.46389
0.350576 0.825071 0.422766
0.525444 0.846311 0.374166
0.699611 0.855192 0.339788
0.832639 0.847974 0.313893
0.921324 0.840192 0.279271
0.971054 0.836713 0.262425
0.050248 0.220447 0.657145
0.148821 0.206394 0.661067
0.161273 0.164965 0.541329
0.327443 0.147265 0.547646
0.551873 0.166979 0.541405
0.716106 0.193698 0.524346
0.811337 0.217075 0.517998
0.812207 0.220813 0.523369
0.810895 0.22327 0.527764
0.0502937 0.265522 0.575891
0.0901961 0.207919 0.533822
0.130388 0.18558 0.538521
0.309224 0.17528 0.554971
0.539574 0.204471 0.552682
0.697093 0.225422 0.511208
0.792782 0.236606 0.501564
0.811963 0.234974 0.505638
0.810987 0.23154 0.512093
0.0704356 0.241993 0.529046
0.0907149 0.233463 0.529686
0.148241 0.252186 0.595834
0.3393 0.320165 0.621317
0.547601 0.312398 0.568231
0.715694 0.309651 0.527535
0.806989 0.319036 0.511955
0.836255 0.315953 0.497444
0.832303 0.308202 0.489998
0.130205 0.43328 0.561898
0.137804 0.433234 0.559731
0.22829 0.454887 0.592905
0.366384 0.465675 0.631785
0.542657 0.431434 0.613672
0.74548 0.40557 0.554345
0.850156 0.407477 0.525399
0.892607 0.398459 0.497017
0.88867 0.387671 0.483894
0.160037 0.526375 0.579904
0.163516 0.529046 0.581491
0.245487 0.548791 0.610391
0.387991 0.567758 0.634256
0.527153 0.573571 0.638682
0.727047 0.5252 0.57261
0.867735 0.523735 0.542901
0.940124 0.512169 0.519036
0.937072 0.500893 0.506203
0.175586 0.624109 0.610407
0.177325 0.623514 0.609766
0.236835 0.648295 0.62829
0.384939 0.673655 0.652369
0.529656 0.680278 0.651164
0.729671 0.701564 0.659312
0.856687 0.64155 0.555596
0.943832 0.626505 0.524575
0.95874 0.614801 0.511208
0.194018 0.716579 0.623331
0.194018 0.712764 0.619959
0.230503 0.736477 0.625895
0.378347 0.764706 0.635187
0.528939 0.779232 0.612802
0.687984 0.764813 0.563729
0.842359 0.749722 0.522805
0.927977 0.731655 0.492592
0.959579 0.72018 0.473075
0.202808 0.777646 0.621332
0.203464 0.774868 0.615518
0.219013 0.784375 0.607935
0.369848 0.834852 0.609003
0.52192 0.85626 0.574487
0.676829 0.852461 0.524468
0.824811 0.83389 0.490867
0.920928 0.819348 0.454551
0.966064 0.808026 0.439887
0.203815 0.78114 0.599191
0.204334 0.780346 0.592172
0.204929 0.779507 0.585153
0.336538 0.84506 0.577691
0.496162 0.876661 0.541009
0.653147 0.885603 0.493416
0.805081 0.872435 0.457374
0.909133 0.861921 0.422461
0.970565 0.85713 0.411215
0.0573281 0.310597 0.796902
0.173648 0.284016 0.799573
0.291371 0.276005 0.748959
0.298375 0.196979 0.611139
0.394064 0.185122 0.60885
0.597848 0.186542 0.613031
0.787823 0.204776 0.603754
0.797345 0.210697 0.594781
0.795834 0.212634 0.590845
0.0661326 0.366445 0.730755
0.119097 0.33434 0.714855
0.202014 0.324163 0.716945
0.223713 0.20444 0.59704
0.373159 0.182361 0.597467
0.61706 0.198108 0.602426
0.775616 0.220981 0.586053
0.804166 0.228199 0.579278
0.802274 0.224216 0.580407
0.0888228 0.266911 0.585168
0.09691 0.241596 0.563394
0.142336 0.247059 0.588006
0.228229 0.258778 0.648249
0.455512 0.265446 0.676646
0.675334 0.302296 0.665034
0.797833 0.32282 0.617212
0.831617 0.327901 0.59498
0.827527 0.32018 0.586236
0.117006 0.334997 0.656794
0.123293 0.327626 0.652216
0.184649 0.366094 0.687449
0.364752 0.4822 0.746563
0.538552 0.478187 0.75845
0.715206 0.443656 0.71487
0.837568 0.431617 0.660273
0.88394 0.420676 0.629023
0.879683 0.412268 0.62031
0.166979 0.54699 0.666712
0.170153 0.548486 0.664805
0.253666 0.567758 0.697398
0.396139 0.588891 0.741955
0.540063 0.594491 0.764599
0.697139 0.557107 0.749203
0.848676 0.53196 0.683818
0.929854 0.519707 0.642603
0.927214 0.509758 0.630137
0.197696 0.630396 0.68809
0.19791 0.629114 0.685969
0.259693 0.652399 0.711604
0.404318 0.674083 0.747387
0.541772 0.688151 0.759182
0.667704 0.683925 0.758022
0.828977 0.647944 0.70396
0.934646 0.634318 0.67454
0.954757 0.621912 0.656092
0.208911 0.718212 0.704707
0.207645 0.714153 0.700587
0.240421 0.734051 0.714107
0.378286 0.763729 0.745571
0.518654 0.781476 0.763622
0.660319 0.778637 0.751812
0.859236 0.83032 0.802777
0.914107 0.747021 0.674647
0.949844 0.732036 0.648356
0.205615 0.779004 0.708659
0.205066 0.776791 0.703456
0.216236 0.783749 0.700618
0.352941 0.83801 0.728725
0.503761 0.858427 0.730602
0.637598 0.862074 0.70489
0.791852 0.847639 0.66363
0.908385 0.842817 0.637049
0.954894 0.823835 0.609873
0.202777 0.78587 0.691676
0.202304 0.786145 0.685985
0.201907 0.786496 0.680125
0.320867 0.85333 0.701961
0.473472 0.883604 0.69633
0.611475 0.901625 0.662837
0.773068 0.890257 0.614389
0.892973 0.880873 0.586053
0.963104 0.877592 0.56759
0.0573587 0.310613 0.796872
0.170733 0.28426 0.802014
0.291096 0.275929 0.748409
0.298848 0.195224 0.607355
0.394095 0.183597 0.605234
0.599985 0.186175 0.610132
0.772549 0.201038 0.611612
0.78941 0.207919 0.606775
0.786404 0.209003 0.605051
0.0644694 0.365087 0.733776
0.116732 0.332647 0.718761
0.203265 0.325536 0.721645
0.23093 0.220203 0.610056
0.355566 0.193469 0.603586
0.582788 0.195941 0.608835
0.742077 0.2112 0.610773
0.790036 0.218677 0.604059
0.785748 0.21413 0.603235
0.0901961 0.299809 0.602045
0.105821 0.298817 0.598016
0.148699 0.275166 0.60557
0.228504 0.270069 0.656062
0.387869 0.247288 0.659159
0.608209 0.268864 0.678309
0.770184 0.297307 0.660365
0.822354 0.3122 0.638086
0.817884 0.303059 0.6336
0.119493 0.326223 0.657816
0.124971 0.323293 0.651606
0.177752 0.32221 0.670695
0.266224 0.350164 0.749203
0.488319 0.391119 0.805631
0.686137 0.422522 0.782757
0.825422 0.438895 0.732998
0.877852 0.42678 0.696483
0.87277 0.418799 0.690623
0.165988 0.535637 0.707225
0.167666 0.536095 0.709636
0.239261 0.554757 0.745998
0.39559 0.594873 0.80177
0.544823 0.605234 0.847501
0.689387 0.578897 0.855283
0.831189 0.546532 0.811688
0.919722 0.528984 0.766445
0.919249 0.519127 0.753307
0.198535 0.629404 0.732937
0.199023 0.631022 0.730251
0.263355 0.655421 0.765728
0.405493 0.676722 0.811414
0.543313 0.696117 0.851835
0.665537 0.689021 0.862959
0.809262 0.655421 0.843168
0.924681 0.637095 0.815381
0.948272 0.627131 0.800885
0.221622 0.717464 0.756664
0.221927 0.71313 0.752651
0.259312 0.728084 0.775418
0.403433 0.757763 0.818906
0.546242 0.772702 0.850492
0.665736 0.779843 0.849958
0.784497 0.777539 0.853864
0.898497 0.757519 0.828168
0.940749 0.741009 0.805447
0.225406 0.777066 0.768002
0.225406 0.774807 0.765606
0.23537 0.779293 0.768292
0.369024 0.83154 0.81619
0.508171 0.854093 0.846479
0.630533 0.863462 0.856001
0.774121 0.861158 0.837156
0.945403 0.928817 0.917708
0.96083 0.859129 0.823438
0.22295 0.784756 0.760159
0.222538 0.784863 0.756832
0.22211 0.784756 0.753552
0.331289 0.848692 0.797452
0.469276 0.882292 0.820233
0.594644 0.903105 0.830488
0.74519 0.903075 0.801526
0.876051 0.90692 0.792065
0.955795 0.906813 0.765347
0.0573739 0.310613 0.796826
0.167712 0.284474 0.804639
0.290837 0.275822 0.747814
0.299382 0.193439 0.603494
0.39411 0.181964 0.601404
0.601312 0.185595 0.607065
0.764752 0.200809 0.611246
0.788205 0.208347 0.606088
0.785519 0.209323 0.604532
0.062623 0.363668 0.737255
0.114885 0.330953 0.723201
0.20354 0.322789 0.721279
0.233845 0.219837 0.608392
0.358358 0.190982 0.600061
0.584024 0.193469 0.605844
0.740536 0.208652 0.608957
0.788251 0.216556 0.603738
0.784131 0.212314 0.603021
0.0904707 0.305959 0.601297
0.106355 0.311131 0.602838
0.149065 0.278553 0.604837
0.226429 0.267735 0.652018
0.377096 0.242634 0.654124
0.603143 0.264881 0.674876
0.765606 0.291798 0.658015
0.82034 0.308339 0.635935
0.816251 0.298955 0.632212
0.120943 0.325994 0.655787
0.125216 0.322759 0.64918
0.176425 0.319982 0.665904
0.256794 0.344121 0.741634
0.478614 0.384649 0.801343
0.677989 0.411749 0.78172
0.821302 0.433265 0.732265
0.875654 0.423392 0.694011
0.87071 0.415183 0.687953
0.166567 0.535622 0.708064
0.167819 0.534676 0.710628
0.233555 0.550927 0.744778
0.391043 0.592966 0.800137
0.539925 0.602274 0.846067
0.684169 0.575784 0.854505
0.827192 0.542824 0.81062
0.916625 0.525628 0.767224
0.917449 0.516442 0.758862
0.198718 0.629786 0.731716
0.198734 0.630701 0.729229
0.257954 0.652552 0.762798
0.399817 0.673259 0.808957
0.538094 0.692927 0.853925
0.66244 0.686839 0.873823
0.804471 0.655055 0.863691
0.919997 0.63476 0.843229
0.945602 0.624979 0.83299
0.221851 0.715602 0.756146
0.222019 0.710781 0.754437
0.254871 0.722805 0.777127
0.399542 0.753216 0.826459
0.542367 0.770077 0.866621
0.662638 0.779522 0.877562
0.77583 0.771939 0.877928
0.889036 0.749996 0.867521
0.940002 0.737652 0.863249
0.226551 0.775799 0.774517
0.226871 0.773373 0.774273
0.234867 0.774777 0.777981
0.372473 0.826719 0.838346
0.509438 0.849714 0.877424
0.636118 0.858946 0.901274
0.773999 0.857023 0.882597
0.89752 0.883436 0.934874
0.953094 0.861601 0.915755
0.225193 0.784039 0.775448
0.225193 0.784039 0.775448
0.225193 0.784039 0.775448
0.336736 0.844495 0.834623
0.474708 0.878981 0.872267
0.60267 0.898024 0.89984
0.743618 0.90396 0.899168
0.855665 0.912947 0.903944
0.987396 0.975296 0.969162
