_SYSTEM/luts/D-CINELIKE -0_3 BASE.cube
TITLE "Generated by Resolve"
LUT_3D_SIZE 9
0.005203 0.009293 0.016998
0.202701 0.041337 0.021195
0.391455 0.057099 0.024064
0.474449 0.066545 0.025467
0.535302 0.091600 0.036851
0.621164 0.114183 0.049546
0.687434 0.127886 0.058885
0.731441 0.129900 0.062135
0.765637 0.139361 0.061601
0.023255 0.132738 0.042878
0.185580 0.130419 0.051499
0.381598 0.130449 0.049638
0.504707 0.154650 0.079820
0.575067 0.180804 0.096407
0.649500 0.193698 0.098039
0.703685 0.202518 0.098558
0.747875 0.211810 0.100221
0.784558 0.212863 0.098405
0.046921 0.257069 0.075120
0.182254 0.260349 0.085069
0.381643 0.257313 0.076143
0.511223 0.277852 0.099672
0.590265 0.292424 0.115358
0.657588 0.303853 0.120409
0.721065 0.314794 0.119722
0.770123 0.322469 0.120714
0.816312 0.330922 0.120119
0.099184 0.352087 0.126284
0.222553 0.358557 0.125277
0.387366 0.379919 0.121447
0.527047 0.379156 0.121508
0.615320 0.394919 0.137926
0.686275 0.405005 0.146731
0.758740 0.410864 0.144976
0.818433 0.421805 0.142596
0.869108 0.431739 0.139208
0.152407 0.434516 0.172824
0.260761 0.443244 0.168780
0.405112 0.474952 0.154818
0.548363 0.491829 0.164492
0.653071 0.494972 0.165667
0.736675 0.503563 0.166888
0.810590 0.516274 0.165438
0.867582 0.530861 0.164752
0.908614 0.545800 0.170596
0.190829 0.508568 0.206348
0.298192 0.526329 0.206226
0.436103 0.565759 0.192004
0.579950 0.590402 0.205447
0.692866 0.596796 0.201053
0.784512 0.599970 0.188235
0.851575 0.608865 0.188815
0.897963 0.622324 0.199451
0.935347 0.637156 0.204211
0.231846 0.578820 0.232441
0.353384 0.609689 0.243900
0.489265 0.649744 0.232776
0.622599 0.672312 0.242954
0.727092 0.686580 0.243946
0.813184 0.693126 0.228946
0.878309 0.696895 0.228000
0.922652 0.706920 0.237369
0.952010 0.718517 0.237980
0.277745 0.643183 0.253849
0.410010 0.685252 0.270604
0.546700 0.721065 0.265324
0.664179 0.745724 0.278813
0.759762 0.762921 0.287709
0.841627 0.772137 0.279576
0.901686 0.774105 0.270375
0.937423 0.774792 0.258259
0.959457 0.778302 0.253376
0.327016 0.704402 0.278325
0.451209 0.748577 0.303075
0.575860 0.776883 0.299062
0.690623 0.803937 0.307790
0.783185 0.818509 0.316808
0.857511 0.821912 0.303868
0.911147 0.820966 0.291920
0.943816 0.820676 0.282750
0.964645 0.820340 0.266987
0.033402 0.123552 0.214237
0.142504 0.084688 0.132937
0.356252 0.087556 0.078553
0.457969 0.083681 0.064179
0.521767 0.109438 0.078737
0.599970 0.132586 0.098085
0.660761 0.151324 0.111543
0.695125 0.155673 0.113588
0.717205 0.164187 0.124941
0.042908 0.149401 0.153277
0.094468 0.139708 0.132438
0.347682 0.140094 0.100434
0.489136 0.163171 0.105904
0.574144 0.186658 0.122612
0.647890 0.201841 0.132422
0.704049 0.212738 0.138865
0.749250 0.223482 0.145776
0.785321 0.228000 0.149020
0.063783 0.287572 0.180133
0.115478 0.274040 0.145696
0.341171 0.268064 0.114917
0.490495 0.280009 0.127192
0.585456 0.294831 0.141815
0.660251 0.306892 0.150571
0.729523 0.317037 0.152619
0.785738 0.324673 0.155547
0.834562 0.332280 0.155108
0.108385 0.379843 0.209400
0.168255 0.379818 0.179308
0.340767 0.389579 0.151617
0.506762 0.388528 0.146639
0.605695 0.402103 0.163270
0.686816 0.413453 0.171630
0.763792 0.420617 0.169811
0.827235 0.432209 0.168896
0.880873 0.443229 0.166812
0.154818 0.458228 0.242451
0.216032 0.468364 0.216127
0.367598 0.488668 0.189286
0.529829 0.503886 0.189144
0.648068 0.507845 0.186078
0.737829 0.516064 0.185413
0.814752 0.528131 0.184127
0.872789 0.542251 0.187286
0.918914 0.559106 0.189319
0.196292 0.534463 0.269032
0.265321 0.554411 0.250408
0.407877 0.579965 0.222996
0.567475 0.604033 0.226923
0.691284 0.612664 0.217953
0.785762 0.616278 0.206140
0.854896 0.624949 0.208489
0.904690 0.638575 0.215764
0.944457 0.654200 0.217426
0.246311 0.605890 0.288350
0.327443 0.638524 0.281895
0.465169 0.663109 0.260184
0.615346 0.692611 0.263499
0.727532 0.705760 0.261786
0.816629 0.712591 0.248841
0.882993 0.716472 0.243779
0.927120 0.725037 0.245793
0.957107 0.735195 0.240757
0.297993 0.673686 0.307362
0.387660 0.715939 0.310355
0.523476 0.739201 0.298276
0.658383 0.771470 0.302108
0.760258 0.785245 0.307105
0.843979 0.792269 0.297221
0.903205 0.793382 0.283107
0.940241 0.794043 0.268191
0.964401 0.797314 0.259281
0.349798 0.736294 0.329671
0.430472 0.781323 0.338338
0.561395 0.804395 0.331670
0.687556 0.832303 0.331411
0.783337 0.842832 0.335653
0.860166 0.844038 0.319524
0.914519 0.841962 0.304509
0.948058 0.841764 0.291508
0.969650 0.841810 0.277989
0.056748 0.193133 0.378698
0.106554 0.171221 0.353048
0.281636 0.149172 0.245853
0.450263 0.139040 0.181674
0.533562 0.152972 0.187976
0.594934 0.152041 0.193317
0.626734 0.170382 0.189899
0.662776 0.181140 0.191760
0.691966 0.189288 0.190433
0.047288 0.201358 0.310613
0.088295 0.200567 0.310197
0.241701 0.176641 0.252652
0.438734 0.183654 0.195428
0.545944 0.204623 0.199869
0.625013 0.221745 0.211452
0.672698 0.236465 0.220345
0.715518 0.247661 0.225157
0.760449 0.255085 0.223407
0.078538 0.289906 0.297169
0.113098 0.290432 0.292278
0.229609 0.288656 0.279230
0.474587 0.284890 0.231871
0.584272 0.296377 0.224610
0.665702 0.309216 0.232638
0.734612 0.325129 0.246126
0.793324 0.335658 0.251818
0.841398 0.345892 0.255070
0.113710 0.394018 0.322789
0.154718 0.405687 0.315089
0.264869 0.405382 0.279165
0.481821 0.406028 0.231906
0.605817 0.413577 0.241581
0.698726 0.425224 0.253389
0.777526 0.433720 0.264759
0.842551 0.444164 0.268925
0.895827 0.454673 0.273777
0.153124 0.480049 0.351293
0.202115 0.497980 0.340077
0.320357 0.508865 0.295293
0.493252 0.521754 0.265910
0.639952 0.525600 0.259662
0.735595 0.534947 0.276489
0.818026 0.546467 0.282997
0.880298 0.558051 0.288929
0.931151 0.574090 0.294041
0.187808 0.554284 0.371466
0.254703 0.584686 0.363455
0.376658 0.602360 0.321775
0.534023 0.622955 0.302887
0.674962 0.632757 0.297611
0.779526 0.636896 0.294475
0.856179 0.644605 0.302941
0.912065 0.658068 0.310723
0.954116 0.674601 0.316854
0.243702 0.631556 0.388220
0.322289 0.669507 0.387218
0.442601 0.688798 0.359938
0.585078 0.711639 0.337596
0.711722 0.725431 0.340377
0.811976 0.732515 0.331456
0.886249 0.735100 0.325017
0.933299 0.741962 0.325841
0.963928 0.750774 0.321935
0.301442 0.703853 0.412558
0.379079 0.746559 0.417676
0.500862 0.770046 0.398809
0.630898 0.793190 0.377274
0.746029 0.807936 0.379941
0.839255 0.812385 0.369060
0.904905 0.811431 0.353429
0.944273 0.810695 0.336639
0.970001 0.813458 0.327993
0.340139 0.759487 0.438651
0.417929 0.808377 0.445090
0.543435 0.833646 0.427039
0.663371 0.851575 0.402762
0.769039 0.862821 0.401129
0.853864 0.863386 0.387839
0.915297 0.860227 0.370306
0.950988 0.858289 0.353170
0.973342 0.858289 0.339284
0.066911 0.219913 0.493751
0.106432 0.211795 0.489693
0.247028 0.207202 0.427878
0.399741 0.199802 0.345251
0.522332 0.193072 0.282826
0.546929 0.176135 0.254719
0.589410 0.176745 0.243580
0.634134 0.192370 0.248035
0.670054 0.207095 0.260471
0.069856 0.240848 0.425727
0.108255 0.245841 0.433267
0.208123 0.242346 0.404617
0.364747 0.221436 0.325658
0.523354 0.229161 0.274891
0.596538 0.241878 0.265528
0.644022 0.253534 0.269924
0.684268 0.266149 0.275400
0.726223 0.276524 0.264347
0.091814 0.317815 0.387289
0.133708 0.323059 0.391660
0.213496 0.333099 0.410568
0.376736 0.305645 0.361823
0.549887 0.307325 0.317949
0.646705 0.323064 0.308221
0.727091 0.340753 0.325951
0.782855 0.360465 0.339623
0.833707 0.374426 0.342931
0.128939 0.397131 0.394430
0.167430 0.412088 0.407094
0.246540 0.422042 0.416495
0.399972 0.433978 0.415637
0.605458 0.424681 0.367756
0.706706 0.432161 0.359489
0.786923 0.443289 0.365295
0.848737 0.459494 0.379371
0.901061 0.473472 0.387564
0.153658 0.485725 0.426108
0.201318 0.512523 0.440331
0.298344 0.533976 0.438027
0.443094 0.544934 0.408748
0.628124 0.546925 0.372553
0.737152 0.550923 0.382538
0.821532 0.560914 0.392984
0.885907 0.572880 0.407852
0.939452 0.589197 0.420981
0.189853 0.566659 0.454673
0.253082 0.606452 0.470477
0.363290 0.629952 0.452862
0.502108 0.643728 0.422546
0.647548 0.652263 0.406175
0.765171 0.655597 0.401228
0.851534 0.663277 0.415866
0.913918 0.676578 0.428508
0.960098 0.691447 0.437613
0.243076 0.648234 0.477180
0.320004 0.693571 0.494199
0.426267 0.715894 0.477196
0.550216 0.731377 0.443962
0.683556 0.745341 0.440019
0.796110 0.751570 0.436413
0.880234 0.754086 0.432081
0.934218 0.760389 0.438596
0.967407 0.769558 0.444099
0.302785 0.724590 0.503624
0.369936 0.769100 0.521493
0.484076 0.793098 0.509904
0.599167 0.810183 0.484454
0.718216 0.825425 0.473834
0.820790 0.831184 0.469928
0.897475 0.830477 0.456234
0.944539 0.829382 0.448245
0.972595 0.831846 0.450294
0.331960 0.777813 0.528069
0.401785 0.828565 0.545663
0.525597 0.850935 0.533059
0.632914 0.867124 0.510353
0.738125 0.879347 0.496574
0.833799 0.881926 0.489845
0.906371 0.879469 0.474556
0.951110 0.877623 0.465599
0.978042 0.879896 0.461433
0.058808 0.217609 0.534142
0.099764 0.215076 0.530831
0.227497 0.240024 0.531212
0.380362 0.234440 0.489006
0.502922 0.244480 0.422004
0.579461 0.235676 0.355993
0.608637 0.230625 0.340703
0.647715 0.235828 0.333608
0.681361 0.242298 0.327184
0.079301 0.249271 0.506004
0.118872 0.268577 0.511304
0.199892 0.286341 0.516231
0.334268 0.267887 0.455841
0.472823 0.263428 0.388520
0.594120 0.264182 0.347356
0.642744 0.267435 0.334215
0.685690 0.278406 0.334745
0.735332 0.290806 0.322728
0.112688 0.344701 0.458854
0.151504 0.353254 0.468825
0.222297 0.362170 0.493056
0.335825 0.342517 0.466874
0.505260 0.324659 0.416690
0.634524 0.338209 0.381049
0.705495 0.358022 0.380188
0.760033 0.375512 0.393555
0.812436 0.394308 0.401892
0.147051 0.413230 0.456275
0.187495 0.427032 0.474227
0.263775 0.441062 0.489339
0.380797 0.457118 0.516472
0.551276 0.438662 0.478965
0.691136 0.443776 0.447957
0.774720 0.462203 0.441712
0.836958 0.480828 0.458078
0.888579 0.499306 0.475303
0.168948 0.488960 0.483925
0.219256 0.516734 0.508176
0.311767 0.540721 0.529392
0.422917 0.563005 0.548916
0.589797 0.579125 0.545113
0.738830 0.568581 0.506411
0.823833 0.572866 0.501459
0.889295 0.583887 0.507240
0.943648 0.602213 0.521492
0.195071 0.573831 0.515572
0.258456 0.617004 0.548661
0.355439 0.646384 0.561271
0.476572 0.662890 0.560107
0.614635 0.675798 0.544453
0.759309 0.680548 0.522609
0.848390 0.679945 0.523735
0.915162 0.691131 0.528922
0.963226 0.705180 0.538033
0.241947 0.661341 0.549935
0.316209 0.706409 0.580353
0.414981 0.732982 0.585221
0.535000 0.748598 0.571144
0.663328 0.759700 0.553968
0.779483 0.767794 0.543775
0.873372 0.772161 0.536237
0.932953 0.778704 0.540576
0.969253 0.787991 0.546319
0.299779 0.735668 0.580240
0.364083 0.781595 0.608472
0.470478 0.809487 0.610559
0.587323 0.826170 0.593924
0.703883 0.838312 0.571648
0.808418 0.844309 0.562945
0.890373 0.847573 0.555173
0.943502 0.848388 0.550632
0.974792 0.851865 0.557656
0.327260 0.789364 0.606409
0.394049 0.839750 0.631144
0.508843 0.864393 0.625269
0.618845 0.881025 0.610285
0.720592 0.892668 0.590494
0.821653 0.895338 0.577646
0.899702 0.896010 0.570413
0.949233 0.897459 0.567163
0.979385 0.897444 0.568414
0.064546 0.213733 0.545525
0.097642 0.215320 0.532708
0.197406 0.243854 0.562753
0.361578 0.253788 0.548363
0.507866 0.265843 0.528756
0.595453 0.277348 0.471870
0.633219 0.273533 0.429343
0.661250 0.269261 0.413520
0.693751 0.267994 0.399924
0.081682 0.242679 0.527291
0.113676 0.251392 0.542224
0.199998 0.291336 0.581974
0.326609 0.304102 0.556483
0.457417 0.295540 0.500326
0.573665 0.296342 0.446396
0.651748 0.300855 0.415982
0.698187 0.308851 0.410366
0.742672 0.319127 0.398566
0.119142 0.353811 0.517861
0.159319 0.369724 0.527539
0.231427 0.383802 0.559761
0.339985 0.376361 0.560556
0.480012 0.354380 0.522856
0.613345 0.358494 0.476775
0.712545 0.370676 0.460694
0.770705 0.385108 0.461093
0.820157 0.403800 0.465019
0.159808 0.428412 0.504341
0.201792 0.442505 0.525675
0.283546 0.466123 0.564555
0.389002 0.480500 0.585126
0.517999 0.468465 0.569990
0.671477 0.458891 0.539300
0.770984 0.471030 0.519149
0.834006 0.490918 0.531522
0.886412 0.509621 0.546471
0.186221 0.497154 0.534188
0.242155 0.525091 0.564498
0.339676 0.550048 0.594158
0.441322 0.573799 0.614821
0.560585 0.593097 0.632959
0.706885 0.582148 0.613097
0.811927 0.585880 0.595258
0.883046 0.598835 0.598661
0.939193 0.615274 0.612604
0.218738 0.580346 0.572000
0.286248 0.621442 0.610796
0.377501 0.646660 0.636323
0.481165 0.666693 0.654826
0.598155 0.689362 0.674961
0.739052 0.713816 0.685920
0.853942 0.702263 0.651437
0.911846 0.702553 0.641450
0.962860 0.713161 0.645991
0.249424 0.668727 0.611276
0.320362 0.711238 0.648582
0.416352 0.739299 0.671229
0.518952 0.760114 0.682825
0.644620 0.771564 0.681858
0.764970 0.793269 0.679777
0.874449 0.802750 0.669113
0.928453 0.795386 0.659234
0.968383 0.802915 0.660899
0.296498 0.741131 0.644724
0.363231 0.786598 0.679645
0.465617 0.814925 0.696950
0.571967 0.836902 0.701986
0.695561 0.848162 0.694637
0.802050 0.855812 0.680451
0.882410 0.862348 0.671863
0.939359 0.866738 0.669750
0.974701 0.868330 0.672572
0.322362 0.795346 0.673442
0.392523 0.843870 0.700557
0.501518 0.870207 0.710140
0.604883 0.889006 0.710872
0.717205 0.903349 0.706096
0.819944 0.910201 0.690196
0.896117 0.911727 0.681712
0.946349 0.915175 0.680949
0.978805 0.915587 0.684642
0.065446 0.260945 0.599817
0.099733 0.219852 0.521645
0.165911 0.243946 0.551507
0.303807 0.252918 0.563638
0.481346 0.269306 0.575891
0.583917 0.289311 0.547906
0.642695 0.295735 0.509361
0.675029 0.293553 0.485512
0.700816 0.289860 0.464927
0.085206 0.248753 0.514931
0.117471 0.258150 0.529567
0.178837 0.282946 0.581187
0.309463 0.306711 0.619987
0.456578 0.308171 0.593982
0.568680 0.319070 0.547419
0.651478 0.329366 0.507681
0.704115 0.336764 0.491967
0.749004 0.342443 0.475776
0.120928 0.311376 0.541924
0.154678 0.331061 0.570715
0.235269 0.383084 0.618428
0.350666 0.405068 0.635981
0.474804 0.390839 0.609239
0.600061 0.388080 0.577746
0.706173 0.398651 0.549554
0.770253 0.412393 0.544956
0.818586 0.424918 0.541634
0.166293 0.437644 0.550912
0.212459 0.458507 0.577001
0.301786 0.485040 0.626657
0.405362 0.495770 0.658933
0.522380 0.491675 0.659055
0.651085 0.480325 0.645890
0.760933 0.488506 0.614336
0.831905 0.507009 0.617188
0.884840 0.526253 0.630838
0.199130 0.507286 0.576120
0.260906 0.536577 0.611317
0.357707 0.565269 0.651867
0.460813 0.591921 0.684575
0.559746 0.604854 0.692784
0.676298 0.597590 0.699694
0.800576 0.597308 0.687444
0.878335 0.608737 0.683208
0.935012 0.624018 0.696178
0.242664 0.586679 0.620600
0.314176 0.625186 0.661369
0.408336 0.648068 0.690974
0.511796 0.670735 0.715420
0.611276 0.692836 0.728685
0.714796 0.718806 0.757734
0.833231 0.717601 0.756702
0.904479 0.716283 0.742489
0.962341 0.727092 0.751781
0.283177 0.670069 0.662623
0.351147 0.709515 0.701064
0.450454 0.734820 0.730095
0.551537 0.756074 0.753661
0.656101 0.773648 0.767099
0.757455 0.804875 0.794590
0.873872 0.841514 0.822753
0.942885 0.828526 0.795315
0.972305 0.828061 0.787625
0.313893 0.738949 0.696239
0.388624 0.784112 0.734365
0.493627 0.812789 0.760190
0.584370 0.835654 0.781176
0.684494 0.854485 0.795239
0.791004 0.867677 0.794429
0.884579 0.893664 0.801789
0.952685 0.905243 0.799882
0.975082 0.894835 0.792538
0.337514 0.792416 0.725643
0.412573 0.842527 0.757794
0.517708 0.870359 0.779934
0.608301 0.890990 0.795453
0.704692 0.910842 0.808103
0.815778 0.921233 0.799756
0.897368 0.927275 0.789792
0.944015 0.934874 0.790524
0.977035 0.936660 0.793011
0.067430 0.270298 0.606943
0.131121 0.262867 0.615473
0.231388 0.283604 0.608133
0.270878 0.266117 0.563622
0.410834 0.264271 0.575509
0.540688 0.280034 0.567758
0.627527 0.292226 0.544503
0.675685 0.296529 0.525078
0.705425 0.300114 0.507744
0.091096 0.318669 0.573022
0.131400 0.302906 0.562119
0.182989 0.289049 0.568013
0.274258 0.308867 0.619327
0.412815 0.304440 0.621829
0.553324 0.320748 0.621153
0.648129 0.335407 0.578020
0.709406 0.347626 0.550107
0.753338 0.354864 0.525307
0.128374 0.319692 0.543832
0.158838 0.331083 0.565170
0.219799 0.350270 0.619541
0.331202 0.375081 0.679983
0.467848 0.387828 0.687192
0.596051 0.403995 0.666505
0.703632 0.421855 0.631830
0.772830 0.434408 0.619755
0.822568 0.445716 0.619120
0.168231 0.408713 0.593194
0.211128 0.440038 0.622877
0.307275 0.488197 0.680472
0.417730 0.512220 0.718090
0.528381 0.512750 0.731042
0.639168 0.505736 0.729820
0.753662 0.511879 0.707267
0.830835 0.526386 0.699230
0.886000 0.541970 0.705760
0.208347 0.518746 0.613245
0.274515 0.549455 0.654207
0.369911 0.579291 0.700064
0.474073 0.604959 0.741189
0.572064 0.615161 0.757681
0.672675 0.611959 0.776097
0.791507 0.608955 0.777440
0.874012 0.620886 0.772248
0.931319 0.634363 0.778927
0.257832 0.595850 0.659129
0.330919 0.631572 0.701027
0.424396 0.654696 0.733129
0.528978 0.680353 0.766292
0.624350 0.703890 0.786251
0.708773 0.717394 0.802310
0.812654 0.717382 0.819314
0.899058 0.724092 0.824295
0.960128 0.735714 0.834485
0.308232 0.671992 0.699809
0.380755 0.708912 0.740537
0.480963 0.733849 0.772736
0.587004 0.756553 0.800702
0.678878 0.779143 0.818166
0.762088 0.804442 0.833101
0.850761 0.834639 0.878394
0.933659 0.840933 0.887279
0.970031 0.840452 0.873625
0.340291 0.736721 0.733944
0.418504 0.780621 0.774094
0.525379 0.809822 0.803983
0.620887 0.832405 0.831529
0.705422 0.853133 0.853404
0.798051 0.872199 0.866095
0.878415 0.902150 0.893760
0.961654 0.933378 0.923609
0.982879 0.915984 0.896742
0.371771 0.788083 0.761318
0.451072 0.837400 0.800351
0.555535 0.866987 0.826291
0.637003 0.887358 0.851560
0.710109 0.908629 0.875608
0.810788 0.925872 0.886000
0.890486 0.933013 0.879866
0.951827 0.954910 0.893492
0.982971 0.956344 0.891127
0.069535 0.278157 0.614954
0.134554 0.271366 0.626261
0.230991 0.290501 0.621668
0.345525 0.307622 0.631022
0.390127 0.268116 0.567605
0.474327 0.275746 0.568002
0.584237 0.286381 0.550988
0.653559 0.292683 0.546151
0.701350 0.300481 0.537850
0.099001 0.327306 0.591699
0.142382 0.338872 0.609598
0.216312 0.354940 0.642267
0.274998 0.316060 0.615045
0.369619 0.303532 0.619867
0.494575 0.309331 0.622812
0.612634 0.322118 0.598703
0.693904 0.336217 0.582589
0.753246 0.356237 0.571603
0.132586 0.326360 0.543038
0.160037 0.337911 0.566461
0.223392 0.357031 0.621027
0.319585 0.374563 0.680003
0.425483 0.378347 0.695811
0.559579 0.386297 0.697276
0.687922 0.411872 0.681712
0.769055 0.436210 0.671077
0.825010 0.457725 0.670909
0.167620 0.385489 0.595270
0.208927 0.403906 0.627588
0.284306 0.432685 0.694179
0.395315 0.468284 0.750713
0.525826 0.506966 0.775616
0.639429 0.523018 0.779644
0.752285 0.527260 0.762173
0.830106 0.540566 0.758816
0.886488 0.553765 0.763546
0.213886 0.516167 0.646128
0.277897 0.550744 0.690272
0.377096 0.586465 0.739910
0.483268 0.611811 0.779461
0.581872 0.622629 0.804044
0.680446 0.622782 0.830808
0.789425 0.622721 0.840681
0.871092 0.631067 0.835996
0.930053 0.643336 0.839597
0.270924 0.605341 0.687053
0.342901 0.639414 0.730694
0.433997 0.661112 0.764111
0.540291 0.688411 0.802594
0.637156 0.711742 0.830228
0.717693 0.722744 0.854826
0.811978 0.723964 0.879988
0.898497 0.728817 0.888289
0.960510 0.744030 0.897337
0.318471 0.675380 0.724865
0.393164 0.711788 0.769619
0.493278 0.736477 0.803204
0.600702 0.762402 0.834333
0.691356 0.788205 0.858015
0.768597 0.814191 0.877760
0.842832 0.831159 0.907927
0.915084 0.837324 0.922713
0.968826 0.843946 0.928359
0.355337 0.737285 0.758038
0.441245 0.781430 0.803586
0.552621 0.810803 0.833158
0.644800 0.834943 0.864164
0.726772 0.858793 0.893629
0.807507 0.879835 0.909117
0.874098 0.895705 0.917998
0.940307 0.920485 0.959579
0.981659 0.919966 0.964080
0.391669 0.786557 0.783368
0.480598 0.835996 0.828870
0.584329 0.865156 0.855283
0.658839 0.885100 0.885695
0.733806 0.905928 0.911131
0.819867 0.925429 0.927535
0.891844 0.935775 0.929290
0.945357 0.957382 0.953887
0.994018 0.974289 0.966857
