_SYSTEM/luts/D-CINELIKE -0_3 V2.cube
TITLE "Generated by Resolve"
LUT_3D_SIZE 65
0.00384527 0.00105287 0.00166323
0.0439002 0.00457771 0.00111391
0.0914015 0.0103761 0.00106813
0.113863 0.0181277 0.00613413
0.131228 0.0256809 0.0129549
0.152789 0.0319066 0.0166629
0.172671 0.0352636 0.0185092
0.194049 0.0362707 0.0187076
0.215091 0.0355383 0.0184634
0.236683 0.0341497 0.0182498
0.260777 0.0357519 0.0178378
0.283192 0.0345464 0.0159915
0.306035 0.0331273 0.0137789
0.333394 0.0359655 0.0130159
0.35816 0.0372625 0.0117037
0.38204 0.0382086 0.0103914
0.404623 0.0403601 0.0101778
0.426917 0.0424964 0.0110781
0.44918 0.0432898 0.0118868
0.472023 0.0452888 0.0123293
0.495094 0.0470436 0.0125277
0.516136 0.0476387 0.0126802
0.536812 0.0486763 0.0130312
0.557031 0.0497597 0.0134432
0.577691 0.0514076 0.0137636
0.598444 0.0534676 0.0141451
0.615442 0.0568093 0.0148013
0.631907 0.0606394 0.0163424
0.646952 0.0650339 0.0189975
0.661585 0.0692302 0.0216373
0.676097 0.0738079 0.0239567
0.689235 0.0762951 0.0257877
0.701808 0.0771649 0.0276493
0.71339 0.0775769 0.0291905
0.724468 0.0762188 0.0309148
0.734173 0.0761883 0.0327764
0.74229 0.0794995 0.0352636
0.750195 0.08365 0.0376593
0.758068 0.0899672 0.0395972
0.765728 0.096376 0.0415198
0.773053 0.102174 0.0429541
0.779171 0.106676 0.0438849
0.786343 0.107424 0.0444038
0.792981 0.107622 0.044358
0.798901 0.108293 0.0445258
0.804425 0.108751 0.0445411
0.809522 0.108888 0.0444648
0.814374 0.108904 0.0442206
0.81883 0.108385 0.0436408
0.822889 0.107485 0.0428168
0.826795 0.106218 0.0417334
0.829908 0.104829 0.0405585
0.833127 0.103395 0.0393683
0.836286 0.101747 0.038056
0.839277 0.100008 0.0366979
0.842908 0.0989548 0.0358434
0.847745 0.0995804 0.0363012
0.852659 0.100145 0.0366827
0.857298 0.100618 0.0369879
0.860777 0.101061 0.0372625
0.863157 0.101488 0.0374914
0.86569 0.101991 0.0377966
0.868025 0.102342 0.0379492
0.870314 0.102708 0.0381018
0.872831 0.103166 0.0383612
0.00172427 0.0135195 0.00138857
0.0204929 0.00782788 0.00154116
0.0586709 0.00894179 0.00140383
0.0836805 0.015671 0.00132753
0.104463 0.0236667 0.00637827
0.128145 0.0336156 0.0141299
0.155291 0.0394903 0.0186465
0.185519 0.0417182 0.019089
0.209934 0.0419318 0.0188449
0.232959 0.0420844 0.0184634
0.257145 0.043122 0.0174563
0.282551 0.0429389 0.0158694
0.308995 0.0422217 0.0144808
0.333913 0.0429694 0.0128176
0.359197 0.0443122 0.0121614
0.384131 0.0457313 0.0115969
0.406439 0.0483101 0.0108186
0.428748 0.050721 0.0106355
0.450843 0.0520027 0.0113527
0.473381 0.0540017 0.0118257
0.495659 0.055314 0.0121157
0.516793 0.0559701 0.0124361
0.537743 0.057023 0.0128328
0.558297 0.0577859 0.0131685
0.579126 0.0599527 0.01355
0.598871 0.0624094 0.0146792
0.616373 0.0657664 0.0175479
0.632609 0.0693523 0.0202487
0.64654 0.0732586 0.0226291
0.660578 0.0777447 0.0252689
0.674006 0.0820325 0.0273899
0.687404 0.0848096 0.0296635
0.699763 0.0855116 0.0313725
0.711376 0.0860914 0.0332341
0.722133 0.0852674 0.0349432
0.73167 0.0858778 0.0369268
0.739544 0.0893263 0.0393225
0.747631 0.0940108 0.0416571
0.755795 0.100999 0.0437629
0.763439 0.107362 0.0455177
0.77055 0.112871 0.0468452
0.777462 0.117647 0.0480049
0.784955 0.118212 0.0483253
0.792691 0.119203 0.0486458
0.799207 0.120226 0.0491188
0.805188 0.121065 0.049424
0.810819 0.121523 0.049485
0.816022 0.121492 0.0491798
0.820966 0.121447 0.0488136
0.825498 0.120745 0.0480659
0.829236 0.119524 0.0469368
0.832883 0.118105 0.0456397
0.836179 0.116411 0.0443122
0.839689 0.114855 0.0429999
0.842908 0.113024 0.0415351
0.845731 0.110903 0.039826
0.848829 0.108858 0.0382544
0.853162 0.108659 0.0380865
0.857954 0.109117 0.0383764
0.86154 0.109575 0.0386664
0.864164 0.110002 0.0389563
0.866545 0.110384 0.0392004
0.869276 0.110857 0.0394446
0.871733 0.111391 0.0397345
0.874128 0.11165 0.0397803
0.00109865 0.0282597 0.00167849
0.00480659 0.0234989 0.00177005
0.0405432 0.0166476 0.00177005
0.0746929 0.0193484 0.00164797
0.0972763 0.0242771 0.00224308
0.118196 0.032105 0.0105898
0.145174 0.0426795 0.016907
0.17499 0.0484321 0.0190738
0.202625 0.0503853 0.0176699
0.227573 0.0501259 0.0166934
0.252583 0.0502785 0.0164187
0.281239 0.0497749 0.0157321
0.309392 0.0491493 0.0147097
0.334295 0.0500954 0.0135958
0.359228 0.0516823 0.0131533
0.383291 0.0532692 0.0125734
0.40621 0.0559091 0.0118563
0.428168 0.058854 0.0115663
0.449577 0.0617227 0.0117494
0.47126 0.0636606 0.0120241
0.493431 0.0652171 0.0124971
0.516518 0.0658579 0.0133822
0.538552 0.066453 0.0144808
0.560693 0.0671092 0.0160983
0.579034 0.0690471 0.0176547
0.596139 0.071458 0.0195163
0.613138 0.0750439 0.0217441
0.628367 0.0784314 0.023621
0.642588 0.0820478 0.0261997
0.656046 0.085832 0.0285801
0.669947 0.090486 0.0311894
0.68304 0.0928969 0.0333715
0.695796 0.0938277 0.0354467
0.707393 0.0944228 0.0371252
0.717922 0.0937972 0.0388342
0.72723 0.094316 0.040528
0.735424 0.0977951 0.0428168
0.743374 0.102647 0.0449378
0.751476 0.109773 0.0469062
0.75903 0.116442 0.0485847
0.76669 0.122301 0.0499123
0.7738 0.126894 0.0506905
0.781888 0.128069 0.051194
0.790112 0.129625 0.0518044
0.796704 0.131182 0.0527047
0.803189 0.132769 0.0536507
0.809079 0.133684 0.0539254
0.814847 0.134585 0.0542458
0.820127 0.134829 0.0539712
0.825238 0.134615 0.0535286
0.829984 0.134096 0.0529488
0.83444 0.133089 0.0520638
0.838392 0.131716 0.0509804
0.842206 0.1299 0.0495308
0.845731 0.127962 0.0479896
0.849226 0.125978 0.0464179
0.852232 0.123674 0.0446021
0.855085 0.121126 0.0427558
0.858534 0.119615 0.0415198
0.862501 0.119921 0.0417029
0.865171 0.120272 0.0419013
0.867811 0.120562 0.0420233
0.870481 0.120912 0.0421912
0.87306 0.121111 0.0422522
0.875715 0.121477 0.0424201
0.00166323 0.0458381 0.00227359
0.00706493 0.0414588 0.0021973
0.0182193 0.0357977 0.002533
0.062089 0.031281 0.00210575
0.0904555 0.0349432 0.00166323
0.11696 0.0430152 0.00846876
0.144625 0.0512398 0.016556
0.175174 0.0548714 0.0200198
0.202167 0.0570993 0.0197147
0.225666 0.0577401 0.0164187
0.250248 0.0581521 0.0164797
0.278065 0.0572213 0.0153811
0.306661 0.0570535 0.0143587
0.332036 0.0595407 0.0145571
0.355642 0.0604562 0.0137484
0.379522 0.0617227 0.0131991
0.404456 0.0653086 0.0133516
0.426917 0.0690013 0.0139773
0.446754 0.0728313 0.014725
0.468132 0.0746929 0.0153964
0.49044 0.0763561 0.0163577
0.514946 0.0777142 0.017792
0.538659 0.0783551 0.0196384
0.559991 0.0785687 0.0214237
0.578439 0.0802625 0.0233005
0.595453 0.0820935 0.0251011
0.611948 0.0850996 0.0268711
0.627115 0.088304 0.028809
0.63975 0.0916609 0.0310216
0.652262 0.0953841 0.0331884
0.665324 0.099855 0.035584
0.677546 0.102007 0.0375372
0.689494 0.102113 0.0390784
0.700465 0.102251 0.040528
0.710719 0.101122 0.0418708
0.719982 0.101625 0.0435035
0.727764 0.105165 0.0453803
0.735531 0.109926 0.046952
0.743435 0.116823 0.0485542
0.751522 0.12369 0.0502327
0.759747 0.12903 0.0513161
0.768032 0.133776 0.0522469
0.776699 0.135302 0.0529488
0.78471 0.136995 0.0535134
0.791516 0.138888 0.0543832
0.797787 0.140673 0.055314
0.804074 0.142473 0.0563211
0.810269 0.143999 0.0570993
0.816129 0.145296 0.0577249
0.821958 0.146212 0.0580606
0.827314 0.146151 0.0576028
0.832364 0.145922 0.0570687
0.837049 0.145205 0.0562448
0.841367 0.144137 0.0552377
0.845701 0.142641 0.054078
0.849378 0.140566 0.0524453
0.853147 0.138521 0.0509499
0.856626 0.136187 0.0492714
0.8598 0.133745 0.0475776
0.862394 0.131121 0.0457008
0.865293 0.1308 0.0455482
0.868803 0.130922 0.0457313
0.871809 0.130983 0.0458228
0.875135 0.13109 0.0459907
0.878248 0.131182 0.046128
0.00239567 0.066041 0.00274662
0.00808728 0.0619669 0.00250248
0.0128481 0.0584421 0.00276188
0.0545815 0.0540169 0.00276188
0.089601 0.0525216 0.00205997
0.11873 0.0575875 0.00909438
0.150011 0.0637675 0.0179599
0.178958 0.0675822 0.0220645
0.202747 0.0694896 0.0220493
0.224613 0.0704204 0.019379
0.250248 0.0701305 0.0175326
0.277928 0.0689708 0.0170138
0.304997 0.0691234 0.0165866
0.330388 0.0719463 0.0170443
0.356481 0.0743114 0.0167391
0.381521 0.0763409 0.0163882
0.402701 0.079118 0.0164034
0.424277 0.0820325 0.0169833
0.446174 0.0853895 0.0180209
0.468528 0.08748 0.0194705
0.491234 0.0895705 0.0211948
0.515435 0.0918135 0.0227817
0.536873 0.0926375 0.0246433
0.556771 0.0934768 0.0269169
0.578256 0.0946365 0.0288853
0.597467 0.096025 0.0308843
0.61355 0.0982071 0.0331273
0.627817 0.100847 0.0352483
0.6392 0.10454 0.0373541
0.650568 0.107774 0.039292
0.662455 0.111116 0.0413672
0.674632 0.112764 0.0433204
0.686336 0.112978 0.0446021
0.697765 0.113649 0.0460212
0.708614 0.113115 0.0468147
0.718654 0.113191 0.0474861
0.727199 0.114534 0.0486915
0.73547 0.116899 0.0497597
0.743969 0.12253 0.0512093
0.751751 0.127611 0.0522011
0.759731 0.133165 0.0534066
0.767422 0.138399 0.0545968
0.77499 0.140719 0.0550393
0.782605 0.143709 0.0556344
0.788891 0.145922 0.0565499
0.794842 0.148074 0.0575265
0.801083 0.149722 0.05832
0.807263 0.151369 0.0591897
0.813764 0.153048 0.0601511
0.820203 0.154131 0.060853
0.826673 0.155428 0.0616007
0.832929 0.156435 0.0620432
0.83888 0.156497 0.0616922
0.844465 0.156054 0.0612039
0.849577 0.155154 0.0603952
0.854826 0.153689 0.0595102
0.859434 0.151568 0.0581521
0.863981 0.149569 0.0568551
0.868193 0.147219 0.055314
0.871672 0.144717 0.0536965
0.873411 0.141939 0.0519875
0.8757 0.140276 0.0509499
0.879026 0.140459 0.0511635
0.882383 0.140566 0.0512551
0.885283 0.140444 0.0511482
0.00433356 0.086717 0.00640879
0.00959792 0.083299 0.00297551
0.0277256 0.0801251 0.00299077
0.0583047 0.0793469 0.00332647
0.0967269 0.0752117 0.00445563
0.125826 0.07364 0.0129397
0.155398 0.075227 0.0197299
0.183368 0.078233 0.0246281
0.205142 0.0805676 0.0248417
0.226047 0.0816205 0.0225834
0.251301 0.0814679 0.0195163
0.279667 0.0814527 0.0202029
0.30663 0.0821546 0.0205234
0.332418 0.0865339 0.0209812
0.358419 0.0898756 0.0209812
0.383841 0.0924697 0.0211185
0.403479 0.0946517 0.0212863
0.425437 0.0970169 0.0220493
0.449393 0.0999771 0.0232242
0.471351 0.102144 0.0247501
0.494545 0.104112 0.0265507
0.518242 0.105898 0.0283665
0.539376 0.107332 0.0305333
0.557458 0.1093 0.0324254
0.576425 0.110201 0.0345769
0.594751 0.111299 0.0366979
0.611749 0.112673 0.038819
0.627497 0.114961 0.0411536
0.640589 0.117342 0.0431678
0.65304 0.119173 0.0453346
0.665202 0.121004 0.0476539
0.676661 0.121904 0.0493019
0.68896 0.123827 0.0505989
0.700008 0.126085 0.0516365
0.710872 0.126558 0.052018
0.720897 0.127153 0.0525216
0.729061 0.126543 0.0528725
0.737728 0.12723 0.0533913
0.745968 0.130587 0.054139
0.754391 0.13344 0.0548104
0.762097 0.137362 0.0556954
0.769574 0.141085 0.0566567
0.777249 0.144228 0.0574807
0.78468 0.147417 0.0583047
0.791485 0.149737 0.0591592
0.798184 0.151476 0.0601358
0.8047 0.153017 0.0609903
0.811444 0.154604 0.0617075
0.818082 0.15639 0.062562
0.82501 0.158633 0.0634928
0.831754 0.160693 0.0642252
0.837903 0.162219 0.0646067
0.844236 0.163928 0.0651408
0.85008 0.164858 0.0653086
0.855451 0.164675 0.0648661
0.860563 0.163745 0.0641337
0.865629 0.162142 0.0631876
0.870237 0.160143 0.0621042
0.874632 0.15758 0.0607614
0.878828 0.155337 0.059617
0.88069 0.152499 0.0581216
0.882307 0.149462 0.0565042
0.883833 0.146639 0.054963
0.886687 0.146517 0.0548867
0.889586 0.146563 0.0550088
0.00906386 0.10602 0.0161898
0.0204013 0.101442 0.0104829
0.0398718 0.0985885 0.00334173
0.0645609 0.0988937 0.00360113
0.101808 0.0948196 0.00839246
0.13373 0.0898604 0.0170291
0.162142 0.0879225 0.0223239
0.190112 0.0899519 0.0270085
0.212909 0.0919661 0.027985
0.232822 0.0928054 0.0260166
0.252537 0.0915694 0.0217136
0.278767 0.0924849 0.0218662
0.306477 0.0946517 0.0232395
0.332525 0.0997024 0.0236362
0.358099 0.103349 0.0238651
0.382467 0.106096 0.0244297
0.403189 0.108232 0.0251926
0.426749 0.11078 0.0264591
0.451453 0.113893 0.0282444
0.474311 0.117433 0.0300145
0.497505 0.119951 0.0321813
0.521233 0.121752 0.0344549
0.541741 0.123613 0.0366827
0.558953 0.125826 0.0384222
0.575845 0.127077 0.0402991
0.591546 0.128481 0.0422827
0.609751 0.129732 0.04448
0.625834 0.131731 0.0466011
0.638636 0.133425 0.0485542
0.651225 0.134554 0.0506142
0.662745 0.135286 0.0519112
0.674174 0.135485 0.0532845
0.684977 0.136446 0.054612
0.695155 0.137758 0.0556649
0.705806 0.139895 0.0564126
0.715694 0.141573 0.0567636
0.725628 0.141802 0.0570077
0.735698 0.142229 0.0570077
0.7458 0.141833 0.0571298
0.755901 0.140887 0.0571603
0.763851 0.14313 0.0577554
0.77174 0.145251 0.0585794
0.779095 0.148928 0.0594949
0.786419 0.152941 0.0604868
0.793164 0.155306 0.0612192
0.799817 0.157076 0.0619669
0.806455 0.158831 0.0627909
0.812879 0.160266 0.0634928
0.819104 0.161929 0.0640116
0.825605 0.163836 0.0646372
0.831708 0.165469 0.0651408
0.837613 0.166781 0.0655375
0.843519 0.167849 0.0659037
0.849393 0.169055 0.0664378
0.855161 0.170108 0.0669261
0.860929 0.170565 0.0670024
0.866407 0.169635 0.0663767
0.871473 0.168078 0.0654002
0.876432 0.165896 0.0643473
0.881025 0.163439 0.0632334
0.883574 0.160662 0.0618601
0.886061 0.158221 0.0608835
0.887907 0.154971 0.0593118
0.889769 0.152438 0.0579538
0.892393 0.151858 0.057496
0.0163272 0.123491 0.0237583
0.0254215 0.119112 0.0160372
0.0443732 0.11603 0.0059968
0.0692912 0.117357 0.00434882
0.106691 0.114549 0.0121462
0.142397 0.10811 0.0208133
0.170977 0.103349 0.0260624
0.19646 0.1028 0.0291905
0.219944 0.104097 0.030518
0.238178 0.104799 0.0283055
0.255177 0.104799 0.0248417
0.279667 0.106844 0.0250858
0.305715 0.109545 0.0259556
0.331853 0.112947 0.0262608
0.35494 0.114656 0.0263371
0.376837 0.116625 0.026688
0.403433 0.120333 0.0281682
0.427955 0.123339 0.0300603
0.45037 0.126162 0.0319829
0.474403 0.130877 0.0340734
0.497383 0.134325 0.0361181
0.520317 0.136629 0.03888
0.541024 0.138094 0.0411688
0.560006 0.140795 0.0433814
0.574914 0.143023 0.0451209
0.588556 0.145464 0.0467384
0.607095 0.147539 0.0490425
0.623133 0.149447 0.0512703
0.635508 0.150866 0.0527352
0.647913 0.15108 0.0538949
0.660243 0.151781 0.0552224
0.671977 0.151339 0.0565042
0.682185 0.151202 0.0576486
0.691981 0.151934 0.0585489
0.702068 0.153658 0.0593423
0.712093 0.155489 0.0600443
0.722454 0.15668 0.0603342
0.732235 0.157961 0.0605478
0.742535 0.158175 0.0605478
0.752316 0.157931 0.0602121
0.761578 0.15816 0.0604562
0.770336 0.157473 0.060502
0.778363 0.159121 0.0610819
0.786145 0.161624 0.0617685
0.793011 0.16321 0.0622721
0.799649 0.165103 0.0630655
0.806058 0.166659 0.0637064
0.812497 0.167819 0.0642252
0.818631 0.169085 0.0645304
0.824643 0.170352 0.0648966
0.830747 0.171725 0.0653086
0.836912 0.172885 0.0657511
0.842756 0.174136 0.0660716
0.848661 0.175479 0.0664988
0.854658 0.176806 0.0668956
0.860426 0.178119 0.067277
0.865797 0.178943 0.0672618
0.87155 0.179629 0.0672313
0.876951 0.178347 0.0664378
0.882185 0.176669 0.0656291
0.885893 0.174411 0.064683
0.888701 0.172152 0.0637369
0.891234 0.169604 0.062501
0.893523 0.166674 0.061265
0.895705 0.163882 0.0598917
0.0171054 0.138964 0.0263981
0.0255283 0.134829 0.0198825
0.0425422 0.132097 0.00944533
0.0721599 0.134432 0.00616464
0.110689 0.131151 0.0137942
0.149538 0.124636 0.022797
0.179324 0.119524 0.0288853
0.203952 0.117464 0.0318608
0.227131 0.11725 0.0326238
0.244114 0.11751 0.0313268
0.260075 0.118776 0.0286259
0.281437 0.120302 0.0278935
0.30602 0.122728 0.0287022
0.331121 0.125765 0.0292363
0.35465 0.127886 0.0294194
0.378424 0.130327 0.0299687
0.402975 0.132937 0.03122
0.426047 0.136339 0.0328832
0.447623 0.140017 0.0349432
0.471366 0.144213 0.0369879
0.495308 0.148531 0.0394903
0.518105 0.151202 0.0417945
0.538643 0.153994 0.0442054
0.556725 0.156649 0.0460059
0.572961 0.158999 0.0480201
0.588403 0.16141 0.0501564
0.603037 0.16408 0.0518349
0.617105 0.167117 0.0533608
0.630121 0.168795 0.0546273
0.643168 0.169879 0.0559854
0.656336 0.169711 0.0571145
0.668696 0.168627 0.0581521
0.679576 0.168261 0.0590982
0.689738 0.167987 0.0599222
0.699809 0.168902 0.0608225
0.709606 0.169879 0.0616159
0.719539 0.17171 0.06215
0.729061 0.173693 0.0625467
0.738964 0.174228 0.0624704
0.749172 0.175555 0.0625162
0.758846 0.174975 0.0624094
0.768368 0.173754 0.0623331
0.777096 0.173648 0.0625772
0.785031 0.173816 0.0626841
0.792706 0.174578 0.0631113
0.799451 0.176211 0.0636454
0.806226 0.178058 0.0641337
0.812634 0.179065 0.0646067
0.81854 0.179889 0.0647593
0.824628 0.181216 0.0651102
0.830686 0.182116 0.0654002
0.836713 0.183276 0.0657511
0.842496 0.184344 0.0659495
0.848417 0.185382 0.0662242
0.854383 0.186587 0.0666056
0.860121 0.187671 0.0669108
0.865919 0.188769 0.0672007
0.871397 0.189593 0.0671702
0.876814 0.190509 0.067277
0.882292 0.191119 0.0672465
0.886458 0.18938 0.0664225
0.889647 0.187549 0.065568
0.892912 0.185 0.0648203
0.895674 0.182315 0.0639658
0.898436 0.179355 0.0629282
0.0158389 0.152972 0.0251621
0.0254673 0.148333 0.0204318
0.0426337 0.145525 0.0122683
0.0708019 0.14638 0.0106508
0.112688 0.145846 0.0177615
0.15491 0.140444 0.0263066
0.186404 0.135515 0.0317845
0.210666 0.133684 0.0354314
0.231678 0.132311 0.0358892
0.248493 0.131792 0.0340429
0.264103 0.132662 0.0310674
0.283696 0.13341 0.0301366
0.306218 0.135195 0.0305028
0.331411 0.138125 0.0314336
0.35639 0.141436 0.0319829
0.380743 0.144488 0.032578
0.402823 0.14696 0.0337682
0.42446 0.149844 0.0351263
0.445792 0.153582 0.0370031
0.469444 0.157488 0.0393225
0.492561 0.161532 0.0417029
0.515175 0.165209 0.0439307
0.535424 0.168536 0.0462348
0.553399 0.170977 0.0480964
0.570214 0.173587 0.0504768
0.585336 0.175402 0.0520027
0.599908 0.1785 0.0533303
0.613581 0.181506 0.0545357
0.626932 0.184237 0.0559091
0.63975 0.186191 0.0570077
0.653025 0.186282 0.0581521
0.665919 0.185916 0.0591745
0.677165 0.185199 0.0598611
0.688411 0.184298 0.0605631
0.698802 0.184573 0.0610971
0.708537 0.184756 0.0616922
0.717906 0.186267 0.0623178
0.726726 0.187427 0.0628672
0.736278 0.189273 0.0633249
0.745998 0.192279 0.0637064
0.755734 0.192599 0.0637217
0.765682 0.191638 0.0636301
0.774929 0.190219 0.0636606
0.783886 0.188769 0.0637369
0.792111 0.187839 0.0638437
0.799329 0.188998 0.0642557
0.806516 0.190509 0.0646525
0.812467 0.190997 0.0648203
0.81854 0.191959 0.0651255
0.824475 0.192905 0.0653849
0.830579 0.193805 0.0656748
0.836469 0.194766 0.0660105
0.842344 0.195712 0.0663615
0.848219 0.196689 0.0665599
0.853956 0.197635 0.066865
0.85977 0.198871 0.0672007
0.865446 0.19971 0.0673075
0.870817 0.200458 0.0672618
0.876234 0.201266 0.0673228
0.88159 0.201816 0.0672313
0.88603 0.202594 0.0672313
0.88922 0.203174 0.067216
0.892729 0.201328 0.0665751
0.895994 0.198917 0.0658274
0.899214 0.196201 0.0649119
0.0196384 0.167437 0.0232395
0.0244602 0.163058 0.0187381
0.0401923 0.159701 0.0153201
0.0661173 0.159716 0.0138705
0.105241 0.160296 0.0172122
0.150225 0.155978 0.0256962
0.187518 0.15108 0.0322576
0.212558 0.148714 0.0364691
0.23299 0.147555 0.0373236
0.250294 0.146441 0.0358892
0.26714 0.146197 0.0328832
0.287358 0.147585 0.0324254
0.308873 0.149645 0.0323491
0.335836 0.152331 0.0334173
0.360006 0.155276 0.0341955
0.383017 0.158709 0.0349279
0.404547 0.162036 0.0360266
0.426108 0.164904 0.0375372
0.447929 0.168063 0.039353
0.469261 0.170947 0.0413214
0.490822 0.17467 0.0435645
0.511849 0.178897 0.0453651
0.531716 0.181918 0.047425
0.550454 0.183932 0.0495766
0.566522 0.185901 0.0512398
0.581186 0.188418 0.0525673
0.596368 0.191257 0.0538491
0.610483 0.194308 0.0550088
0.623652 0.197528 0.0561532
0.636286 0.200549 0.0571756
0.649744 0.201816 0.0582437
0.662516 0.202152 0.0590677
0.674418 0.201709 0.0596323
0.686427 0.200488 0.0603189
0.697063 0.200183 0.060914
0.707103 0.200427 0.0615091
0.716213 0.201175 0.0620127
0.724971 0.20209 0.0624094
0.73402 0.203693 0.0628214
0.743069 0.2056 0.0632792
0.752865 0.207706 0.0636301
0.762631 0.208881 0.0637827
0.772229 0.209064 0.0640421
0.781521 0.206622 0.0643015
0.790646 0.204669 0.0646372
0.798489 0.204227 0.0649424
0.80618 0.203723 0.0650339
0.812451 0.204059 0.0653239
0.818372 0.204639 0.0654765
0.824308 0.205402 0.0656748
0.830365 0.206073 0.0658732
0.836133 0.206821 0.0660716
0.84184 0.207752 0.0662089
0.8477 0.208469 0.0664073
0.853483 0.209537 0.0666972
0.85922 0.210651 0.0669566
0.864866 0.211337 0.0669871
0.870207 0.212009 0.0669108
0.875486 0.212619 0.066865
0.880995 0.213291 0.0668498
0.88574 0.21384 0.0668345
0.88896 0.21445 0.0668345
0.892195 0.21503 0.0667277
0.895064 0.215213 0.0664988
0.898543 0.214298 0.0660716
0.0227817 0.184146 0.021088
0.0244602 0.179126 0.0177005
0.0410773 0.175921 0.0169528
0.0637827 0.175509 0.0158846
0.0963302 0.176059 0.015671
0.138735 0.173205 0.0239872
0.176867 0.168643 0.0306249
0.20647 0.167132 0.0350805
0.228443 0.165576 0.0372473
0.247517 0.163806 0.0365606
0.271183 0.162402 0.0352789
0.293172 0.163012 0.0348363
0.314504 0.164675 0.0344854
0.337774 0.16582 0.0350805
0.359518 0.168688 0.0361944
0.380438 0.172061 0.0372473
0.402167 0.175036 0.0382544
0.424079 0.178424 0.0394751
0.444938 0.181811 0.0413214
0.466407 0.185367 0.0431067
0.487831 0.188693 0.0449531
0.507912 0.191867 0.0467079
0.527977 0.194858 0.0482795
0.547036 0.19704 0.049836
0.563912 0.198932 0.0513924
0.579278 0.201022 0.0529793
0.593332 0.203708 0.0542
0.606851 0.206882 0.055314
0.620508 0.209995 0.0562753
0.633768 0.214206 0.0571145
0.646494 0.216602 0.0578317
0.658824 0.218189 0.0583658
0.671595 0.21799 0.0591592
0.683894 0.216464 0.0598764
0.694835 0.21593 0.0604868
0.704967 0.215488 0.0609903
0.71429 0.216022 0.0613413
0.7234 0.216648 0.0618296
0.732189 0.217716 0.0623331
0.740993 0.219303 0.0628519
0.750134 0.2215 0.0632486
0.759762 0.224399 0.0635996
0.769238 0.225895 0.0639353
0.778637 0.224369 0.0640879
0.788067 0.223072 0.0644541
0.796429 0.221241 0.064683
0.805097 0.219471 0.0649271
0.811795 0.218906 0.0651408
0.818112 0.219226 0.0653239
0.82417 0.219638 0.0654917
0.83003 0.219791 0.0654917
0.835676 0.220417 0.0655222
0.841367 0.22092 0.0656748
0.847257 0.221561 0.0658885
0.853071 0.222416 0.0661936
0.858701 0.223163 0.0664073
0.864408 0.223865 0.0665141
0.869688 0.22417 0.0663615
0.875059 0.224903 0.066392
0.88043 0.22536 0.0663157
0.885496 0.225895 0.0662852
0.88867 0.226535 0.0662394
0.89192 0.226871 0.0660868
0.895033 0.22742 0.0660105
0.898116 0.227604 0.0657054
0.0259403 0.201785 0.0203861
0.0255131 0.195758 0.018616
0.0430457 0.19237 0.0179294
0.0665751 0.19237 0.016968
0.0964675 0.193286 0.0158389
0.132204 0.191135 0.022797
0.167773 0.187778 0.0287175
0.197848 0.185687 0.0323339
0.222705 0.183536 0.0351415
0.247593 0.181643 0.0366064
0.275196 0.178927 0.0369879
0.298848 0.178515 0.0368048
0.320363 0.179294 0.0365606
0.340108 0.179507 0.0369268
0.359869 0.182025 0.0379492
0.379187 0.184863 0.0389563
0.40206 0.187793 0.040116
0.423331 0.190982 0.0415351
0.44416 0.194842 0.0433814
0.465171 0.199344 0.0449378
0.485435 0.202884 0.0462196
0.505318 0.205051 0.0474556
0.52491 0.207828 0.0487678
0.544457 0.21062 0.0502022
0.561166 0.212634 0.0517281
0.576471 0.214374 0.0531472
0.59089 0.217441 0.0545052
0.604685 0.219928 0.0555886
0.618784 0.222858 0.0565194
0.632395 0.22652 0.0573892
0.644556 0.229419 0.0580148
0.656107 0.231769 0.0584573
0.668284 0.23212 0.0590372
0.680339 0.231937 0.0597391
0.6916 0.230961 0.0603494
0.702495 0.230076 0.0608225
0.712612 0.230503 0.0613718
0.722118 0.230762 0.0618296
0.731151 0.231724 0.0622721
0.739544 0.232593 0.0626383
0.748165 0.234195 0.0630198
0.757122 0.2374 0.0633097
0.766125 0.23978 0.0635843
0.775876 0.24094 0.0638895
0.785122 0.241657 0.0641031
0.794369 0.239048 0.0643473
0.803586 0.236118 0.0645609
0.811185 0.234913 0.0648356
0.818051 0.234485 0.0650797
0.824308 0.23415 0.065156
0.830137 0.234394 0.0651255
0.835737 0.234546 0.0651255
0.841489 0.234943 0.0653239
0.847288 0.235386 0.0654612
0.852979 0.235843 0.0656138
0.858717 0.236622 0.0658579
0.864271 0.236957 0.06598
0.869718 0.237446 0.0658885
0.875044 0.238056 0.0658427
0.8804 0.238315 0.0657511
0.885664 0.238865 0.0657206
0.888899 0.239185 0.0656138
0.892134 0.239704 0.065507
0.895232 0.24004 0.0654154
0.898268 0.240192 0.065156
0.0293736 0.218555 0.0211032
0.0282444 0.211276 0.0197604
0.0459449 0.207477 0.0191196
0.0700847 0.208347 0.0183108
0.100313 0.209873 0.0173037
0.138064 0.208408 0.0237736
0.174853 0.204654 0.0290837
0.202976 0.200381 0.0328679
0.229221 0.198413 0.0354009
