_SYSTEM/luts/D-CINELIKE -0_3 V2.cube
TITLE "Generated by Resolve"
LUT_3D_SIZE 5
0.00384527 0.00105287 0.00166323
0.404623 0.0403601 0.0101778
0.701808 0.0771649 0.0276493
0.81883 0.108385 0.0436408
0.872831 0.103166 0.0383612
0.0368963 0.25919 0.0289158
0.411139 0.233112 0.0466468
0.66717 0.283742 0.0611734
0.820005 0.294652 0.0668345
0.902861 0.291188 0.0658579
0.132555 0.429755 0.129717
0.46595 0.45658 0.083711
0.711452 0.491524 0.0892348
0.85658 0.50898 0.0910658
0.934524 0.512444 0.0872663
0.184405 0.588342 0.175586
0.516869 0.647272 0.119966
0.740047 0.67306 0.132876
0.875578 0.669734 0.0970321
0.94818 0.67042 0.0908827
0.196643 0.683467 0.181384
0.533578 0.740764 0.136873
0.756298 0.778485 0.145769
0.891051 0.780148 0.11014
0.958633 0.780285 0.102144
0.0310826 0.106416 0.367453
0.345006 0.0724346 0.228046
0.625544 0.130358 0.208957
0.769635 0.13817 0.215885
0.830274 0.140154 0.198428
0.0751049 0.307012 0.299351
0.246952 0.262776 0.235721
0.62739 0.279088 0.182635
0.816983 0.281544 0.182284
0.912596 0.280644 0.172457
0.149142 0.481239 0.345922
0.333761 0.502754 0.261097
0.645426 0.505531 0.195895
0.835233 0.513283 0.194766
0.945129 0.507439 0.18024
0.193408 0.644541 0.375753
0.396033 0.677485 0.293919
0.681468 0.70277 0.241611
0.858274 0.699458 0.214435
0.959121 0.697948 0.205295
0.207767 0.748226 0.374533
0.444511 0.813764 0.303853
0.705211 0.839887 0.271366
0.878157 0.834501 0.245274
0.969924 0.831052 0.226413
0.0480201 0.142702 0.581811
0.286061 0.152071 0.53753
0.56141 0.170825 0.387961
0.713283 0.195758 0.396445
0.801709 0.199893 0.394369
0.0946365 0.35201 0.474998
0.231678 0.353033 0.477546
0.547539 0.289616 0.39646
0.757595 0.330938 0.370245
0.853361 0.333593 0.344533
0.155779 0.508278 0.496834
0.312428 0.54136 0.517601
0.592096 0.567269 0.518456
0.833494 0.536583 0.441398
0.956344 0.529442 0.417014
0.189014 0.669001 0.544427
0.380926 0.727779 0.545159
0.62211 0.746227 0.487068
0.844617 0.733516 0.445335
0.961654 0.72813 0.425269
0.206775 0.776455 0.559487
0.418479 0.860761 0.542184
0.649302 0.884947 0.489921
0.855879 0.868177 0.452033
0.96965 0.860365 0.436652
0.0562905 0.274022 0.762997
0.147311 0.170413 0.574075
0.504479 0.173556 0.561105
0.722713 0.216419 0.530816
0.808499 0.226429 0.526848
0.0879835 0.249317 0.578408
0.22388 0.362158 0.646815
0.498756 0.362341 0.607279
0.752911 0.356909 0.559869
0.863371 0.367773 0.535454
0.174105 0.536248 0.611673
0.33669 0.568765 0.6654
0.539666 0.589029 0.690394
0.8 0.55079 0.636484
0.946258 0.552056 0.613352
0.195071 0.680583 0.66804
0.379721 0.740581 0.723369
0.589364 0.767987 0.74432
0.859236 0.83032 0.802777
0.946578 0.75172 0.675456
0.203128 0.785718 0.69543
0.398413 0.872679 0.73695
0.604364 0.902281 0.731624
0.827176 0.88954 0.685893
0.955749 0.88957 0.67422
0.0579843 0.310674 0.795636
0.297612 0.277195 0.731563
0.332753 0.165637 0.543023
0.581704 0.175616 0.57734
0.782193 0.210529 0.602625
0.101259 0.266667 0.557733
0.170764 0.271214 0.613474
0.360601 0.284596 0.698772
0.692775 0.333959 0.723781
0.856809 0.381613 0.672648
0.170306 0.533486 0.715434
0.331518 0.582788 0.782101
0.563485 0.617761 0.853391
0.77821 0.584863 0.850813
0.932952 0.568627 0.798215
0.21767 0.684443 0.745922
0.414008 0.740093 0.827543
0.614298 0.773831 0.877684
0.784054 0.779431 0.87895
0.936736 0.767315 0.867521
0.225193 0.784039 0.775448
0.417105 0.868223 0.858015
0.60943 0.898787 0.90074
0.809384 0.902983 0.887495
0.987396 0.975296 0.969162
