_SYSTEM/luts/D-CINELIKE -0_3 V2 SCENE.cube
TITLE "Generated by Resolve"
LUT_3D_SIZE 65
0.00384527 0.00105287 0.00166323
0.0514687 0.00569161 0.00117494
0.096788 0.0132601 0.00332647
0.120073 0.0210117 0.00895705
0.139422 0.0265507 0.0125734
0.157412 0.0294347 0.0144503
0.175692 0.0303349 0.0153048
0.195056 0.031342 0.0159609
0.214908 0.0321355 0.0156863
0.235782 0.0324712 0.014786
0.258732 0.0345617 0.0143587
0.280461 0.0357519 0.0136568
0.301534 0.0375067 0.0137942
0.322698 0.0387121 0.0144961
0.344335 0.0401465 0.0149233
0.366384 0.0415961 0.0150454
0.387564 0.0423285 0.0150607
0.408591 0.043122 0.0150607
0.429969 0.0443732 0.0149844
0.450431 0.0465858 0.0151064
0.469978 0.0498054 0.0160983
0.488762 0.0532845 0.0178531
0.507485 0.0568704 0.0194705
0.525307 0.0587778 0.0206912
0.542535 0.059678 0.0219272
0.559457 0.0594949 0.02327
0.575204 0.0606241 0.024918
0.590265 0.0640116 0.0268101
0.605646 0.0691386 0.0283207
0.621042 0.0745403 0.0295872
0.635859 0.0789807 0.0303502
0.651484 0.0806439 0.0307164
0.667079 0.0819104 0.0307317
0.682246 0.0834058 0.0307469
0.696391 0.0847639 0.0308385
0.710201 0.0859693 0.0312352
0.723949 0.0869459 0.0313878
0.737255 0.0870069 0.0310979
0.750134 0.086305 0.0306554
0.763165 0.0854963 0.0301366
0.775723 0.0857557 0.0298009
0.789425 0.0877241 0.0303349
0.803647 0.0902266 0.0311437
0.817533 0.0920729 0.031632
0.829801 0.0945144 0.0325322
0.84303 0.0965286 0.0340276
0.860517 0.0997024 0.0359197
0.877256 0.101778 0.0364538
0.877867 0.101808 0.0364843
0.877729 0.101854 0.0365454
0.877577 0.101884 0.0366064
0.87744 0.10193 0.0366522
0.877287 0.101961 0.0367132
0.87715 0.102007 0.036759
0.876997 0.102052 0.03682
0.87686 0.102083 0.0368658
0.876707 0.102129 0.0369268
0.87657 0.102159 0.0369726
0.876432 0.102205 0.0370336
0.876295 0.102235 0.0370794
0.876158 0.102266 0.0371252
0.876036 0.102312 0.037171
0.875898 0.102342 0.0372168
0.875776 0.102373 0.0372625
0.875654 0.102403 0.0373083
0.00204471 0.0128786 0.00146487
0.0204776 0.00808728 0.00149538
0.0663615 0.0105592 0.00149538
0.0961929 0.0180667 0.00437934
0.120348 0.0260929 0.010132
0.144183 0.0303655 0.0133364
0.166354 0.0320134 0.0145724
0.187152 0.0328679 0.0154879
0.208789 0.0338445 0.0155642
0.230549 0.0335241 0.0148775
0.254215 0.03505 0.0144503
0.276646 0.035935 0.0138247
0.298177 0.0371405 0.0135805
0.319463 0.0386053 0.0142977
0.341176 0.039826 0.0148013
0.363638 0.0414893 0.0149996
0.385122 0.0422675 0.0150301
0.406363 0.0430304 0.0150301
0.427848 0.0441901 0.0149844
0.448997 0.046128 0.0150301
0.468925 0.0492409 0.0157626
0.487999 0.0527962 0.0175021
0.506828 0.0563668 0.0191958
0.525093 0.0589303 0.0204929
0.54258 0.0599374 0.0218204
0.559655 0.0600443 0.0231174
0.575891 0.0603494 0.0246586
0.590967 0.0636301 0.0266575
0.606287 0.0684062 0.0282902
0.621759 0.0740673 0.0297093
0.636744 0.0788128 0.0306096
0.652003 0.0811933 0.0310979
0.667567 0.0823682 0.0311284
0.68278 0.0838941 0.0312047
0.697063 0.0852674 0.03122
0.71075 0.0865187 0.0316167
0.72433 0.08748 0.0317998
0.737652 0.0878309 0.0315709
0.750317 0.0871901 0.0311284
0.763088 0.086305 0.0305943
0.775326 0.0861219 0.0300908
0.788556 0.0875868 0.0303502
0.802518 0.0901656 0.0312352
0.816449 0.0919661 0.0317693
0.828611 0.0942397 0.0324865
0.840909 0.0965286 0.0338293
0.856107 0.0983291 0.0355688
0.873762 0.101839 0.0365606
0.877638 0.101869 0.0365759
0.877501 0.101915 0.0366369
0.877348 0.101946 0.0366827
0.877211 0.101991 0.0367437
0.877058 0.102037 0.0367895
0.876921 0.102068 0.0368505
0.876768 0.102113 0.0368963
0.876631 0.102144 0.0369573
0.876493 0.10219 0.0370031
0.876356 0.10222 0.0370489
0.876219 0.102251 0.0371099
0.876081 0.102296 0.0371557
0.875959 0.102327 0.0372015
0.875822 0.102358 0.0372473
0.8757 0.102388 0.0372931
0.875578 0.102434 0.0373388
0.875456 0.102464 0.0373846
0.00132753 0.0288396 0.00173953
0.00483711 0.0247654 0.00173953
0.0381476 0.0171969 0.00173953
0.0744945 0.0188296 0.00178531
0.099382 0.0247807 0.00582895
0.124147 0.0323491 0.0107729
0.149737 0.0360113 0.0125124
0.172778 0.0373846 0.0133364
0.196124 0.0386816 0.0141299
0.221408 0.039292 0.0143893
0.246113 0.0401465 0.0141146
0.270359 0.041413 0.0141146
0.293736 0.0428321 0.0138857
0.316335 0.0443427 0.0138247
0.338537 0.0451667 0.014374
0.36112 0.0461891 0.0146639
0.383215 0.0465095 0.0147707
0.405081 0.0467079 0.0148165
0.426886 0.0473335 0.014847
0.448508 0.0485847 0.015198
0.468437 0.0509194 0.0161898
0.487556 0.0538033 0.0176394
0.506386 0.0568246 0.0192416
0.524956 0.0592813 0.0204929
0.542779 0.0601968 0.0216983
0.559945 0.0606088 0.0229648
0.576501 0.0605936 0.0244907
0.591806 0.0632334 0.0264897
0.607111 0.0676738 0.0282597
0.622553 0.0734417 0.0297704
0.63772 0.0786297 0.0308537
0.652628 0.0817273 0.0314336
0.668238 0.082887 0.0315557
0.683421 0.0843977 0.0316625
0.697795 0.0858015 0.0316777
0.711437 0.0870985 0.0319982
0.724849 0.0880446 0.0322271
0.738109 0.0885328 0.0320592
0.750607 0.0881056 0.0316167
0.763149 0.0871748 0.0310521
0.77525 0.0866865 0.0304723
0.787869 0.08748 0.0303655
0.801541 0.0900435 0.0312963
0.815335 0.0919356 0.0319066
0.827588 0.0940108 0.0324559
0.839292 0.0963149 0.0336919
0.852445 0.0973678 0.0352789
0.870466 0.1019 0.0366674
0.877409 0.10193 0.0366674
0.877272 0.101976 0.0367132
0.877119 0.102007 0.0367742
0.876982 0.102052 0.03682
0.876829 0.102098 0.0368811
0.876692 0.102129 0.0369268
0.876554 0.102174 0.0369879
0.876417 0.102205 0.0370336
0.87628 0.102235 0.0370794
0.876143 0.102281 0.0371405
0.876005 0.102312 0.0371862
0.875883 0.102342 0.037232
0.875761 0.102373 0.0372778
0.875639 0.102419 0.0373236
0.875517 0.102449 0.0373693
0.875395 0.10248 0.0374151
0.875273 0.10251 0.0374609
0.00169375 0.0453956 0.00221256
0.0033875 0.0426032 0.00216678
0.0162203 0.0353857 0.00227359
0.0560616 0.0297093 0.00205997
0.0873884 0.032166 0.00344854
0.11342 0.0380865 0.00888075
0.139422 0.0417487 0.0120394
0.162661 0.0435645 0.0119631
0.185275 0.04477 0.0125734
0.2112 0.0453498 0.0132296
0.236805 0.0464637 0.0136416
0.260822 0.0479286 0.0138857
0.284749 0.0495766 0.0138094
0.308232 0.0518502 0.0137331
0.330785 0.0539101 0.0139467
0.35404 0.0549325 0.0142519
0.3785 0.0552834 0.014786
0.402762 0.0551766 0.0153811
0.42591 0.0554513 0.0160372
0.447272 0.0565042 0.0167239
0.467857 0.0585641 0.0181277
0.487205 0.0608988 0.0196231
0.50605 0.0637064 0.0213016
0.524697 0.0664683 0.022797
0.542977 0.0675059 0.024094
0.560479 0.0677501 0.0252689
0.577157 0.0673381 0.0265049
0.59263 0.068986 0.0281987
0.607889 0.0725719 0.0298924
0.623377 0.0778973 0.031281
0.63859 0.0825971 0.0322881
0.653544 0.0859083 0.0328527
0.669276 0.0864424 0.0328832
0.68455 0.0872053 0.0328527
0.69894 0.0878157 0.0327001
0.712413 0.0882124 0.0326085
0.725567 0.0886549 0.0326696
0.738674 0.08925 0.0325628
0.75111 0.0889601 0.032105
0.763348 0.0880598 0.0315404
0.775418 0.0873732 0.0309148
0.787442 0.0876783 0.0305486
0.800702 0.0899519 0.0313573
0.814191 0.0919966 0.0320287
0.826688 0.093843 0.0325017
0.837812 0.0961166 0.0335851
0.850233 0.0974899 0.03505
0.867292 0.101823 0.0367285
0.87718 0.101991 0.0367437
0.877043 0.102037 0.0368048
0.87689 0.102068 0.0368505
0.876753 0.102113 0.0369116
0.876616 0.102144 0.0369573
0.876463 0.10219 0.0370184
0.876326 0.10222 0.0370642
0.876204 0.102266 0.0371099
0.876066 0.102296 0.0371557
0.875929 0.102327 0.0372168
0.875807 0.102373 0.0372625
0.875685 0.102403 0.0373083
0.875563 0.102434 0.0373541
0.875441 0.102464 0.0373999
0.875319 0.102495 0.0374304
0.875212 0.102525 0.0374762
0.875105 0.102556 0.0375219
0.00259403 0.0621653 0.00352483
0.00283818 0.0605936 0.00326543
0.0111391 0.0548714 0.00251774
0.040528 0.0488289 0.00260929
0.0788739 0.0455787 0.00291447
0.108095 0.0484169 0.00822461
0.134905 0.0519875 0.0127565
0.157519 0.0536812 0.0133669
0.17998 0.0545052 0.0128176
0.205203 0.054551 0.0135042
0.231083 0.0553292 0.0140841
0.255528 0.0570535 0.0146029
0.279606 0.0582589 0.0145724
0.303227 0.0606699 0.0148165
0.325567 0.0633402 0.0153811
0.348302 0.0647288 0.0160067
0.372976 0.0655222 0.0167391
0.399069 0.0657054 0.0177615
0.423163 0.0655833 0.0187533
0.444587 0.066453 0.0197299
0.46537 0.0682536 0.0208133
0.484962 0.0703746 0.0219883
0.503487 0.0727398 0.0234989
0.522347 0.0758068 0.0251926
0.540917 0.0770275 0.0266117
0.559091 0.0773785 0.027863
0.576288 0.0769513 0.0290532
0.592111 0.0780957 0.0304875
0.607416 0.0814984 0.032166
0.623133 0.0870222 0.0337224
0.638834 0.0921035 0.0349584
0.654368 0.0961929 0.0357977
0.670558 0.0971542 0.0361334
0.686351 0.0984054 0.0365606
0.70135 0.0995956 0.0371252
0.715328 0.100237 0.0375067
0.728725 0.100526 0.037583
0.741909 0.10045 0.0372778
0.754086 0.0992905 0.036408
0.766003 0.0974136 0.0353704
0.777798 0.0957046 0.0343175
0.789014 0.0945449 0.0332036
0.800732 0.0942855 0.032517
0.813596 0.0953231 0.0328069
0.826139 0.0963302 0.0331579
0.836912 0.0978103 0.0338903
0.848432 0.0987411 0.0350805
0.863447 0.101015 0.0365148
0.876951 0.102052 0.0368353
0.876814 0.102098 0.0368811
0.876661 0.102129 0.0369421
0.876524 0.102174 0.0369879
0.876387 0.102205 0.0370489
0.876249 0.102251 0.0370947
0.876127 0.102281 0.0371405
0.87599 0.102312 0.0371862
0.875868 0.102358 0.037232
0.875731 0.102388 0.0372778
0.875608 0.102419 0.0373236
0.875486 0.102449 0.0373693
0.87538 0.10248 0.0374151
0.875257 0.10251 0.0374609
0.875151 0.102541 0.0375067
0.875044 0.102571 0.0375372
0.874922 0.102602 0.037583
0.00483711 0.0779889 0.00790417
0.00460822 0.0767987 0.00743114
0.0118868 0.0723278 0.00437934
0.0349889 0.0675517 0.00289921
0.073106 0.0632486 0.00390631
0.105119 0.0604868 0.00900282
0.132235 0.061738 0.0135653
0.154849 0.063798 0.0154726
0.176593 0.0648814 0.0147555
0.201938 0.0653086 0.0150301
0.228168 0.0659495 0.0160678
0.25333 0.0688029 0.0168917
0.278248 0.0707408 0.0171206
0.300526 0.0724956 0.0172122
0.323552 0.0746014 0.017792
0.347219 0.0762798 0.0187076
0.371801 0.077409 0.0198215
0.397101 0.0781415 0.0209659
0.420539 0.0782177 0.0223087
0.444236 0.0785382 0.0234989
0.465644 0.0796674 0.0247349
0.485191 0.0814221 0.0258946
0.502541 0.0838178 0.027039
0.520272 0.0863203 0.028275
0.538308 0.0879072 0.0295415
0.555978 0.0878157 0.0305028
0.573007 0.0871443 0.0314031
0.589059 0.0872053 0.0325322
0.604181 0.0902419 0.0339818
0.620157 0.0954452 0.0354467
0.636667 0.101167 0.0369421
0.653361 0.105638 0.0380255
0.670085 0.107744 0.0388037
0.686168 0.109407 0.0395819
0.701167 0.111254 0.0408179
0.715572 0.112917 0.0418708
0.729412 0.114244 0.0426337
0.743114 0.115068 0.0428626
0.756436 0.114824 0.042649
0.769085 0.113298 0.0418708
0.781033 0.111269 0.0406348
0.792309 0.10959 0.0392157
0.803418 0.10808 0.0375525
0.814542 0.106767 0.0361028
0.826581 0.106584 0.0356603
0.837476 0.107805 0.0363012
0.848173 0.108751 0.037232
0.861601 0.110185 0.038529
0.875807 0.111833 0.0386969
0.87805 0.11075 0.0383307
0.87776 0.109941 0.0382544
0.877485 0.109163 0.0381781
0.877195 0.108354 0.0380865
0.876921 0.10753 0.0380102
0.876661 0.106752 0.0379187
0.876387 0.105943 0.0378424
0.876127 0.105165 0.0377508
0.875868 0.104356 0.0376593
0.875608 0.103578 0.037583
0.875349 0.10277 0.0374914
0.875196 0.102525 0.0374914
0.87509 0.102556 0.0375219
0.874968 0.102586 0.0375677
0.874876 0.102617 0.0375982
0.874769 0.102647 0.037644
0.00891127 0.0923934 0.0130465
0.00856031 0.0913863 0.0126955
0.0135958 0.087953 0.00927749
0.0321813 0.0831769 0.00366217
0.066743 0.0803235 0.0049897
0.103548 0.0751507 0.0104067
0.131701 0.0729229 0.0146792
0.156085 0.0740063 0.0175479
0.177142 0.0749828 0.0175937
0.198566 0.074876 0.0163882
0.224994 0.0763714 0.0179141
0.250965 0.0797894 0.0190585
0.275975 0.0824292 0.0196384
0.299092 0.0843214 0.0202029
0.322835 0.0862593 0.0210117
0.347799 0.0883192 0.0221103
0.372625 0.0897383 0.0233921
0.39826 0.0905928 0.0248417
0.421271 0.0914321 0.0262608
0.443168 0.0918441 0.0275578
0.465171 0.0925154 0.0289464
0.486015 0.0937209 0.0303197
0.504646 0.0955978 0.0315404
0.522194 0.0972152 0.0327611
0.539422 0.0985275 0.0339666
0.556817 0.0993057 0.0348516
0.573953 0.0997177 0.0355535
0.590799 0.0993668 0.0359503
0.606485 0.0997482 0.0367285
0.622324 0.102586 0.0377966
0.638224 0.107393 0.0389258
0.6542 0.112566 0.0402075
0.669993 0.11632 0.0412146
0.685756 0.118822 0.0420691
0.700313 0.121004 0.0433661
0.714443 0.123186 0.0447395
0.728267 0.125338 0.0460212
0.742138 0.127382 0.0471351
0.755825 0.128496 0.0476081
0.768902 0.128618 0.0473945
0.781384 0.127657 0.0465858
0.793622 0.126223 0.0455177
0.805447 0.124605 0.0439307
0.816556 0.122759 0.0421912
0.827253 0.120714 0.0405585
0.837491 0.120256 0.0402228
0.847944 0.121126 0.0411383
0.859556 0.12192 0.0422522
0.875227 0.12459 0.0425727
0.880583 0.123308 0.0420539
0.880095 0.122332 0.0417182
0.879683 0.121309 0.0414282
0.879301 0.120211 0.0411688
0.878935 0.119173 0.0409094
0.878569 0.118105 0.04065
0.878218 0.117037 0.0403906
0.877882 0.116014 0.0401465
0.877531 0.114977 0.0398871
0.877211 0.11397 0.0396429
0.87689 0.112947 0.0393988
0.87657 0.111955 0.0391546
0.87628 0.110994 0.0389563
0.876036 0.110216 0.0388647
0.875792 0.109392 0.0387579
0.875563 0.108614 0.0386664
0.0102541 0.105516 0.0155184
0.0102541 0.104662 0.0154421
0.0130922 0.102495 0.0134127
0.0280003 0.0977646 0.00648508
0.0603799 0.0962692 0.0049897
0.100374 0.0913252 0.0109865
0.132311 0.0863203 0.0163729
0.156939 0.0850233 0.0192416
0.178363 0.0854047 0.0198672
0.196872 0.0856184 0.018555
0.221546 0.0875105 0.0197452
0.247562 0.090074 0.0209049
0.271794 0.0921187 0.0214847
0.296208 0.0943313 0.0223392
0.321721 0.096849 0.0236515
0.347005 0.0992447 0.0251011
0.372534 0.101991 0.0266575
0.398733 0.103548 0.0286412
0.422522 0.104814 0.0304417
0.443412 0.106096 0.0317082
0.463523 0.107164 0.0330816
0.485649 0.10808 0.0345464
0.505302 0.109316 0.0357977
0.523537 0.110063 0.0370336
0.54078 0.110399 0.0380255
0.558114 0.110842 0.0390173
0.575463 0.112016 0.039826
0.59295 0.112718 0.0402075
0.609445 0.112291 0.0404822
0.625925 0.11249 0.0408942
0.642344 0.114626 0.0415656
0.658061 0.117968 0.0425116
0.673106 0.121935 0.0437476
0.688197 0.125338 0.0449226
0.702724 0.128176 0.0461738
0.716716 0.130541 0.0475471
0.730251 0.132937 0.0487831
0.743893 0.135607 0.0501411
0.757763 0.138064 0.0513466
0.771389 0.140185 0.0522621
0.784772 0.140948 0.0523079
0.797635 0.140658 0.0518502
0.810376 0.139651 0.0509194
0.821973 0.137896 0.0495918
0.832746 0.135958 0.0482338
0.8421 0.133776 0.0466773
0.850584 0.132662 0.0460975
0.861295 0.132906 0.0466926
0.876631 0.135683 0.0473335
0.88484 0.134035 0.0467384
0.884016 0.133165 0.0463111
0.883207 0.132342 0.0458991
0.88246 0.131456 0.0454719
0.881987 0.130526 0.0451362
0.881514 0.129549 0.0447852
0.881071 0.128618 0.0444495
0.880613 0.127642 0.0440986
0.880156 0.12668 0.0437476
0.879728 0.12575 0.0434119
0.879286 0.124788 0.043061
0.878874 0.123857 0.0427253
0.878462 0.122881 0.0423896
0.878065 0.121965 0.0420539
0.877729 0.120943 0.0417792
0.877424 0.119951 0.0415351
0.0102541 0.117708 0.0157321
0.010071 0.116976 0.0158083
0.0112459 0.115816 0.0153658
0.0244297 0.111131 0.00994888
0.0523079 0.109331 0.00639353
0.0948501 0.106355 0.0114748
0.131548 0.10103 0.0175021
0.15819 0.0978714 0.0213474
0.180163 0.0969406 0.0223239
0.198428 0.0971084 0.0215763
0.219593 0.0982681 0.021622
0.244724 0.100465 0.0229801
0.269383 0.102647 0.0237278
0.293889 0.104616 0.0244297
0.319524 0.107103 0.0257267
0.344121 0.109743 0.0272526
0.370153 0.113069 0.0289921
0.396414 0.115633 0.0311131
0.421408 0.117296 0.0332799
0.443458 0.119219 0.0349279
0.462638 0.121218 0.0363012
0.484215 0.123003 0.0379187
0.504479 0.1243 0.0393683
0.522637 0.124651 0.0401617
0.54049 0.124743 0.0410925
0.557763 0.124178 0.0420691
0.574472 0.124437 0.0429847
0.591699 0.125734 0.0437324
0.60885 0.126604 0.0441901
0.626337 0.126833 0.044419
0.644236 0.126055 0.0446021
0.66125 0.126009 0.0450141
0.676814 0.127733 0.046067
0.691585 0.131624 0.047425
0.706127 0.135058 0.0487373
0.720439 0.137362 0.0500191
0.734173 0.139498 0.0513008
0.747662 0.141756 0.052491
0.761654 0.144472 0.0537575
0.775418 0.147051 0.0547799
0.789181 0.149325 0.0556039
0.802777 0.150851 0.0561227
0.815808 0.151049 0.0558633
0.828107 0.150164 0.0553597
0.83917 0.148409 0.0545968
0.849378 0.146426 0.0536355
0.857313 0.144076 0.0524453
0.866178 0.142092 0.051667
0.879515 0.143435 0.0519722
0.890944 0.142626 0.0516213
0.890394 0.142077 0.0513313
0.889876 0.141558 0.0510414
0.889326 0.141009 0.0507362
0.888792 0.140475 0.0504463
0.888045 0.139681 0.0500343
0.887266 0.138857 0.0496223
0.886458 0.138003 0.0491798
0.885695 0.137179 0.0487678
0.884886 0.136309 0.0483253
0.884092 0.135424 0.0478828
0.883314 0.134585 0.0474556
0.882521 0.133715 0.0469978
0.881743 0.13286 0.0465705
0.880949 0.131975 0.0461128
0.880323 0.13109 0.045716
0.013077 0.130495 0.0157321
0.0129091 0.129686 0.0158236
0.0127718 0.128939 0.0158999
0.0202487 0.124605 0.0120851
0.0442359 0.121462 0.00885023
0.0838026 0.120333 0.0108949
0.126497 0.115709 0.0176089
0.157336 0.111788 0.0225986
0.180453 0.109911 0.0246586
0.199435 0.109071 0.0239872
0.219333 0.109575 0.0235142
0.242557 0.110964 0.0244755
0.268147 0.113436 0.0256657
0.2934 0.116014 0.0264897
0.317525 0.118181 0.0276036
0.341451 0.120699 0.0288396
0.366842 0.123888 0.0306859
0.39321 0.12723 0.0328832
0.418616 0.129976 0.03505
0.44155 0.132326 0.0368048
0.462119 0.134554 0.038529
0.482017 0.136828 0.0399786
0.501396 0.139437 0.0411383
0.520088 0.140719 0.0421454
0.538918 0.140719 0.0431373
0.55729 0.139513 0.0440375
0.574395 0.138933 0.0449683
0.591394 0.139254 0.0459297
0.608423 0.140307 0.0468452
0.625681 0.141497 0.0474403
0.64332 0.141802 0.0477913
0.660746 0.141604 0.0479896
0.67744 0.140993 0.0485237
0.693065 0.141695 0.0493782
0.707988 0.143862 0.0505074
0.722377 0.145968 0.0517128
0.736095 0.147951 0.0529488
0.74931 0.149676 0.0539864
0.762631 0.151583 0.0549477
0.775982 0.153704 0.0559243
0.789334 0.155596 0.0567636
0.802792 0.157412 0.0576028
0.816129 0.158862 0.0583963
0.828992 0.159152 0.0588083
0.841001 0.158099 0.0586709
0.85214 0.156298 0.0581216
0.861341 0.153994 0.0572976
0.869795 0.151629 0.0565499
0.880476 0.149798 0.0556039
0.892653 0.148959 0.0551003
0.894057 0.148241 0.0548562
0.893675 0.147799 0.0546883
0.893278 0.147341 0.0545205
0.892897 0.146899 0.0543526
0.8925 0.146441 0.0541695
0.892073 0.145968 0.0539559
0.891554 0.145418 0.0536507
0.891051 0.144884 0.0533455
0.890532 0.144335 0.0530404
0.890013 0.143771 0.0527199
0.889509 0.143236 0.0524147
0.888991 0.142672 0.0520943
0.888487 0.142123 0.0517739
0.887968 0.141558 0.0514382
0.887465 0.141009 0.0511177
0.0157931 0.144869 0.0158389
0.0156405 0.144091 0.0158389
0.0154879 0.143343 0.0158541
0.017792 0.139544 0.0133822
0.0381628 0.135485 0.0104524
0.0711376 0.134356 0.0102541
0.113802 0.131518 0.0158846
0.15053 0.127062 0.0218662
0.176883 0.124697 0.0252537
0.198276 0.122683 0.0258946
0.220081 0.122087 0.0254673
0.242634 0.12314 0.0260471
0.268406 0.124987 0.0272526
0.293095 0.127581 0.0282902
0.317113 0.130419 0.0292821
0.340871 0.132738 0.030518
0.365133 0.135348 0.0321813
0.390265 0.138476 0.0343023
0.415381 0.142 0.0362707
0.438895 0.144518 0.0382086
0.460212 0.146792 0.0399786
0.480034 0.149035 0.0412146
0.499519 0.151873 0.042237
0.51838 0.154467 0.0433051
0.53724 0.15584 0.0443122
0.556497 0.155489 0.0453498
0.574441 0.154604 0.0461433
0.592035 0.154009 0.0470436
0.608896 0.154253 0.0480049
0.625559 0.155581 0.0489357
0.64239 0.156817 0.0496986
0.659785 0.158343 0.0503395
0.676951 0.157717 0.050782
0.693462 0.156771 0.0513161
0.708812 0.156466 0.0519265
0.723857 0.157443 0.0529335
0.737728 0.15935 0.0540017
0.750759 0.160601 0.0549783
0.763607 0.161761 0.0557259
0.776654 0.163119 0.0565805
0.789731 0.164584 0.0574044
0.802792 0.166125 0.0581216
0.815961 0.167605 0.0588846
0.828641 0.168902 0.0597543
0.840742 0.169955 0.0605631
0.852491 0.169589 0.0607767
0.863111 0.167666 0.0605325
0.871962 0.165164 0.0600595
0.881437 0.162371 0.059205
0.893507 0.159823 0.0582284
0.897032 0.157412 0.0575113
0.896635 0.156435 0.0573587
0.896208 0.155413 0.0572061
0.895811 0.154421 0.0570535
0.895384 0.153384 0.0568856
0.894987 0.152361 0.056733
0.894575 0.151308 0.0565652
0.894209 0.150835 0.0563821
0.893843 0.150362 0.056199
0.893477 0.14992 0.0560311
0.893111 0.149447 0.0558328
0.892744 0.148974 0.0556497
0.892393 0.148516 0.0554513
0.892027 0.148028 0.0552682
0.891691 0.14757 0.0550698
0.0185702 0.159594 0.0166629
0.0184482 0.158968 0.0166171
0.0183261 0.158312 0.0165713
0.0189517 0.155352 0.0153353
0.0341039 0.150317 0.01178
0.0642405 0.149508 0.0106661
0.101854 0.147951 0.0139925
0.139925 0.143923 0.0202029
0.16994 0.141039 0.0240787
0.195117 0.13846 0.0265049
0.220981 0.136233 0.0273594
0.244633 0.136217 0.027924
0.268009 0.136904 0.0287175
0.290898 0.138994 0.0299229
0.314061 0.14168 0.0309758
0.33817 0.144427 0.0320134
0.362081 0.147494 0.0336461
0.387121 0.150622 0.0355077
0.411734 0.153811 0.0373388
0.435798 0.156527 0.0390021
0.457984 0.158618 0.040528
0.47808 0.160769 0.0418708
0.497612 0.163531 0.0429236
0.516625 0.166522 0.0438544
0.5355 0.169635 0.0447852
0.555016 0.170687 0.0457618
0.573739 0.17052 0.04654
0.592157 0.16939 0.0474861
0.609445 0.169329 0.0484627
0.62594 0.169955 0.049424
0.642161 0.171054 0.0503548
0.658778 0.173037 0.0513619
0.675761 0.174655 0.0522164
0.692729 0.17438 0.0528115
0.708965 0.172747 0.0534524
0.724865 0.17145 0.0541543
0.739239 0.172442 0.0550851
0.752132 0.173281 0.0558022
0.764782 0.174182 0.0565499
0.77763 0.175204 0.0572976
0.790311 0.176333 0.0580606
0.803037 0.177615 0.058732
0.815839 0.17882 0.0593423
0.828351 0.180041 0.0601205
0.840299 0.181003 0.0609598
0.851789 0.182101 0.0617533
0.862913 0.183017 0.0624857
0.872328 0.18114 0.0622873
0.881773 0.178515 0.0619059
0.894041 0.176257 0.0615854
0.899931 0.17229 0.0605173
0.899596 0.171084 0.0603342
0.899245 0.169802 0.0601205
0.898894 0.168566 0.0599222
0.898543 0.167269 0.0597086
0.898207 0.166003 0.0595102
0.897856 0.16466 0.0592966
0.89752 0.163378 0.0590829
0.897154 0.162173 0.0588846
0.896757 0.161166 0.0587167
0.896361 0.160113 0.0585489
0.895979 0.159075 0.0583658
0.895582 0.158007 0.0581979
0.895186 0.156909 0.0580148
0.894804 0.155871 0.0578317
0.0205844 0.173037 0.0179294
0.0205844 0.172656 0.0178683
0.0205844 0.172259 0.0178073
0.0208133 0.170687 0.0172732
0.0312352 0.164965 0.013962
0.0592203 0.163836 0.0117342
0.0971237 0.163729 0.0135805
0.136416 0.160357 0.0193484
0.168017 0.155978 0.0236515
0.195026 0.15346 0.0265507
0.221637 0.151125 0.0285039
0.246128 0.149584 0.0295872
0.269123 0.149706 0.0303349
0.291142 0.150881 0.0313268
0.313024 0.153109 0.0324102
0.337057 0.155749 0.0336919
0.360571 0.159167 0.0352636
0.384573 0.16318 0.03682
0.408698 0.166018 0.0382239
0.432746 0.168688 0.0395972
0.455924 0.171252 0.0409857
0.476616 0.173144 0.042359
0.496208 0.175799 0.0435492
0.515373 0.178637 0.0444648
0.534829 0.182315 0.0452888
0.553597 0.185031 0.0459602
0.572274 0.186206 0.0466468
0.591272 0.185321 0.0476387
0.60914 0.184802 0.0486305
0.625986 0.184894 0.0495308
0.642252 0.185626 0.0504768
0.65832 0.186999 0.0515755
0.674571 0.189288 0.0526284
0.691371 0.191638 0.0534829
0.707881 0.191531 0.0543221
0.724315 0.18941 0.0551766
0.739574 0.188205 0.0560159
0.753323 0.187564 0.0566873
0.76582 0.187732 0.0573739
0.778408 0.188403 0.0579995
0.790845 0.189166 0.0586404
0.803128 0.190249 0.059266
0.815656 0.191272 0.0598611
0.827802 0.192493 0.0605936
0.839536 0.19324 0.061326
0.85069 0.193973 0.0619821
0.861631 0.194827 0.0626841
0.871382 0.195666 0.063386
0.880339 0.195621 0.0638437
0.892195 0.193942 0.063859
0.901167 0.189792 0.0630198
0.900999 0.188525 0.0629129
0.900816 0.187167 0.0628061
0.900649 0.185855 0.0626993
0.900481 0.184482 0.0625925
0.900328 0.183139 0.0624704
0.90016 0.18172 0.0623636
0.899992 0.180362 0.0622416
0.89984 0.178912 0.0621195
0.899672 0.177523 0.0619821
0.899336 0.176196 0.0617533
0.899016 0.174899 0.0615396
0.898695 0.173526 0.0613107
0.898375 0.172213 0.0610819
0.898039 0.17084 0.0608377
0.0221103 0.185489 0.0197604
0.0221256 0.185214 0.0196536
0.0221408 0.184909 0.0195315
0.0221561 0.184649 0.0194247
