_SYSTEM/luts/D-CINELIKE -0_3 V2 SCENE.cube
TITLE "Generated by Resolve"
LUT_3D_SIZE 5
0.00384527 0.00105287 0.00166323
0.387564 0.0423285 0.0150607
0.667079 0.0819104 0.0307317
0.877867 0.101808 0.0364843
0.875654 0.102403 0.0373083
0.0289769 0.222965 0.0295567
0.359518 0.20293 0.0398871
0.675807 0.245472 0.055024
0.87744 0.250736 0.0628977
0.898909 0.239109 0.0647898
0.119417 0.423774 0.118944
0.359609 0.442161 0.0823987
0.714244 0.494789 0.0886397
0.89427 0.506569 0.0896315
0.933043 0.48748 0.0838636
0.187701 0.628275 0.172915
0.354711 0.636835 0.1561
0.701396 0.702998 0.143801
0.888457 0.688212 0.0975509
0.948547 0.674449 0.0911421
0.196124 0.683742 0.180911
0.208042 0.6822 0.174746
0.649699 0.767819 0.143893
0.872343 0.781323 0.115755
0.958633 0.780285 0.102144
0.0318456 0.100664 0.349508
0.330663 0.0812543 0.22385
0.630564 0.120989 0.195911
0.820844 0.126909 0.202411
0.829252 0.135195 0.195483
0.0594034 0.261128 0.254261
0.209003 0.224094 0.198734
0.659861 0.238117 0.150011
0.878233 0.239429 0.145495
0.907088 0.224933 0.138033
0.133303 0.470451 0.27509
0.246723 0.479362 0.19263
0.664393 0.499855 0.131594
0.874907 0.49807 0.124422
0.928512 0.473671 0.111757
0.195071 0.6636 0.260792
0.260258 0.666316 0.210697
0.663874 0.708736 0.159945
0.879316 0.687755 0.10869
0.94818 0.670268 0.0955367
0.203906 0.696818 0.195468
0.20325 0.68687 0.183246
0.640925 0.766918 0.143267
0.867979 0.781659 0.117769
0.958633 0.780285 0.102144
0.0437476 0.149203 0.535485
0.226368 0.141085 0.504005
0.601083 0.169711 0.422675
0.817365 0.207279 0.445319
0.814755 0.213962 0.458228
0.0736095 0.307622 0.473381
0.18851 0.326589 0.486976
0.585504 0.268193 0.41474
0.813901 0.286183 0.375067
0.834119 0.272496 0.356405
0.144808 0.509422 0.495018
0.228122 0.531441 0.514763
0.58587 0.561669 0.513375
0.886198 0.506767 0.40235
0.951766 0.481025 0.368643
0.198856 0.706279 0.524697
0.240085 0.725124 0.511803
0.557168 0.759686 0.413809
0.859419 0.724834 0.339498
0.96054 0.703059 0.308522
0.207599 0.767102 0.482475
0.20795 0.764614 0.46389
0.525444 0.846311 0.374166
0.832639 0.847974 0.313893
0.971054 0.836713 0.262425
0.0573281 0.310597 0.796902
0.291371 0.276005 0.748959
0.394064 0.185122 0.60885
0.787823 0.204776 0.603754
0.795834 0.212634 0.590845
0.0888228 0.266911 0.585168
0.142336 0.247059 0.588006
0.455512 0.265446 0.676646
0.797833 0.32282 0.617212
0.827527 0.32018 0.586236
0.166979 0.54699 0.666712
0.253666 0.567758 0.697398
0.540063 0.594491 0.764599
0.848676 0.53196 0.683818
0.927214 0.509758 0.630137
0.208911 0.718212 0.704707
0.240421 0.734051 0.714107
0.518654 0.781476 0.763622
0.859236 0.83032 0.802777
0.949844 0.732036 0.648356
0.202777 0.78587 0.691676
0.201907 0.786496 0.680125
0.473472 0.883604 0.69633
0.773068 0.890257 0.614389
0.963104 0.877592 0.56759
0.0573739 0.310613 0.796826
0.290837 0.275822 0.747814
0.39411 0.181964 0.601404
0.764752 0.200809 0.611246
0.785519 0.209323 0.604532
0.0904707 0.305959 0.601297
0.149065 0.278553 0.604837
0.377096 0.242634 0.654124
0.765606 0.291798 0.658015
0.816251 0.298955 0.632212
0.166567 0.535622 0.708064
0.233555 0.550927 0.744778
0.539925 0.602274 0.846067
0.827192 0.542824 0.81062
0.917449 0.516442 0.758862
0.221851 0.715602 0.756146
0.254871 0.722805 0.777127
0.542367 0.770077 0.866621
0.77583 0.771939 0.877928
0.940002 0.737652 0.863249
0.225193 0.784039 0.775448
0.225193 0.784039 0.775448
0.474708 0.878981 0.872267
0.743618 0.90396 0.899168
0.987396 0.975296 0.969162
