_SYSTEM/luts/D-CINELIKE -0_3 BASE.cube
TITLE "Generated by Resolve"
LUT_3D_SIZE 5
0.005203 0.009293 0.016998
0.391455 0.057099 0.024064
0.535302 0.091600 0.036851
0.687434 0.127886 0.058885
0.765637 0.139361 0.061601
0.046921 0.257069 0.075120
0.381643 0.257313 0.076143
0.590265 0.292424 0.115358
0.721065 0.314794 0.119722
0.816312 0.330922 0.120119
0.152407 0.434516 0.172824
0.405112 0.474952 0.154818
0.653071 0.494972 0.165667
0.810590 0.516274 0.165438
0.908614 0.545800 0.170596
0.231846 0.578820 0.232441
0.489265 0.649744 0.232776
0.727092 0.686580 0.243946
0.878309 0.696895 0.228000
0.952010 0.718517 0.237980
0.327016 0.704402 0.278325
0.575860 0.776883 0.299062
0.783185 0.818509 0.316808
0.911147 0.820966 0.291920
0.964645 0.820340 0.266987
0.056748 0.193133 0.378698
0.281636 0.149172 0.245853
0.533562 0.152972 0.187976
0.626734 0.170382 0.189899
0.691966 0.189288 0.190433
0.078538 0.289906 0.297169
0.229609 0.288656 0.279230
0.584272 0.296377 0.224610
0.734612 0.325129 0.246126
0.841398 0.345892 0.255070
0.153124 0.480049 0.351293
0.320357 0.508865 0.295293
0.639952 0.525600 0.259662
0.818026 0.546467 0.282997
0.931151 0.574090 0.294041
0.243702 0.631556 0.388220
0.442601 0.688798 0.359938
0.711722 0.725431 0.340377
0.886249 0.735100 0.325017
0.963928 0.750774 0.321935
0.340139 0.759487 0.438651
0.543435 0.833646 0.427039
0.769039 0.862821 0.401129
0.915297 0.860227 0.370306
0.973342 0.858289 0.339284
0.058808 0.217609 0.534142
0.227497 0.240024 0.531212
0.502922 0.244480 0.422004
0.608637 0.230625 0.340703
0.681361 0.242298 0.327184
0.112688 0.344701 0.458854
0.222297 0.362170 0.493056
0.505260 0.324659 0.416690
0.705495 0.358022 0.380188
0.812436 0.394308 0.401892
0.168948 0.488960 0.483925
0.311767 0.540721 0.529392
0.589797 0.579125 0.545113
0.823833 0.572866 0.501459
0.943648 0.602213 0.521492
0.241947 0.661341 0.549935
0.414981 0.732982 0.585221
0.663328 0.759700 0.553968
0.873372 0.772161 0.536237
0.969253 0.787991 0.546319
0.327260 0.789364 0.606409
0.508843 0.864393 0.625269
0.720592 0.892668 0.590494
0.899702 0.896010 0.570413
0.979385 0.897444 0.568414
0.065446 0.260945 0.599817
0.165911 0.243946 0.551507
0.481346 0.269306 0.575891
0.642695 0.295735 0.509361
0.700816 0.289860 0.464927
0.120928 0.311376 0.541924
0.235269 0.383084 0.618428
0.474804 0.390839 0.609239
0.706173 0.398651 0.549554
0.818586 0.424918 0.541634
0.199130 0.507286 0.576120
0.357707 0.565269 0.651867
0.559746 0.604854 0.692784
0.800576 0.597308 0.687444
0.935012 0.624018 0.696178
0.283177 0.670069 0.662623
0.450454 0.734820 0.730095
0.656101 0.773648 0.767099
0.873872 0.841514 0.822753
0.972305 0.828061 0.787625
0.337514 0.792416 0.725643
0.517708 0.870359 0.779934
0.704692 0.910842 0.808103
0.897368 0.927275 0.789792
0.977035 0.936660 0.793011
0.069535 0.278157 0.614954
0.230991 0.290501 0.621668
0.390127 0.268116 0.567605
0.584237 0.286381 0.550988
0.701350 0.300481 0.537850
0.132586 0.326360 0.543038
0.223392 0.357031 0.621027
0.425483 0.378347 0.695811
0.687922 0.411872 0.681712
0.825010 0.457725 0.670909
0.213886 0.516167 0.646128
0.377096 0.586465 0.739910
0.581872 0.622629 0.804044
0.789425 0.622721 0.840681
0.930053 0.643336 0.839597
0.318471 0.675380 0.724865
0.493278 0.736477 0.803204
0.691356 0.788205 0.858015
0.842832 0.831159 0.907927
0.968826 0.843946 0.928359
0.391669 0.786557 0.783368
0.584329 0.865156 0.855283
0.733806 0.905928 0.911131
0.891844 0.935775 0.929290
0.994018 0.974289 0.966857
