_SYSTEM/luts/D-CINELIKE -0_3 BASE.cube
TITLE "Generated by Resolve"
LUT_3D_SIZE 65
0.005203 0.009293 0.016998
0.040452 0.016403 0.008560
0.070069 0.023392 0.007324
0.092790 0.031006 0.010407
0.115770 0.033722 0.015320
0.140154 0.032212 0.018601
0.160266 0.034150 0.019913
0.180346 0.037522 0.020432
0.202701 0.041337 0.021195
0.228870 0.045899 0.022476
0.257984 0.051621 0.023682
0.286671 0.049027 0.023926
0.314519 0.042313 0.023850
0.340520 0.041627 0.024674
0.361257 0.043778 0.024674
0.378347 0.048737 0.024277
0.391455 0.057099 0.024064
0.402625 0.065202 0.024079
0.413931 0.069413 0.024506
0.424811 0.072450 0.024689
0.435401 0.071015 0.024308
0.446708 0.067552 0.024628
0.456291 0.064958 0.024704
0.465248 0.064912 0.025025
0.474449 0.066545 0.025467
0.482582 0.068071 0.025574
0.490837 0.071366 0.026551
0.498726 0.074876 0.027802
0.505241 0.078004 0.029129
0.513313 0.082353 0.031449
0.521126 0.086656 0.033310
0.528237 0.089601 0.034913
0.535302 0.091600 0.036851
0.545083 0.093111 0.038163
0.557610 0.093812 0.039826
0.569299 0.095216 0.041672
0.580224 0.098024 0.043366
0.590936 0.101259 0.045365
0.601053 0.105501 0.046937
0.611612 0.110002 0.048218
0.621164 0.114183 0.049546
0.629923 0.117494 0.050294
0.639338 0.119280 0.050889
0.647852 0.120912 0.051789
0.656443 0.122728 0.052949
0.664897 0.124193 0.054139
0.672404 0.125658 0.055833
0.680323 0.127062 0.057679
0.687434 0.127886 0.058885
0.693797 0.128420 0.060410
0.700038 0.128511 0.061280
0.705791 0.128618 0.061891
0.711040 0.128649 0.062211
0.716121 0.128695 0.062486
0.721431 0.128817 0.062623
0.726070 0.128878 0.062013
0.731441 0.129900 0.062135
0.736934 0.131167 0.062455
0.741878 0.132296 0.062318
0.746303 0.133440 0.061997
0.750164 0.134447 0.061768
0.754726 0.135225 0.061601
0.757748 0.136934 0.061524
0.761486 0.138155 0.061509
0.765637 0.139361 0.061601
0.004852 0.016800 0.007614
0.021378 0.015930 0.009110
0.052293 0.022507 0.009766
0.074128 0.031022 0.010391
0.099123 0.037598 0.013718
0.128069 0.038285 0.018845
0.153903 0.038727 0.021729
0.178805 0.041077 0.022416
0.202441 0.044633 0.022812
0.228626 0.049561 0.023896
0.257404 0.055985 0.024750
0.286320 0.055055 0.025055
0.315358 0.049393 0.025376
0.339803 0.046738 0.025773
0.361807 0.047898 0.026307
0.379629 0.051881 0.026413
0.394018 0.057557 0.026123
0.406317 0.064912 0.026062
0.417868 0.071015 0.026612
0.428641 0.074891 0.026871
0.439734 0.077348 0.027466
0.450416 0.078263 0.028107
0.460761 0.076631 0.028473
0.471763 0.074876 0.029175
0.482109 0.074662 0.029603
0.490837 0.076097 0.030411
0.499474 0.079637 0.032578
0.506661 0.082994 0.034318
0.513268 0.086732 0.036271
0.520073 0.091249 0.038392
0.526238 0.095201 0.039963
0.533440 0.098741 0.042328
0.540063 0.101076 0.044053
0.551568 0.102846 0.045701
0.563516 0.103960 0.047456
0.575067 0.105608 0.048981
0.585626 0.108476 0.050858
0.595651 0.111894 0.052476
0.606149 0.116487 0.053636
0.615915 0.120653 0.054933
0.625025 0.124483 0.056077
0.634394 0.128267 0.056825
0.643336 0.129870 0.057832
0.652369 0.131807 0.059098
0.660929 0.133684 0.060334
0.668879 0.135409 0.062180
0.676402 0.136934 0.064286
0.683833 0.137896 0.065751
0.690852 0.138796 0.066865
0.697230 0.139300 0.067750
0.703258 0.139467 0.068208
0.709148 0.139895 0.068650
0.713985 0.139574 0.067826
0.719203 0.139635 0.067277
0.724163 0.139620 0.066804
0.728496 0.139330 0.065782
0.732891 0.139178 0.064561
0.738079 0.139879 0.064301
0.743252 0.140841 0.064164
0.747433 0.141680 0.063859
0.751507 0.142916 0.063752
0.755596 0.144167 0.063768
0.759411 0.145190 0.064149
0.762982 0.146487 0.064790
0.767163 0.147585 0.065095
0.007553 0.033768 0.011444
0.018128 0.032197 0.012467
0.042252 0.031632 0.013611
0.072526 0.032685 0.013199
0.096284 0.036103 0.014633
0.118151 0.041444 0.018982
0.145983 0.043916 0.022995
0.173342 0.046037 0.024796
0.200534 0.048631 0.024369
0.228717 0.051759 0.024201
0.258625 0.055757 0.025010
0.289967 0.059754 0.025712
0.319402 0.059007 0.026566
0.345693 0.056199 0.027161
0.369589 0.054566 0.028168
0.389227 0.055558 0.028931
0.405219 0.058686 0.029206
0.418326 0.062989 0.029541
0.429480 0.068345 0.030091
0.439429 0.074357 0.030808
0.449104 0.079576 0.031739
0.458976 0.082872 0.032883
0.468666 0.085039 0.034119
0.478813 0.086656 0.035569
0.487526 0.086839 0.036790
0.495766 0.087068 0.038193
0.504005 0.089219 0.039811
0.511162 0.092302 0.041581
0.517754 0.096025 0.043809
0.523919 0.100084 0.045731
0.530846 0.104677 0.048157
0.537514 0.108003 0.050233
0.544701 0.110613 0.052110
0.556832 0.112474 0.053834
0.568246 0.113741 0.055177
0.579324 0.115389 0.056413
0.589334 0.118212 0.058076
0.599283 0.121721 0.059434
0.609552 0.126345 0.060777
0.618692 0.130632 0.061845
0.628031 0.134752 0.062837
0.636713 0.138201 0.063722
0.645685 0.140124 0.064851
0.654536 0.142321 0.066209
0.662623 0.144228 0.068254
0.670253 0.146075 0.069902
0.677455 0.147524 0.071092
0.685145 0.148852 0.072572
0.691691 0.149722 0.073289
0.698299 0.150454 0.073487
0.704585 0.151003 0.073594
0.710414 0.151308 0.073350
0.715526 0.151400 0.072664
0.720638 0.151171 0.071672
0.725765 0.151141 0.070893
0.730343 0.150988 0.070069
0.734554 0.150530 0.068864
0.739025 0.150240 0.067720
0.743847 0.150317 0.066880
0.748104 0.151339 0.067323
0.751965 0.152331 0.067826
0.756069 0.153246 0.067964
0.760678 0.154513 0.068177
0.764324 0.155505 0.069032
0.768124 0.156954 0.070146
0.008881 0.049073 0.015656
0.017487 0.047562 0.016464
0.029923 0.048676 0.018372
0.060716 0.045533 0.016998
0.086686 0.046510 0.017136
0.111086 0.051911 0.021027
0.137011 0.055833 0.025421
0.167452 0.054276 0.027710
0.195209 0.054673 0.027848
0.221836 0.056809 0.025895
0.251347 0.059159 0.025696
0.282445 0.061494 0.025833
0.312291 0.064851 0.026627
0.338964 0.066514 0.028275
0.363058 0.065278 0.029419
0.385428 0.063844 0.030579
0.404822 0.065690 0.031952
0.420508 0.068666 0.033448
0.432044 0.072984 0.034638
0.442741 0.077073 0.035965
0.452750 0.082032 0.037491
0.463233 0.087465 0.039185
0.473350 0.091829 0.041123
0.482826 0.094789 0.042908
0.491432 0.097688 0.044877
0.499474 0.099382 0.046647
0.507774 0.101015 0.048310
0.515557 0.103227 0.050309
0.521782 0.106157 0.052232
0.528191 0.110201 0.054459
0.534737 0.114549 0.056703
0.541146 0.117922 0.058625
0.548836 0.120348 0.060502
0.559976 0.121782 0.061723
0.571099 0.122866 0.062684
0.581765 0.124407 0.063951
0.591455 0.127352 0.065293
0.601190 0.131029 0.066239
0.610468 0.135363 0.067247
0.619471 0.139727 0.068421
0.628367 0.143526 0.069230
0.637308 0.147066 0.070314
0.646006 0.148882 0.071351
0.654139 0.150851 0.072236
0.662242 0.152956 0.073594
0.669139 0.154788 0.074769
0.676631 0.156497 0.076020
0.683970 0.158129 0.076890
0.690730 0.159411 0.077668
0.697185 0.160662 0.077821
0.703334 0.161227 0.077348
0.709514 0.161715 0.077012
0.714916 0.162264 0.076844
0.720043 0.162554 0.076219
0.725536 0.162646 0.075425
0.730617 0.162524 0.074479
0.734981 0.162356 0.074144
0.739239 0.161929 0.073671
0.743709 0.161547 0.073030
0.748196 0.161135 0.072084
0.752071 0.161898 0.072541
0.756436 0.162982 0.073381
0.760708 0.163943 0.073960
0.765347 0.165118 0.074815
0.769848 0.166339 0.076066
0.010620 0.064881 0.019745
0.014816 0.063615 0.020584
0.030594 0.062989 0.021775
0.051194 0.064698 0.024155
0.079896 0.061921 0.021180
0.106020 0.063340 0.024369
0.132830 0.067658 0.028733
0.159899 0.069856 0.031052
0.188403 0.067658 0.031174
0.215976 0.066300 0.029526
0.243595 0.067674 0.028000
0.273411 0.068833 0.027619
0.303227 0.070665 0.028351
0.329915 0.074540 0.029740
0.355444 0.076783 0.031235
0.378820 0.077089 0.032960
0.398718 0.077027 0.034913
0.415763 0.078706 0.037049
0.430289 0.081605 0.039185
0.443153 0.084779 0.041367
0.454871 0.088655 0.043580
0.466392 0.093706 0.045838
0.476066 0.098726 0.048081
0.485237 0.103822 0.050568
0.495262 0.107820 0.052903
0.504341 0.110842 0.055070
0.512688 0.113939 0.057450
0.520195 0.115953 0.059480
0.526604 0.118608 0.061585
0.533074 0.121889 0.063752
0.539422 0.125505 0.065873
0.546120 0.128756 0.067979
0.553918 0.131044 0.069474
0.565545 0.132784 0.070527
0.576242 0.134096 0.071260
0.586954 0.135561 0.071870
0.596567 0.137469 0.072664
0.605570 0.139757 0.073213
0.614816 0.143771 0.074327
0.623163 0.147158 0.074907
0.631540 0.150851 0.075624
0.640070 0.154574 0.076677
0.647608 0.156741 0.077058
0.655665 0.159258 0.077867
0.662867 0.161471 0.078660
0.669871 0.163287 0.079667
0.676570 0.164843 0.080140
0.683497 0.166491 0.080446
0.690486 0.168048 0.080903
0.696712 0.169039 0.081453
0.703288 0.170489 0.081788
0.709789 0.171786 0.081956
0.716228 0.172793 0.081788
0.721767 0.173327 0.081880
0.726894 0.173556 0.081697
0.732692 0.173587 0.081453
0.737972 0.173083 0.080781
0.742824 0.173129 0.080720
0.747631 0.172915 0.080293
0.752071 0.172519 0.079667
0.755978 0.172213 0.079545
0.760006 0.172244 0.079728
0.764279 0.173251 0.080659
0.768948 0.174319 0.081331
0.773281 0.175265 0.081910
0.011383 0.079957 0.024826
0.013825 0.079164 0.024308
0.032670 0.078828 0.025544
0.049973 0.082750 0.029175
0.077241 0.080964 0.030182
0.104128 0.078279 0.031403
0.130510 0.078401 0.032853
0.156893 0.081300 0.034516
0.182010 0.082811 0.034470
0.208331 0.081727 0.032975
0.237751 0.079637 0.031342
0.267201 0.079332 0.031159
0.295521 0.080903 0.031418
0.323247 0.084291 0.032654
0.349142 0.087861 0.034150
0.373083 0.090303 0.036317
0.392462 0.091463 0.038727
0.411170 0.091844 0.041428
0.428733 0.093706 0.044465
0.443076 0.096315 0.047410
0.456580 0.099458 0.050187
0.469093 0.103166 0.052674
0.479820 0.107454 0.055421
0.489006 0.112993 0.058076
0.498192 0.117861 0.060716
0.507301 0.121965 0.063264
0.516136 0.125307 0.065705
0.524498 0.128481 0.068223
0.532082 0.131319 0.070558
0.539330 0.133669 0.072740
0.546319 0.136324 0.074983
0.552987 0.138888 0.076936
0.561791 0.142016 0.078416
0.572732 0.144396 0.079118
0.583062 0.145968 0.079393
0.593317 0.147723 0.079851
0.601694 0.148730 0.080324
0.610971 0.150271 0.080491
0.619760 0.152972 0.080980
0.628367 0.155535 0.081575
0.636561 0.158572 0.082017
0.644343 0.161364 0.082383
0.652277 0.163989 0.083177
0.659358 0.166339 0.083558
0.666545 0.168276 0.083818
0.673625 0.170138 0.084230
0.680156 0.171649 0.084810
0.687037 0.173159 0.085191
0.693553 0.174624 0.085450
0.700313 0.176455 0.085771
0.706920 0.178470 0.086564
0.712810 0.180102 0.086961
0.719280 0.181689 0.087388
0.725002 0.182742 0.087480
0.730663 0.183215 0.087648
0.735759 0.183566 0.087739
0.741039 0.183673 0.087495
0.746365 0.183459 0.087190
0.751278 0.182818 0.086656
0.756252 0.182666 0.086854
0.759854 0.182010 0.086503
0.763455 0.181491 0.086107
0.767208 0.181201 0.085985
0.771481 0.182025 0.086397
0.775891 0.183093 0.087190
0.015534 0.095567 0.032487
0.020539 0.093950 0.030945
0.034134 0.094484 0.029160
0.052583 0.098528 0.032487
0.076204 0.096452 0.037430
0.102449 0.095079 0.041077
0.129870 0.092943 0.040284
0.156435 0.093889 0.039475
0.181781 0.096025 0.038376
0.206867 0.096834 0.037003
0.232456 0.095506 0.034531
0.261128 0.094392 0.034119
0.290379 0.093736 0.034607
0.317052 0.095735 0.035325
0.343023 0.098360 0.036927
0.367025 0.101518 0.039475
0.387304 0.103914 0.042603
0.407034 0.105867 0.046220
0.425528 0.107301 0.049790
0.441978 0.109880 0.053330
0.457023 0.113100 0.056764
0.470985 0.116106 0.059846
0.482597 0.119966 0.062806
0.492226 0.124315 0.065354
0.501335 0.128908 0.068147
0.509712 0.133608 0.070802
0.519448 0.137942 0.073594
0.528374 0.141711 0.076249
0.535836 0.144778 0.078523
0.543389 0.147311 0.080796
0.550469 0.149233 0.082643
0.557519 0.151369 0.084352
0.566018 0.153750 0.085573
0.576150 0.155657 0.086335
0.586374 0.158053 0.086748
0.595956 0.160098 0.086992
0.605737 0.161471 0.087266
0.615290 0.162982 0.087388
0.624689 0.164141 0.087541
0.633921 0.164920 0.087739
0.641749 0.166934 0.087892
0.649683 0.168902 0.088197
0.656992 0.171603 0.088670
0.663996 0.174411 0.088960
0.670741 0.176349 0.089052
0.677516 0.177996 0.089387
0.684108 0.179644 0.089570
0.690455 0.181186 0.090059
0.696620 0.182925 0.090364
0.703258 0.184787 0.090852
0.709026 0.186358 0.091020
0.715038 0.187488 0.091401
0.720500 0.188602 0.091951
0.726192 0.189975 0.092485
0.731945 0.191318 0.093034
0.737484 0.192233 0.093263
0.743313 0.192416 0.093187
0.748363 0.192264 0.092821
0.753521 0.191959 0.092531
0.758358 0.191455 0.092180
0.762097 0.190875 0.091646
0.766339 0.190616 0.091463
0.769985 0.189883 0.091218
0.773632 0.189532 0.091035
0.777920 0.190295 0.091585
0.020966 0.113771 0.038743
0.025040 0.112261 0.036438
0.035264 0.112688 0.033112
0.054170 0.116182 0.034882
0.078599 0.115221 0.042145
0.102327 0.112352 0.047334
0.130709 0.111711 0.048997
0.157961 0.111101 0.046784
0.183017 0.111177 0.044144
0.207248 0.112123 0.041092
0.231083 0.112306 0.038773
0.258335 0.113008 0.038209
0.286152 0.113344 0.038224
0.313466 0.113451 0.038895
0.338140 0.112215 0.040162
0.360555 0.112459 0.042390
0.383658 0.115358 0.046128
0.403937 0.117891 0.050263
0.421729 0.120470 0.054398
0.439277 0.123445 0.058350
0.455283 0.126452 0.062013
0.470115 0.129778 0.065766
0.483040 0.132753 0.068925
0.494545 0.136858 0.071977
0.503624 0.141024 0.074754
0.511955 0.145861 0.077424
0.522179 0.150637 0.080263
0.531182 0.154681 0.082872
0.538918 0.158373 0.085161
0.546487 0.160739 0.086961
0.554269 0.163134 0.088914
0.561929 0.165072 0.090730
0.570504 0.166552 0.091783
0.580804 0.168185 0.092256
0.590509 0.170413 0.092668
0.600443 0.172549 0.093019
0.610468 0.174289 0.093400
0.619120 0.176257 0.093629
0.628809 0.177401 0.093538
0.637766 0.178241 0.093400
0.645899 0.179706 0.093538
0.653498 0.180423 0.093507
0.661265 0.182132 0.093706
0.668589 0.184192 0.093706
0.674998 0.185809 0.093873
0.681712 0.187655 0.094484
0.688029 0.189227 0.094820
0.694179 0.190661 0.094667
0.700221 0.191882 0.094713
0.705821 0.192966 0.095125
0.711666 0.194415 0.095476
0.717327 0.195666 0.095781
0.723079 0.197086 0.096254
0.728832 0.198398 0.096727
0.734371 0.199695 0.096956
0.739910 0.200855 0.097185
0.745052 0.201816 0.097322
0.750271 0.202731 0.097246
0.755627 0.202869 0.096788
0.760662 0.202564 0.096330
0.765057 0.202213 0.096269
0.769116 0.201968 0.096117
0.773205 0.201694 0.095689
0.777066 0.201053 0.095308
0.781064 0.200549 0.094957
0.023255 0.132738 0.042878
0.027039 0.131502 0.041398
0.035828 0.132006 0.037720
0.055146 0.135515 0.038087
0.080568 0.134752 0.044816
0.105394 0.131228 0.050828
0.130205 0.130159 0.054154
0.158267 0.130556 0.054200
0.185580 0.130419 0.051499
0.208820 0.129320 0.047303
0.232288 0.129442 0.043748
0.257679 0.129961 0.042405
0.284810 0.131243 0.042130
0.311681 0.132494 0.042695
0.336233 0.132662 0.044083
0.359731 0.131899 0.046433
0.381598 0.130449 0.049638
0.401312 0.131914 0.053819
0.418814 0.134386 0.058244
0.436240 0.137392 0.062440
0.452964 0.140642 0.066545
0.468421 0.143618 0.070222
0.482231 0.147402 0.073808
0.494270 0.151141 0.076921
0.504707 0.154650 0.079820
0.514458 0.158740 0.082673
0.523552 0.163149 0.085283
0.532326 0.167987 0.087800
0.540413 0.171817 0.089845
0.548882 0.175296 0.092042
0.557427 0.177768 0.093919
0.565377 0.179385 0.095537
0.575067 0.180804 0.096407
0.585061 0.181918 0.096742
0.594705 0.183764 0.097246
0.604974 0.185306 0.097536
0.614725 0.187015 0.097627
0.623224 0.189700 0.098146
0.631800 0.191089 0.098055
0.641367 0.192630 0.098009
0.649500 0.193698 0.098039
0.657725 0.194202 0.097841
0.665461 0.194934 0.097871
0.672480 0.195895 0.097978
0.679301 0.197269 0.098055
0.685771 0.198871 0.098207
0.692042 0.200137 0.098314
0.697993 0.201465 0.098482
0.703685 0.202518 0.098558
0.709819 0.203922 0.099077
0.715450 0.205005 0.099214
0.721035 0.206256 0.099351
0.726604 0.207263 0.099580
0.732052 0.208225 0.099947
0.737392 0.209659 0.100038
0.742596 0.210895 0.100145
0.747875 0.211810 0.100221
0.753079 0.212619 0.100435
0.758175 0.213916 0.100435
0.763363 0.214969 0.100435
0.767956 0.214725 0.100099
0.772274 0.214466 0.099809
0.776303 0.214008 0.099291
0.780545 0.213687 0.099016
0.784558 0.212863 0.098405
0.024460 0.150256 0.046235
0.028809 0.148806 0.045518
0.037812 0.149340 0.042710
0.054978 0.151736 0.043351
0.081651 0.152987 0.049027
0.108248 0.150225 0.054780
0.131991 0.148638 0.058228
0.157107 0.149660 0.059983
0.184588 0.150088 0.058656
0.209888 0.149157 0.054688
0.233097 0.147356 0.049470
0.257710 0.146334 0.046754
0.284215 0.146944 0.045899
0.310994 0.148547 0.046281
0.336797 0.150423 0.047654
0.360449 0.151858 0.050034
0.381598 0.152667 0.053559
0.400763 0.152422 0.057572
0.418021 0.152178 0.061768
0.435233 0.153506 0.066010
0.451377 0.155596 0.069947
0.466835 0.158251 0.073747
0.480903 0.161547 0.077363
0.493355 0.164935 0.080598
0.504936 0.168734 0.083970
0.515129 0.171954 0.086671
0.524880 0.176196 0.089189
0.534005 0.180560 0.091447
0.542870 0.184985 0.093706
0.551446 0.188876 0.095720
0.560128 0.191714 0.097642
0.568811 0.194125 0.099382
0.578210 0.195300 0.100191
0.589151 0.196139 0.100359
0.598947 0.197757 0.100587
0.608209 0.199176 0.100862
0.617350 0.201144 0.101167
0.625849 0.202853 0.101381
0.635111 0.204898 0.101472
0.643748 0.207218 0.101534
0.651942 0.208545 0.101579
0.660090 0.209003 0.101335
0.668330 0.209003 0.101030
0.675792 0.209384 0.101106
0.682658 0.209964 0.101137
0.689189 0.211063 0.101167
0.696086 0.212299 0.101366
0.701778 0.213397 0.101457
0.707683 0.214588 0.101564
0.713329 0.215427 0.101717
0.718959 0.216327 0.102068
0.724361 0.217777 0.102281
0.729625 0.218860 0.102342
0.735180 0.219867 0.102510
0.740353 0.220783 0.102663
0.745632 0.222309 0.102968
0.750835 0.223377 0.103334
0.755978 0.224277 0.103380
0.761181 0.225360 0.103395
0.766094 0.226291 0.103273
0.770916 0.227390 0.103273
0.774960 0.227939 0.103227
0.779324 0.227955 0.103029
0.783536 0.227787 0.102586
0.787717 0.227070 0.102098
0.027756 0.166262 0.049485
0.029954 0.165148 0.048936
0.038468 0.165255 0.048112
0.053895 0.167056 0.048707
0.078569 0.168856 0.052033
0.106264 0.167452 0.057511
0.132235 0.166369 0.061357
0.155352 0.166888 0.063752
0.180804 0.168307 0.063706
0.207126 0.168353 0.060914
0.232639 0.165988 0.056153
0.257923 0.163851 0.052003
0.284092 0.163424 0.049699
0.312474 0.164553 0.049897
0.337896 0.166384 0.051072
0.361654 0.168719 0.053559
0.382895 0.170947 0.057084
0.402182 0.172442 0.061173
0.420127 0.173754 0.065537
0.436362 0.173770 0.069627
0.451774 0.174197 0.073549
0.466392 0.175631 0.077012
0.479988 0.177172 0.080400
0.493050 0.179217 0.083848
0.504555 0.182208 0.086778
0.515160 0.185718 0.089479
0.525612 0.189364 0.091936
0.535348 0.193362 0.094194
0.544564 0.197757 0.096407
0.553292 0.201923 0.098375
0.562570 0.205676 0.100450
0.571221 0.208469 0.102098
0.580407 0.210513 0.103197
0.590936 0.211551 0.103609
0.600732 0.212634 0.103746
0.610666 0.214069 0.103914
0.619440 0.215518 0.103960
0.627863 0.217212 0.104158
0.636347 0.218997 0.104189
0.644709 0.220722 0.104234
0.653162 0.222934 0.104341
0.661326 0.224186 0.104128
0.669535 0.225177 0.104082
0.677150 0.224720 0.103944
0.684825 0.224796 0.104051
0.691875 0.225177 0.103868
0.699016 0.225254 0.103456
0.704753 0.226291 0.103868
0.710475 0.227420 0.104067
0.716075 0.228367 0.104173
0.722042 0.229236 0.104189
0.727199 0.230243 0.104311
0.732631 0.231556 0.104463
0.737881 0.232609 0.104768
0.743374 0.233692 0.105180
0.748486 0.235111 0.105562
0.753643 0.236240 0.105669
0.758709 0.237171 0.105608
0.763806 0.237919 0.105776
0.768902 0.239124 0.105760
0.773693 0.240253 0.105898
0.777935 0.241260 0.106142
0.782208 0.242054 0.106050
0.786191 0.242924 0.105959
0.790646 0.243137 0.105730
0.030426 0.182788 0.052598
0.031296 0.181247 0.052354
0.040681 0.181552 0.052888
0.054429 0.182788 0.053452
0.074998 0.184085 0.054826
0.101427 0.183902 0.060060
0.127016 0.183230 0.063798
0.151324 0.184634 0.066178
0.175280 0.186191 0.067216
0.201404 0.186923 0.065797
0.231556 0.185946 0.062379
0.259052 0.182620 0.058396
0.285481 0.180728 0.054917
0.312154 0.180407 0.053590
0.336950 0.181704 0.054597
0.360082 0.183780 0.056916
0.381659 0.185855 0.060121
0.401938 0.188479 0.064103
0.419944 0.190738 0.068498
0.437049 0.192767 0.072969
0.452705 0.194232 0.076890
0.466773 0.195224 0.080263
0.480507 0.195956 0.083543
0.493309 0.196612 0.086320
0.505074 0.198230 0.089006
0.516091 0.200641 0.091737
0.526192 0.203525 0.094118
0.535988 0.207156 0.096391
0.545724 0.210910 0.098543
0.555169 0.215625 0.100526
0.564141 0.219516 0.102419
0.572885 0.223163 0.104067
0.581765 0.225772 0.105714
0.591592 0.226871 0.106462
0.601556 0.227909 0.106584
0.611215 0.228794 0.106569
0.619959 0.230213 0.106569
0.628885 0.231861 0.106767
0.637018 0.233356 0.106905
0.645655 0.235325 0.107042
0.653422 0.236973 0.106889
0.661982 0.239353 0.106950
0.670008 0.240696 0.106752
0.678019 0.240711 0.106493
0.685710 0.240787 0.106340
0.692943 0.240558 0.106172
0.700282 0.240375 0.106233
0.706661 0.240772 0.106233
0.712581 0.241672 0.106264
0.718547 0.242588 0.106249
0.724254 0.243122 0.106004
0.729656 0.244404 0.106432
0.734874 0.245502 0.106645
0.740383 0.246647 0.107012
0.745815 0.247745 0.107256
0.751019 0.248936 0.107561
0.756207 0.250004 0.107698
0.761242 0.251057 0.107881
0.766476 0.252247 0.108080
0.771572 0.253193 0.108248
0.776562 0.254414 0.108446
0.780819 0.255528 0.108522
0.785092 0.256153 0.108568
0.789395 0.256886 0.108690
0.793622 0.257801 0.108507
0.032990 0.199283 0.056123
0.033356 0.197635 0.056428
0.043534 0.197559 0.057038
0.057481 0.198581 0.057527
0.076036 0.200031 0.058335
0.098756 0.199908 0.062867
0.122667 0.200061 0.066331
0.146410 0.201419 0.068147
0.170489 0.202960 0.069352
0.197925 0.204501 0.069505
0.228763 0.204120 0.067964
0.258885 0.202365 0.064485
0.286183 0.198764 0.060609
0.311437 0.196368 0.057893
0.335958 0.197040 0.058045
0.358297 0.198383 0.059815
0.381094 0.200534 0.062806
0.401572 0.203021 0.066804
0.420340 0.205905 0.071305
0.437629 0.208881 0.075486
0.453315 0.211093 0.079240
0.467872 0.212543 0.082734
0.481300 0.213886 0.085664
0.494545 0.215427 0.088548
0.506050 0.216464 0.091188
0.516854 0.217670 0.093751
0.527245 0.220096 0.096193
0.537087 0.222461 0.098283
0.547158 0.225574 0.100420
0.556756 0.229160 0.102403
0.565637 0.232746 0.104280
0.574197 0.236530 0.105959
0.582834 0.239353 0.107576
0.591379 0.241886 0.109117
0.601053 0.242832 0.109392
0.611048 0.243732 0.109529
0.620371 0.245106 0.109545
0.629145 0.246296 0.109606
0.637675 0.247776 0.109560
0.645747 0.249058 0.109545
0.653758 0.250690 0.109438
0.661845 0.253162 0.109438
0.669718 0.254856 0.109117
0.678065 0.256229 0.109071
0.685588 0.257023 0.108827
0.693401 0.256687 0.108797
0.701015 0.255955 0.108675
0.708049 0.256153 0.108507
0.714427 0.256535 0.108476
0.720363 0.257115 0.108507
0.726101 0.258122 0.108644
0.731609 0.258869 0.108644
0.737179 0.260029 0.108949
0.742535 0.261097 0.109163
0.747997 0.262196 0.109361
0.753445 0.263416 0.109682
0.758556 0.264561 0.110109
0.763729 0.265949 0.110292
0.768994 0.267155 0.110521
0.774182 0.267933 0.110567
0.779492 0.269215 0.110765
0.783551 0.269947 0.110826
0.787991 0.271107 0.111070
0.792523 0.272023 0.111131
0.797101 0.272694 0.110918
0.036057 0.215152 0.059999
0.036545 0.213062 0.060548
0.046906 0.212512 0.061067
0.061021 0.213916 0.061784
0.078965 0.215366 0.062379
0.102052 0.215824 0.066850
0.126070 0.215579 0.070054
0.148135 0.215732 0.071855
0.171954 0.217548 0.072908
0.198505 0.219501 0.073076
0.227909 0.220569 0.072358
0.256886 0.220020 0.070207
0.285222 0.217365 0.066300
0.312322 0.214145 0.063035
0.336751 0.212604 0.061830
0.359915 0.213138 0.062730
0.382452 0.214740 0.065858
0.403037 0.217014 0.069627
0.421592 0.219944 0.073625
0.438300 0.222995 0.077531
0.453986 0.226123 0.081422
0.468925 0.228489 0.084626
0.483085 0.230747 0.087739
0.495949 0.232425 0.090684
0.507210 0.233906 0.093233
0.518029 0.235309 0.095750
0.528313 0.236744 0.097948
0.538766 0.238621 0.100267
0.548714 0.240513 0.102312
0.558175 0.242802 0.104128
0.566918 0.246082 0.105943
0.575051 0.249256 0.107485
0.583902 0.252537 0.109255
0.592157 0.255207 0.110765
0.600900 0.257511 0.112337
0.611017 0.258091 0.112215
0.620417 0.259007 0.112261
0.629374 0.260197 0.112184
0.637949 0.261555 0.112139
0.646128 0.262913 0.111986
0.654368 0.264576 0.111986
0.662013 0.266224 0.111849
