_SYSTEM/luts/NORMAL -1_0 SCENE 01.cube
TITLE "Generated by Resolve"
LUT_3D_SIZE 9
0.0041352 0.00231937 0.00297551
0.311604 0.0506905 0.0334173
0.513832 0.068864 0.0369573
0.664118 0.0938888 0.0420539
0.749981 0.12282 0.052903
0.798306 0.141573 0.0633097
0.83595 0.142199 0.0571298
0.852644 0.116228 0.0346075
0.864378 0.0728313 0.0245975
0.0287633 0.23357 0.0455634
0.332143 0.202564 0.0590829
0.488426 0.210666 0.0494087
0.619257 0.228458 0.0657816
0.701778 0.230838 0.0757153
0.774716 0.233555 0.0801556
0.834943 0.238621 0.082063
0.876158 0.237293 0.073518
0.904158 0.203708 0.0425727
0.0281834 0.353521 0.0441444
0.344518 0.315923 0.0479438
0.499092 0.302159 0.0665446
0.610758 0.32282 0.0802014
0.698985 0.336538 0.0848554
0.774273 0.343084 0.0899672
0.843198 0.349355 0.0931106
0.892317 0.344808 0.0896925
0.927169 0.332052 0.0730755
0.0685283 0.421775 0.0916609
0.367346 0.397436 0.0733501
0.514183 0.399725 0.0867781
0.622736 0.40621 0.090898
0.71104 0.426169 0.0974136
0.78883 0.437873 0.102983
0.857282 0.441032 0.10454
0.910536 0.443091 0.102983
0.949142 0.437705 0.0931258
0.112764 0.494881 0.131746
0.370275 0.482002 0.0941939
0.517037 0.494789 0.0945144
0.635767 0.502251 0.103395
0.726909 0.5131 0.106859
0.80235 0.525475 0.111254
0.868528 0.53547 0.112245
0.920607 0.541833 0.111589
0.959686 0.543191 0.106523
0.122896 0.579293 0.14551
0.365866 0.574304 0.108675
0.51191 0.589166 0.102617
0.636591 0.599161 0.115389
0.730037 0.603601 0.116045
0.809598 0.607691 0.1131
0.874815 0.615351 0.112016
0.927932 0.623789 0.114733
0.964889 0.631922 0.116976
0.11165 0.663005 0.140093
0.344213 0.66302 0.112444
0.497383 0.677455 0.102693
0.622995 0.683284 0.113497
0.723262 0.688441 0.117647
0.809644 0.691539 0.111666
0.881056 0.696406 0.114763
0.934951 0.704768 0.121889
0.970718 0.716289 0.129259
0.104005 0.737133 0.118746
0.307454 0.742824 0.10219
0.469871 0.757671 0.0918288
0.605615 0.765545 0.106477
0.715755 0.770809 0.118837
0.808621 0.775616 0.123369
0.885084 0.780056 0.127184
0.942962 0.787198 0.140047
0.975662 0.798749 0.151675
0.0936599 0.799527 0.103319
0.287373 0.812848 0.0993515
0.444739 0.82945 0.0920424
0.592737 0.841276 0.106538
0.709285 0.845426 0.124834
0.807614 0.849134 0.136187
0.886763 0.852979 0.145647
0.94876 0.860395 0.163485
0.979019 0.871183 0.182727
0.0274052 0.0979934 0.324895
0.309392 0.0704356 0.234073
0.488563 0.0905013 0.168811
0.612634 0.117128 0.166369
0.683253 0.145342 0.177478
0.74081 0.16231 0.182391
0.803174 0.165698 0.17203
0.837903 0.140398 0.134173
0.848142 0.10309 0.0909743
0.0521401 0.256382 0.253071
0.203311 0.219684 0.19675
0.431113 0.19762 0.146639
0.569177 0.211719 0.143069
0.667216 0.220691 0.14583
0.751308 0.229206 0.148501
0.825208 0.23418 0.150347
0.879545 0.234974 0.14403
0.907637 0.217853 0.119677
0.054551 0.38088 0.263081
0.194491 0.339986 0.173999
0.414099 0.311269 0.142855
0.550072 0.317189 0.145342
0.657664 0.324895 0.142519
0.747326 0.329244 0.144976
0.826719 0.335409 0.14992
0.888045 0.336004 0.150179
0.926375 0.329625 0.138659
0.0873884 0.45864 0.28751
0.22623 0.437537 0.200031
0.413153 0.422309 0.155993
0.559411 0.414496 0.147158
0.659876 0.422034 0.152087
0.746685 0.430381 0.154421
0.825315 0.434028 0.156161
0.891844 0.437552 0.156527
0.939345 0.435874 0.150973
0.116609 0.528099 0.290745
0.249912 0.520272 0.218647
0.424826 0.515206 0.174838
0.571344 0.513893 0.16437
0.677729 0.516793 0.161181
0.761517 0.522469 0.161166
0.835645 0.52987 0.162722
0.899794 0.537438 0.163333
0.950484 0.541939 0.161761
0.120928 0.607813 0.284367
0.262486 0.607706 0.227573
0.427146 0.607385 0.184833
0.574029 0.608652 0.176669
0.686427 0.611139 0.17464
0.776165 0.611353 0.169802
0.848432 0.614923 0.167254
0.910887 0.622843 0.168551
0.960021 0.632166 0.173205
0.115908 0.683436 0.266056
0.260639 0.687144 0.224109
0.424796 0.687465 0.189059
0.575936 0.694362 0.185824
0.691188 0.695171 0.186603
0.785046 0.696117 0.178042
0.861662 0.698985 0.174426
0.923278 0.706157 0.178363
0.968902 0.71693 0.186404
0.109239 0.753735 0.235691
0.244114 0.761318 0.208988
0.416526 0.76463 0.189837
0.573449 0.775921 0.190173
0.693355 0.777096 0.195926
0.791943 0.779492 0.194095
0.87216 0.782712 0.190982
0.935332 0.789975 0.19942
0.976532 0.799542 0.209293
0.0998856 0.813718 0.21207
0.239597 0.826917 0.199344
0.409186 0.837873 0.19295
0.570916 0.84976 0.194858
0.694362 0.850217 0.204044
0.79707 0.852583 0.208637
0.878614 0.854597 0.21033
0.943725 0.862181 0.222934
0.981064 0.871763 0.237842
0.0187381 0.126848 0.488182
0.235355 0.105257 0.484443
0.466148 0.111864 0.337316
0.585336 0.14522 0.274784
0.662531 0.172412 0.270756
0.738781 0.169711 0.266255
0.804181 0.171817 0.258503
0.85153 0.152911 0.238315
0.863966 0.11339 0.19205
0.029633 0.277943 0.406882
0.160174 0.258701 0.375326
0.36495 0.219059 0.298314
0.516823 0.220813 0.239734
0.626993 0.235737 0.233356
0.721477 0.244251 0.234241
0.797604 0.246799 0.234562
0.861875 0.247791 0.232761
0.905715 0.235615 0.217639
0.0735027 0.385138 0.380285
0.175937 0.359854 0.34464
0.3355 0.354986 0.327504
0.53727 0.325383 0.256336
0.647242 0.329717 0.244266
0.740001 0.334234 0.240955
0.820691 0.336553 0.238605
0.88539 0.33814 0.234989
0.932372 0.334279 0.225422
0.108812 0.465568 0.392142
0.205219 0.459876 0.348974
0.339559 0.457343 0.306966
0.530129 0.437125 0.251453
0.643107 0.435676 0.252354
0.740139 0.438148 0.245838
0.824598 0.434211 0.24123
0.894896 0.433906 0.236912
0.947173 0.432609 0.232456
0.128847 0.544045 0.399756
0.232746 0.545464 0.359792
0.365698 0.551705 0.311711
0.527276 0.536461 0.264637
0.655741 0.531426 0.250782
0.746853 0.529595 0.247669
0.826444 0.533425 0.244038
0.896971 0.535607 0.238926
0.951904 0.539178 0.235492
0.130373 0.621683 0.392889
0.244114 0.628351 0.36083
0.384161 0.632227 0.315068
0.540749 0.625406 0.275822
0.665324 0.621393 0.260655
0.763226 0.619791 0.251057
0.839857 0.619776 0.246845
0.904814 0.623392 0.243503
0.958831 0.631296 0.24509
0.124758 0.693812 0.375692
0.245762 0.705638 0.350118
0.396796 0.706859 0.317189
0.551675 0.707073 0.281331
0.675151 0.702663 0.273045
0.774578 0.702556 0.263478
0.852415 0.70135 0.255375
0.917174 0.705394 0.255482
0.967651 0.714199 0.260822
0.115358 0.76231 0.347616
0.228016 0.779339 0.33051
0.395315 0.785077 0.31014
0.552666 0.78706 0.286046
0.67895 0.784115 0.283589
0.782269 0.783185 0.281361
0.863691 0.783581 0.274266
0.928939 0.788174 0.274678
0.975494 0.796399 0.282719
0.103349 0.821256 0.323095
0.221988 0.842924 0.314366
0.388525 0.853544 0.303838
0.548943 0.858946 0.287053
0.681834 0.857374 0.291279
0.785763 0.853071 0.293584
0.871046 0.853803 0.293645
0.937911 0.85861 0.298741
0.979828 0.86656 0.309606
0.0154421 0.143923 0.62742
0.199359 0.132799 0.6177
0.425605 0.139086 0.511589
0.54757 0.168048 0.39939
0.633249 0.189761 0.357458
0.706996 0.180026 0.348104
0.780697 0.172061 0.337896
0.841169 0.155795 0.326894
0.869108 0.121141 0.297917
0.020737 0.299947 0.525139
0.160555 0.285954 0.50457
0.304982 0.265812 0.444694
0.467231 0.237812 0.359121
0.599252 0.245609 0.318044
0.686107 0.252903 0.306706
0.766201 0.25687 0.30544
0.832731 0.25687 0.303883
0.880659 0.245563 0.292317
0.0793011 0.398856 0.467536
0.182574 0.382177 0.449805
0.289326 0.388602 0.450523
0.46659 0.346822 0.392142
0.616785 0.341161 0.352255
0.716625 0.349859 0.340459
0.805112 0.351019 0.339162
0.875746 0.350393 0.329625
0.924788 0.347219 0.317449
0.12108 0.469444 0.461097
0.207813 0.470863 0.456428
0.311254 0.480995 0.460136
0.475502 0.490959 0.459648
0.643351 0.453101 0.383062
0.734905 0.447028 0.361212
0.822828 0.442359 0.34789
0.894942 0.44004 0.340322
0.946502 0.438941 0.332982
0.131304 0.549111 0.478676
0.227405 0.560281 0.473625
0.341451 0.572717 0.458213
0.480369 0.580774 0.427573
0.64387 0.561349 0.374243
0.737087 0.547997 0.36788
0.823148 0.544121 0.353201
0.897093 0.541222 0.343954
0.954238 0.542077 0.338003
0.134813 0.628092 0.484794
0.242817 0.64593 0.478981
0.36643 0.656153 0.454856
0.500542 0.658625 0.41442
0.633982 0.645075 0.382986
0.748104 0.63769 0.364065
0.832151 0.632807 0.354864
0.899229 0.632868 0.347127
0.956863 0.637293 0.343999
0.129961 0.700099 0.474891
0.242329 0.722118 0.469505
0.382406 0.730907 0.447044
0.515557 0.733959 0.407126
0.651316 0.725505 0.38735
0.760723 0.716777 0.37113
0.844297 0.713161 0.356863
0.908721 0.712139 0.352667
0.963012 0.717052 0.35465
0.120333 0.769482 0.451514
0.216892 0.793912 0.448524
0.381506 0.80293 0.435477
0.526604 0.806546 0.408225
0.661524 0.801297 0.3906
0.767865 0.79295 0.381811
0.851453 0.789685 0.370413
0.917891 0.790188 0.365164
0.970306 0.794171 0.369451
0.106676 0.82858 0.428031
0.198489 0.855528 0.430213
0.371695 0.866407 0.42591
0.523079 0.872557 0.407568
0.66244 0.868666 0.395682
0.769985 0.858701 0.390219
0.856641 0.853971 0.38439
0.926467 0.855039 0.382376
0.976928 0.859998 0.389914
0.0187686 0.145998 0.701488
0.165743 0.136248 0.698573
0.373144 0.153979 0.633036
0.510277 0.173434 0.523827
0.610697 0.196506 0.461158
0.708415 0.194217 0.44802
0.78291 0.186984 0.439994
0.85066 0.169207 0.431113
0.886213 0.133577 0.400793
0.0211337 0.267216 0.623896
0.157275 0.291051 0.597208
0.275502 0.29752 0.532937
0.426322 0.269978 0.473136
0.566705 0.260075 0.422705
0.676555 0.261265 0.397726
0.757961 0.261341 0.390845
0.834073 0.25658 0.389685
0.885237 0.241474 0.378241
0.0850843 0.41059 0.552819
0.193866 0.404547 0.529213
0.291173 0.407156 0.539239
0.419745 0.377249 0.516487
0.585351 0.351751 0.46041
0.699138 0.359808 0.42742
0.778058 0.363394 0.415656
0.847257 0.359777 0.406195
0.898726 0.352911 0.394629
0.129839 0.479194 0.52932
0.220157 0.480903 0.532509
0.317708 0.492317 0.539055
0.429496 0.510842 0.558968
0.597421 0.471778 0.503105
0.714809 0.460761 0.464271
0.805936 0.4598 0.445502
0.880751 0.457908 0.437934
0.93344 0.453971 0.429099
0.134585 0.553399 0.546471
0.230304 0.565789 0.555413
0.34107 0.582818 0.562875
0.454841 0.605814 0.580102
0.625589 0.616724 0.572625
0.750561 0.568917 0.494331
0.817609 0.555825 0.468711
0.894072 0.551049 0.451392
0.954025 0.54844 0.441627
0.132921 0.632349 0.557809
0.239948 0.654429 0.571145
0.360662 0.671565 0.573053
0.478065 0.681788 0.5579
0.610468 0.691249 0.535027
0.754513 0.675486 0.489632
0.820768 0.650767 0.476371
0.891691 0.645319 0.458351
0.953948 0.643717 0.447028
0.128725 0.702907 0.558221
0.241657 0.730449 0.570291
0.376501 0.744945 0.567864
0.497246 0.755215 0.545159
0.622141 0.750896 0.51693
0.737865 0.739452 0.49453
0.830137 0.731533 0.475151
0.899794 0.725917 0.463249
0.958099 0.725063 0.455344
0.121767 0.77229 0.547509
0.223499 0.802762 0.558068
0.377798 0.815457 0.554788
0.508125 0.825315 0.532708
0.633631 0.822705 0.506935
0.746426 0.808515 0.488457
0.838773 0.802152 0.475822
0.909072 0.799451 0.464851
0.964004 0.798566 0.46331
0.108843 0.833478 0.532662
0.196124 0.863188 0.540688
0.359762 0.875654 0.539117
0.502327 0.885145 0.523293
0.634272 0.882872 0.500832
0.750652 0.869291 0.484062
0.842771 0.859068 0.474739
0.91458 0.857145 0.470222
0.967971 0.857603 0.473075
0.0211643 0.139269 0.700847
0.112978 0.128359 0.688853
0.279271 0.140017 0.678645
0.462806 0.158221 0.623346
0.588403 0.178729 0.576242
0.695888 0.18735 0.543618
0.782177 0.175174 0.534951
0.849363 0.153872 0.525612
0.892531 0.132952 0.500023
0.0236973 0.189471 0.644953
0.112016 0.19292 0.662089
0.256687 0.246265 0.648676
0.400153 0.284428 0.590417
0.542046 0.276616 0.539071
0.658564 0.271595 0.505028
0.753872 0.270512 0.491402
0.833936 0.26154 0.485176
0.886397 0.239277 0.4701
0.078645 0.385351 0.641245
0.188983 0.404578 0.615213
0.289952 0.424353 0.617945
0.405188 0.406622 0.609232
0.55552 0.376211 0.574517
0.681849 0.368521 0.529992
0.777386 0.369131 0.507454
0.850813 0.363592 0.493965
0.902708 0.352789 0.480064
0.129229 0.487373 0.602975
0.221393 0.49163 0.601709
0.321904 0.509239 0.616846
0.423026 0.516091 0.625772
0.551675 0.495399 0.610315
0.697597 0.468894 0.5635
0.796933 0.466682 0.535058
0.873793 0.464012 0.523659
0.928023 0.457771 0.510658
0.136095 0.557885 0.616373
0.235889 0.570932 0.62443
0.353124 0.587747 0.636713
0.45333 0.604471 0.641871
0.574319 0.627024 0.664836
0.723278 0.587243 0.61236
0.804852 0.571435 0.567971
0.8851 0.565927 0.551553
0.950454 0.559319 0.540673
0.130587 0.632746 0.627787
0.236622 0.65655 0.644465
0.362249 0.673289 0.65919
0.470344 0.689235 0.663371
0.587015 0.71368 0.685603
0.751064 0.734966 0.698329
0.844373 0.678172 0.607706
0.882063 0.655695 0.570169
0.949538 0.649226 0.552834
0.124178 0.704128 0.631403
0.231952 0.734188 0.652216
0.369833 0.751675 0.665827
0.486931 0.767895 0.666545
0.59736 0.768292 0.651637
0.727306 0.78732 0.638987
0.849943 0.780743 0.609949
0.883345 0.739834 0.581094
0.947738 0.733852 0.563409
0.119463 0.774227 0.628855
0.223865 0.806546 0.648371
0.374762 0.820569 0.658198
0.496376 0.834394 0.65359
0.608835 0.835615 0.631159
0.725185 0.824582 0.606607
0.819944 0.816571 0.592264
0.893721 0.812451 0.578424
0.952911 0.805814 0.564553
0.107561 0.836408 0.62356
0.205692 0.866377 0.639368
0.360601 0.879698 0.648173
0.48716 0.889479 0.637934
0.607401 0.893248 0.613687
0.730251 0.881224 0.589029
0.828656 0.86714 0.575174
0.903532 0.863966 0.568948
0.957763 0.861723 0.562417
0.0220035 0.223865 0.760525
0.0999313 0.128344 0.627054
0.158724 0.124178 0.632639
0.324346 0.125216 0.646525
0.524147 0.143435 0.660868
0.659266 0.157122 0.637644
0.759045 0.156664 0.61677
0.831846 0.146319 0.598535
0.879423 0.131807 0.571649
0.0271305 0.165789 0.583795
0.0804761 0.162051 0.60856
0.158526 0.173083 0.647105
0.340795 0.210361 0.69192
0.515053 0.237522 0.672099
0.638575 0.257588 0.62768
0.739437 0.261036 0.594522
0.824186 0.241398 0.580148
0.886061 0.212863 0.55874
0.059144 0.238087 0.666667
0.124956 0.25658 0.692378
0.268162 0.375982 0.719127
0.399023 0.422339 0.695552
0.531807 0.399954 0.673518
0.661906 0.38407 0.640421
0.766186 0.377356 0.608835
0.846372 0.367926 0.59234
0.901625 0.352575 0.574655
0.112337 0.470375 0.684916
0.211139 0.492821 0.677211
0.322103 0.518853 0.696239
0.429816 0.527169 0.709087
0.549294 0.515419 0.708003
0.678676 0.488701 0.68072
0.786236 0.474601 0.634226
0.86807 0.469825 0.613825
0.925109 0.461402 0.597299
0.129488 0.556893 0.689998
0.233051 0.575372 0.69395
0.352773 0.596017 0.707744
0.458946 0.615045 0.716335
0.555673 0.624903 0.715877
0.679423 0.598474 0.699855
0.795209 0.579416 0.659358
0.87863 0.57174 0.635813
0.94641 0.564874 0.628107
0.130343 0.629328 0.699443
0.2374 0.655238 0.713207
0.370901 0.674495 0.729244
0.485985 0.690654 0.737926
0.581399 0.702434 0.73341
0.697795 0.726436 0.768948
0.823133 0.698192 0.731273
0.873808 0.670924 0.670893
0.945159 0.66157 0.654139
0.124315 0.70161 0.705394
0.220493 0.732265 0.724788
0.368017 0.750805 0.742184
0.487816 0.767269 0.755581
0.589029 0.774578 0.753994
0.707408 0.805524 0.78648
0.876371 0.851316 0.825895
0.922423 0.780285 0.72195
0.937987 0.745342 0.67277
0.116625 0.773541 0.705791
0.209766 0.806394 0.727382
0.365362 0.822309 0.742779
0.48957 0.835126 0.753658
0.592401 0.842237 0.752041
0.699382 0.838254 0.732631
0.836194 0.86862 0.739528
0.93228 0.869566 0.717327
0.939712 0.818875 0.677531
0.106416 0.834989 0.705287
0.204852 0.865812 0.725231
0.356634 0.880232 0.739269
0.482261 0.88922 0.74345
0.590738 0.896712 0.736584
0.706828 0.889403 0.707515
0.8168 0.878355 0.690028
0.891264 0.875959 0.684703
0.947097 0.873091 0.671916
0.0228733 0.201373 0.611337
0.142321 0.185565 0.689174
0.234546 0.188754 0.672435
0.19028 0.118013 0.586755
0.327779 0.107759 0.629847
0.529366 0.118441 0.662379
0.678462 0.126009 0.67039
0.779293 0.128161 0.658076
0.839643 0.124102 0.624903
0.0373846 0.262348 0.627146
0.101915 0.223117 0.603967
0.106554 0.154513 0.571283
0.195804 0.162264 0.642863
0.380453 0.165454 0.683024
0.565927 0.190738 0.712856
0.698039 0.201999 0.685206
0.792966 0.201984 0.656382
0.858244 0.191882 0.624689
0.0568551 0.176532 0.598321
0.0898451 0.188205 0.625177
0.165042 0.219394 0.681468
0.304311 0.270756 0.751369
0.481453 0.315465 0.774258
0.633478 0.35407 0.75581
0.748714 0.373098 0.711772
0.832959 0.356222 0.686473
0.897765 0.328527 0.663111
0.0844587 0.35404 0.741115
0.148806 0.405005 0.749462
0.293797 0.486076 0.778714
0.427558 0.528374 0.790982
0.543984 0.524071 0.795636
0.660563 0.506172 0.783246
0.773419 0.48716 0.745449
0.860227 0.475563 0.711406
0.924208 0.461784 0.688136
0.117601 0.538125 0.75079
0.211917 0.566247 0.759594
0.343359 0.595743 0.778256
0.459281 0.617899 0.795621
0.562142 0.628031 0.800534
0.666911 0.614908 0.79794
0.781949 0.5897 0.773358
0.87126 0.578012 0.74165
0.941634 0.568292 0.723491
0.123598 0.617151 0.76495
0.219455 0.647318 0.779583
0.362783 0.672984 0.795041
0.48603 0.692851 0.808072
0.583673 0.709728 0.80592
0.667491 0.712474 0.80209
0.779858 0.691127 0.790066
0.867857 0.677073 0.764782
0.94226 0.667475 0.750378
0.126329 0.691524 0.772549
0.219974 0.723308 0.791531
0.371878 0.746227 0.808362
0.500648 0.761883 0.822766
0.602945 0.773877 0.82298
0.691203 0.781476 0.815045
0.812711 0.814389 0.868666
0.911894 0.799786 0.848966
0.933837 0.762631 0.776776
0.120195 0.767361 0.778744
0.205829 0.798962 0.79942
0.360937 0.819776 0.815808
0.491203 0.832425 0.831617
0.594339 0.841047 0.839673
0.697581 0.844541 0.832883
0.819959 0.882734 0.87097
0.956542 0.935897 0.926497
0.967803 0.860731 0.823087
0.110796 0.831601 0.781231
0.197711 0.861219 0.802213
0.352743 0.877668 0.816617
0.479561 0.886931 0.828565
0.58587 0.89514 0.837827
0.691463 0.895857 0.832349
0.792264 0.890425 0.807355
0.916701 0.926345 0.831632
0.968566 0.923949 0.805447
0.0226749 0.178683 0.45156
0.121431 0.167376 0.491539
0.198474 0.170993 0.551049
0.267826 0.172854 0.615396
0.193927 0.0965744 0.557183
0.318517 0.094255 0.598215
0.494118 0.10042 0.622675
0.640269 0.105592 0.644327
0.74406 0.109316 0.638239
0.042771 0.229999 0.518441
0.0997177 0.229953 0.565896
0.157687 0.245563 0.632441
0.139986 0.152697 0.575982
0.224201 0.137545 0.610224
0.374426 0.143236 0.658412
0.557275 0.153994 0.687434
0.695262 0.159823 0.688975
0.79379 0.168048 0.668666
0.0533455 0.155886 0.545586
0.078645 0.166155 0.561212
0.118257 0.185992 0.609033
0.19321 0.201678 0.678141
0.332601 0.212314 0.722362
0.506981 0.233783 0.763897
0.672251 0.263676 0.776776
0.787549 0.278416 0.754498
0.864591 0.275822 0.725887
0.0694133 0.203876 0.699367
0.10399 0.246052 0.716152
0.179248 0.299321 0.768231
0.337209 0.371679 0.834134
0.506554 0.456733 0.862745
0.64387 0.501778 0.855909
0.756603 0.485771 0.831785
0.847547 0.471931 0.800732
0.919615 0.456764 0.776059
0.0974899 0.474922 0.7897
0.162463 0.512505 0.802655
0.304341 0.564996 0.834989
0.44828 0.606531 0.861997
0.559289 0.621378 0.877272
0.662501 0.615488 0.881178
0.76556 0.597833 0.869322
0.860166 0.580575 0.837217
0.936522 0.569818 0.813809
0.11223 0.588937 0.804303
0.195682 0.624353 0.823804
0.340688 0.660273 0.848646
0.473716 0.689067 0.870344
0.580087 0.708431 0.879133
0.669963 0.712215 0.87924
0.76582 0.699153 0.874556
0.86186 0.678569 0.859403
0.941283 0.668254 0.843091
0.118578 0.674281 0.820661
0.206287 0.708385 0.843915
0.3579 0.737545 0.864149
0.492653 0.759625 0.881834
0.601663 0.775128 0.887892
0.690257 0.785702 0.879133
0.770077 0.787289 0.875578
0.858335 0.776074 0.871443
0.932403 0.765942 0.856626
0.116197 0.755779 0.832197
0.200916 0.787427 0.856413
0.357641 0.811688 0.873533
0.490867 0.828 0.890547
0.604196 0.838041 0.903197
0.705547 0.844099 0.894179
0.787823 0.847913 0.878111
0.902953 0.887694 0.94342
0.965087 0.87097 0.927642
0.10898 0.823255 0.839567
0.19443 0.85301 0.864195
0.351003 0.872175 0.878019
0.481086 0.884352 0.891463
0.594598 0.891173 0.902068
0.697078 0.893187 0.903365
0.791623 0.893065 0.887266
0.897734 0.93489 0.934127
0.993469 0.979232 0.973861
