_SYSTEM/luts/NORMAL -1_0 SKIN.cube
TITLE "Generated by Resolve"
LUT_3D_SIZE 65
0.0108034 0.0062562 0.00888075
0.0559396 0.0136568 0.00508125
0.106203 0.0183566 0.00959792
0.144762 0.0235294 0.0154879
0.174716 0.0291905 0.0204013
0.201907 0.0341344 0.0240787
0.228458 0.0378119 0.027039
0.254078 0.0418402 0.0296941
0.280278 0.0446937 0.0312047
0.307988 0.0486305 0.0329442
0.335134 0.0525368 0.0347448
0.361334 0.0566262 0.0369421
0.386557 0.0609903 0.0396429
0.41091 0.0652934 0.0425269
0.434958 0.0698405 0.0451362
0.458717 0.074052 0.0476081
0.481666 0.0783398 0.0500496
0.504341 0.0829328 0.0525216
0.526116 0.0879988 0.0551766
0.546304 0.0935836 0.0581216
0.565225 0.0995804 0.0614633
0.582956 0.105531 0.0649271
0.599756 0.111391 0.0681621
0.615305 0.116304 0.0711681
0.629786 0.120592 0.074052
0.643244 0.124422 0.0768749
0.65568 0.127947 0.0797284
0.667094 0.131487 0.0826429
0.677272 0.135622 0.0855726
0.686427 0.140063 0.0886091
0.694987 0.144656 0.0914473
0.703044 0.149325 0.0941634
0.710552 0.153811 0.0967575
0.717586 0.157977 0.0991989
0.724132 0.1617 0.101366
0.73022 0.164965 0.103334
0.736416 0.167056 0.104982
0.742412 0.168872 0.106401
0.748241 0.170581 0.107698
0.753933 0.172152 0.108843
0.759503 0.173526 0.109804
0.765011 0.174685 0.110658
0.770413 0.175586 0.111269
0.775708 0.176226 0.111666
0.780835 0.176532 0.111803
0.785733 0.176562 0.111742
0.790372 0.176257 0.111452
0.794736 0.175631 0.110948
0.798764 0.174685 0.110277
0.802563 0.17348 0.109575
0.806241 0.172045 0.108843
0.809796 0.170459 0.108095
0.813306 0.16875 0.107362
0.816861 0.167071 0.106691
0.820691 0.165759 0.106279
0.824979 0.165331 0.106386
0.829602 0.165637 0.106752
0.834318 0.166308 0.107286
0.838819 0.167117 0.107836
0.843 0.167941 0.1084
0.846876 0.168765 0.108934
0.850462 0.169558 0.109438
0.853574 0.170306 0.109957
0.856229 0.170962 0.110506
0.858137 0.171542 0.111009
0.00701915 0.0212253 0.00688182
0.0372778 0.0201419 0.00570687
0.0799115 0.0236057 0.00825513
0.117693 0.0301976 0.0149996
0.152377 0.0382391 0.0227359
0.18735 0.0451972 0.0281376
0.221759 0.0492714 0.0304417
0.252293 0.052491 0.032105
0.28246 0.0558938 0.0338598
0.311879 0.0604715 0.035874
0.340414 0.0655833 0.0380865
0.367712 0.070985 0.0404212
0.393729 0.0763867 0.0428779
0.418753 0.0813611 0.0454871
0.442283 0.0858167 0.0479744
0.465751 0.0897231 0.0504921
0.488823 0.0937057 0.0530861
0.510719 0.098024 0.0557412
0.53135 0.102846 0.0585946
0.550546 0.108049 0.0616007
0.568444 0.113436 0.064683
0.585107 0.118837 0.0678264
0.600855 0.124117 0.0708324
0.61561 0.128481 0.0736858
0.629389 0.132296 0.0764019
0.64213 0.135714 0.0790723
0.653788 0.138888 0.0816968
0.664439 0.142153 0.0843671
0.673976 0.145968 0.0870222
0.682689 0.150149 0.0897383
0.690929 0.154635 0.0923476
0.698756 0.159228 0.0948196
0.706127 0.163653 0.0971237
0.71313 0.167758 0.0992447
0.719799 0.171435 0.101167
0.726223 0.174655 0.102892
0.732754 0.176806 0.104326
0.739193 0.178912 0.105653
0.745403 0.180972 0.106935
0.7514 0.182895 0.108095
0.757275 0.184665 0.109133
0.763104 0.186282 0.110033
0.768856 0.18761 0.110735
0.774533 0.188724 0.111269
0.780056 0.189593 0.111604
0.785412 0.190158 0.111757
0.790524 0.190402 0.111711
0.795377 0.190295 0.111467
0.799969 0.189837 0.110994
0.804257 0.188952 0.110307
0.808347 0.187686 0.109545
0.812253 0.186145 0.108721
0.816052 0.184405 0.107881
0.81976 0.182528 0.107042
0.823468 0.180621 0.106249
0.827222 0.178943 0.105608
0.831174 0.177722 0.105241
0.835416 0.177264 0.105135
0.839719 0.177417 0.105333
0.8439 0.177935 0.105699
0.847898 0.178622 0.106126
0.851637 0.179339 0.106554
0.854887 0.180026 0.106996
0.857603 0.180621 0.107439
0.859449 0.181109 0.107836
0.007187 0.043183 0.00947585
0.0267185 0.0408331 0.00901808
0.0687877 0.0404669 0.0100862
0.109285 0.0450599 0.0166476
0.145998 0.0532387 0.0263218
0.182086 0.0616617 0.0343786
0.218433 0.0676432 0.0377813
0.251133 0.0711376 0.0385443
0.283192 0.0737316 0.0386969
0.313619 0.0779278 0.0399176
0.342916 0.082826 0.0417029
0.370825 0.0883192 0.0439002
0.397177 0.0940719 0.0463874
0.422263 0.0993515 0.0488899
0.446296 0.103639 0.0512093
0.470192 0.107424 0.053727
0.493339 0.110994 0.0564126
0.514672 0.114916 0.0591592
0.534447 0.119326 0.0619364
0.552697 0.124056 0.0647593
0.569436 0.128939 0.0676127
0.584833 0.133822 0.0704662
0.59939 0.138537 0.0732738
0.613108 0.14226 0.0758831
0.625895 0.145388 0.0783703
0.63772 0.14815 0.0807813
0.648615 0.150713 0.0831311
0.658656 0.153445 0.0855116
0.667674 0.156756 0.087953
0.676036 0.160464 0.0903487
0.684031 0.164584 0.0927138
0.691737 0.168872 0.0949416
0.699153 0.173053 0.0970169
0.706325 0.176944 0.0989242
0.713268 0.180484 0.100649
0.720073 0.183581 0.102205
0.726894 0.18584 0.103548
0.733577 0.188144 0.104768
0.739971 0.190402 0.105943
0.746166 0.192569 0.107073
0.752285 0.194644 0.108095
0.758373 0.196597 0.109026
0.764446 0.198398 0.109834
0.770443 0.200076 0.110521
0.776364 0.201572 0.111131
0.782208 0.202884 0.11165
0.787839 0.203922 0.111955
0.793286 0.204623 0.112047
0.79852 0.204959 0.111925
0.80351 0.204913 0.111574
0.80824 0.204395 0.111009
0.812741 0.203449 0.110277
0.817044 0.202136 0.109483
0.82118 0.200488 0.108629
0.825193 0.198566 0.107744
0.829099 0.196536 0.106889
0.832959 0.194522 0.106142
0.836896 0.19295 0.105531
0.840833 0.191806 0.105058
0.844755 0.191257 0.10486
0.848753 0.191287 0.104936
0.852705 0.191684 0.105196
0.856184 0.192248 0.105516
0.859159 0.192752 0.105898
0.861036 0.193133 0.106233
0.00985733 0.0709239 0.0144656
0.0258946 0.069688 0.0143282
0.0676585 0.0679637 0.0148318
0.112108 0.0699779 0.0212711
0.151904 0.0762036 0.031693
0.18764 0.0843977 0.0413214
0.222202 0.0915084 0.0465095
0.253223 0.0956436 0.0475013
0.284581 0.0974746 0.0465248
0.314046 0.100999 0.0467689
0.34287 0.105409 0.0478676
0.370504 0.110307 0.0495155
0.396796 0.115358 0.0514839
0.422614 0.120104 0.0534981
0.447791 0.123919 0.0553292
0.472145 0.127382 0.0574044
0.495323 0.13051 0.0597086
0.516762 0.133852 0.0621958
0.536431 0.13753 0.0648356
0.554101 0.141527 0.0675669
0.569909 0.145785 0.0703136
0.584329 0.149966 0.0730449
0.597894 0.153841 0.0757305
0.610727 0.157 0.0782635
0.622721 0.159762 0.0806439
0.633906 0.162219 0.0829023
0.644327 0.164431 0.085069
0.654032 0.16669 0.0871901
0.662776 0.169177 0.0893568
0.670924 0.171969 0.0914321
0.678813 0.175265 0.0935073
0.686473 0.17879 0.0955062
0.693889 0.1823 0.0973678
0.701091 0.185687 0.0990921
0.708095 0.188922 0.100664
0.715023 0.191821 0.102083
0.72192 0.194186 0.103304
0.728679 0.196597 0.104433
0.735195 0.198886 0.105531
0.741543 0.201083 0.1066
0.747845 0.20322 0.107576
0.754131 0.20528 0.108476
0.760418 0.207294 0.109331
0.766629 0.209262 0.110079
0.772824 0.21117 0.110826
0.778973 0.21297 0.111498
0.785016 0.214618 0.112078
0.790936 0.216083 0.112505
0.796719 0.217304 0.112764
0.802335 0.218189 0.112825
0.807721 0.218631 0.112612
0.812848 0.218585 0.1122
0.817731 0.218067 0.11162
0.822446 0.21706 0.110903
0.826978 0.215579 0.110079
0.831281 0.213733 0.109209
0.835492 0.211627 0.108354
0.839521 0.209491 0.1075
0.843473 0.207507 0.106691
0.847257 0.205936 0.10605
0.851011 0.204913 0.105653
0.854795 0.204456 0.105486
0.85832 0.204562 0.105592
0.861387 0.204929 0.105852
0.863279 0.20528 0.106157
0.0166323 0.104265 0.0228428
0.0338903 0.1037 0.0217594
0.0745098 0.102327 0.0220035
0.121965 0.102007 0.0281682
0.16495 0.104585 0.0382239
0.200473 0.11017 0.0479286
0.23212 0.116701 0.0541238
0.25951 0.120989 0.0554971
0.287846 0.122805 0.0544442
0.315602 0.126207 0.0543526
0.342931 0.130434 0.0552834
0.369253 0.134951 0.0568246
0.39498 0.139467 0.0585794
0.421363 0.14374 0.0601968
0.44744 0.147127 0.0614786
0.472129 0.150042 0.0628214
0.495094 0.152789 0.0644846
0.516548 0.155474 0.0663615
0.536446 0.158297 0.068513
0.554284 0.161395 0.0709239
0.569955 0.164767 0.0734569
0.584115 0.167956 0.0760204
0.597147 0.17084 0.0785382
0.609384 0.173404 0.0809796
0.620752 0.175875 0.0833295
0.631403 0.178225 0.0855573
0.641443 0.180392 0.0876478
0.650874 0.182422 0.0896162
0.659556 0.184222 0.0915236
0.66775 0.18613 0.0933242
0.675731 0.188342 0.0951247
0.683543 0.190646 0.0968185
0.691066 0.193042 0.0984207
0.698314 0.195605 0.0999313
0.705303 0.198215 0.10135
0.712261 0.200717 0.102647
0.719142 0.203067 0.103792
0.725933 0.205478 0.104891
0.73257 0.207691 0.105943
0.739086 0.209751 0.10695
0.745556 0.211765 0.107881
0.751995 0.213748 0.108751
0.758404 0.215732 0.10959
0.764721 0.217746 0.110369
0.771038 0.219776 0.111116
0.77734 0.221805 0.111833
0.783551 0.223789 0.11249
0.7897 0.225696 0.113085
0.795743 0.227481 0.113588
0.801678 0.229023 0.113939
0.807462 0.230304 0.114092
0.813016 0.231174 0.114076
0.818387 0.231632 0.113878
0.82359 0.231586 0.113497
0.828626 0.230961 0.112917
0.833387 0.22977 0.112169
0.837995 0.228077 0.11136
0.842374 0.225986 0.110475
0.846571 0.223743 0.10956
0.850416 0.221546 0.108705
0.854002 0.219623 0.107973
0.857557 0.218173 0.107424
0.86096 0.217426 0.107134
0.863905 0.21735 0.107134
0.865705 0.217594 0.107332
0.0261082 0.139818 0.0330968
0.0453498 0.13872 0.0300755
0.0855879 0.137774 0.0296941
0.134951 0.135698 0.0352026
0.180392 0.134386 0.0442359
0.216175 0.135882 0.053193
0.24535 0.140154 0.0594339
0.269551 0.143847 0.0606699
0.293858 0.146075 0.0599374
0.319722 0.149569 0.0599527
0.345434 0.153719 0.0610056
0.370672 0.158328 0.062974
0.395804 0.163104 0.0652628
0.421317 0.167559 0.0672007
0.446677 0.171237 0.0687266
0.470619 0.174014 0.0700084
0.492699 0.176761 0.0713664
0.513298 0.179263 0.0728161
0.532952 0.181689 0.074464
0.551125 0.184222 0.0763714
0.567147 0.186801 0.0784619
0.581643 0.189014 0.0805829
0.594873 0.190936 0.0826886
0.607126 0.192721 0.0847791
0.61828 0.194629 0.0869001
0.628641 0.196643 0.0889754
0.638422 0.198688 0.0909895
0.647684 0.200595 0.0928969
0.656428 0.202167 0.0946517
0.66479 0.203677 0.0962997
0.67306 0.205051 0.0977951
0.681193 0.206317 0.0991684
0.689036 0.20766 0.10045
0.69659 0.209232 0.101686
0.703853 0.210864 0.102846
0.71104 0.212619 0.103944
0.71809 0.214618 0.105028
0.725002 0.216693 0.106065
0.731823 0.218631 0.107042
0.738521 0.220447 0.107973
0.745113 0.222217 0.108858
0.751675 0.224002 0.109697
0.758144 0.225818 0.110521
0.764538 0.227665 0.111269
0.770871 0.229587 0.111971
0.777188 0.231586 0.112642
0.783429 0.2336 0.113268
0.789593 0.235569 0.113863
0.795682 0.237476 0.114397
0.801694 0.239292 0.114855
0.80763 0.241016 0.115236
0.813428 0.242527 0.115526
0.819104 0.243809 0.115679
0.824643 0.244724 0.115663
0.830045 0.245167 0.11545
0.835233 0.244999 0.115007
0.840223 0.244205 0.114366
0.844953 0.242741 0.113603
0.8495 0.240879 0.112749
0.85362 0.238712 0.111879
0.857359 0.236454 0.11107
0.860914 0.234379 0.110323
0.864225 0.232761 0.109728
0.866987 0.232044 0.109453
0.86865 0.232029 0.109529
0.0335546 0.172335 0.0409247
0.0533608 0.170245 0.0366674
0.0953536 0.169345 0.0353857
0.147066 0.166491 0.0399939
0.195026 0.162737 0.0480812
0.231983 0.160693 0.0563363
0.259663 0.161837 0.0624552
0.281941 0.164492 0.0636912
0.302953 0.16669 0.0629435
0.326177 0.169497 0.0626383
0.350774 0.173098 0.0633555
0.376287 0.177798 0.0654459
0.40145 0.183124 0.0684062
0.424933 0.188113 0.0712902
0.447822 0.192905 0.0742199
0.469291 0.196567 0.0766308
0.489799 0.199908 0.0785229
0.508766 0.203067 0.0803388
0.527184 0.206043 0.0821241
0.544839 0.208774 0.0838026
0.560739 0.2112 0.0854353
0.575341 0.213016 0.0870375
0.589242 0.214313 0.0886244
0.60206 0.21532 0.0901503
0.613611 0.216403 0.0917525
0.624155 0.217746 0.0934768
0.634028 0.219287 0.0952621
0.643381 0.220874 0.0970626
0.652262 0.222446 0.0987869
0.6607 0.223941 0.100313
0.66923 0.225162 0.101564
0.677684 0.226291 0.102663
0.685954 0.227298 0.103639
0.694057 0.228138 0.104524
0.701976 0.228794 0.105333
0.709697 0.229557 0.106126
0.717189 0.230671 0.106981
0.724453 0.231907 0.107805
0.731594 0.233173 0.108598
0.738521 0.234562 0.109392
0.745235 0.236072 0.110201
0.751888 0.237598 0.110979
0.758434 0.239078 0.111711
0.764889 0.240635 0.112367
0.771267 0.242252 0.112978
0.777615 0.243961 0.113558
0.783871 0.245716 0.114092
0.790082 0.247486 0.114611
0.796277 0.249256 0.115099
0.80238 0.251072 0.115557
0.808438 0.252842 0.115953
0.814389 0.254582 0.11632
0.820294 0.256229 0.116594
0.826078 0.25774 0.116793
0.831785 0.259037 0.116884
0.837339 0.259937 0.116793
0.842741 0.260365 0.116503
0.847913 0.26006 0.116014
0.852918 0.25922 0.115373
0.857511 0.257801 0.114656
0.861616 0.255924 0.113878
0.865415 0.253834 0.11313
0.86891 0.251881 0.11252
0.871702 0.250767 0.112245
0.873228 0.250507 0.112291
0.0355383 0.198459 0.0432288
0.0559091 0.195346 0.0390631
0.100481 0.194354 0.0377966
0.155337 0.191669 0.0420844
0.206592 0.187472 0.0495308
0.246052 0.183749 0.0568704
0.274098 0.182284 0.0621653
0.294347 0.183246 0.0646677
0.313741 0.18497 0.0644999
0.334173 0.187091 0.0642252
0.356634 0.190311 0.0648356
0.380926 0.194659 0.0666819
0.405966 0.199771 0.0694133
0.430564 0.205097 0.0724041
0.453727 0.210147 0.0754559
0.474434 0.21445 0.0781872
0.493797 0.218326 0.0806592
0.512154 0.22179 0.0829786
0.529549 0.225177 0.0850996
0.545708 0.228565 0.0870222
0.560739 0.231693 0.0889143
0.574624 0.23418 0.0908064
0.58761 0.235782 0.0927443
0.599435 0.236988 0.0945602
0.610437 0.237995 0.0963149
0.620829 0.239063 0.0980697
0.630671 0.240223 0.0997635
0.64004 0.241367 0.101381
0.648951 0.242649 0.102831
0.657511 0.243793 0.104051
0.666117 0.245075 0.10515
0.674723 0.246525 0.106142
0.683192 0.247791 0.107042
0.691524 0.248692 0.107836
0.699687 0.249271 0.108583
0.707759 0.249638 0.109194
0.715801 0.249851 0.109728
0.723659 0.250095 0.110216
0.73135 0.250523 0.110704
0.738705 0.251301 0.111284
0.745754 0.25243 0.11194
0.752682 0.253651 0.112566
0.759441 0.254795 0.113115
0.766018 0.255985 0.113649
0.772549 0.257267 0.114137
0.779049 0.25864 0.11458
0.785458 0.26009 0.115023
0.791836 0.261616 0.11545
0.798138 0.263157 0.115846
0.80441 0.264775 0.116213
0.81062 0.266407 0.116548
0.816724 0.26804 0.116838
0.822766 0.269642 0.117098
0.828748 0.271244 0.117327
0.834669 0.272755 0.117494
0.840436 0.274052 0.11754
0.846082 0.27509 0.117433
0.851591 0.2757 0.117174
0.856931 0.275807 0.116732
0.862058 0.275532 0.116182
0.866819 0.274815 0.115541
0.871153 0.273518 0.114839
0.875044 0.271733 0.114229
0.877989 0.270436 0.11397
0.879545 0.270207 0.114092
0.0345617 0.221973 0.0411841
0.0550851 0.217578 0.0378424
0.0986801 0.215717 0.0362097
0.155077 0.212985 0.0401617
0.209491 0.208759 0.0472877
0.252232 0.204334 0.0540475
0.283345 0.20148 0.0586404
0.306584 0.200641 0.0607462
0.324727 0.201938 0.0636606
0.343709 0.203677 0.0645457
0.364294 0.2065 0.0654612
0.386694 0.210452 0.0673533
0.410376 0.215183 0.0701305
0.434363 0.220188 0.0731823
0.457404 0.225055 0.0761425
0.478981 0.229603 0.0789044
0.498619 0.233417 0.0814832
0.516762 0.236973 0.0838331
0.53373 0.240543 0.0859846
0.549615 0.244114 0.0879683
0.564569 0.247623 0.0898909
0.578424 0.250843 0.0917067
0.591196 0.253132 0.093492
0.603128 0.254841 0.0952926
0.614282 0.256031 0.0971542
0.624674 0.257069 0.0989242
0.634409 0.258198 0.100542
0.643702 0.259342 0.102022
0.652552 0.260548 0.103349
0.661158 0.261677 0.104524
0.669642 0.262882 0.105608
0.678035 0.264134 0.106584
0.68629 0.265415 0.107485
0.694499 0.266667 0.108309
0.702586 0.267826 0.109071
0.710582 0.268788 0.109773
0.718441 0.269291 0.11046
0.726101 0.269505 0.111131
0.733639 0.269734 0.111803
0.740963 0.2701 0.112474
0.748058 0.270588 0.1131
0.755077 0.271138 0.11371
0.761852 0.271839 0.11426
0.768429 0.272648 0.114763
0.774899 0.273579 0.115221
0.781338 0.274617 0.115663
0.787686 0.275746 0.11606
0.793988 0.276951 0.116426
0.800214 0.278264 0.116762
0.806409 0.279652 0.117082
0.812558 0.281071 0.117372
0.818601 0.282521 0.117647
0.824582 0.284001 0.117906
0.830518 0.285496 0.118135
0.836408 0.286992 0.118334
0.842145 0.28838 0.118471
0.847776 0.289647 0.118517
0.85333 0.290669 0.118425
0.858717 0.291325 0.118196
0.863996 0.291676 0.117891
0.868894 0.291691 0.117449
0.873396 0.291264 0.116899
0.877699 0.290517 0.116335
0.881163 0.289967 0.115969
0.882963 0.290074 0.11603
0.0334478 0.244358 0.0390326
0.0540169 0.238819 0.0352026
0.0963912 0.236149 0.03299
0.152056 0.233188 0.0363622
0.207614 0.229023 0.043122
0.253391 0.224445 0.0499733
0.288396 0.220874 0.0551461
0.316258 0.218723 0.0577554
0.335866 0.21883 0.0604562
0.353262 0.219898 0.0632639
0.372122 0.222156 0.0652934
0.393271 0.225559 0.0675517
0.415885 0.229862 0.0705882
0.438727 0.23476 0.0737926
0.460929 0.239704 0.0767529
0.48249 0.244038 0.0795453
0.502495 0.248035 0.0821698
0.521019 0.251728 0.0846113
0.53814 0.255344 0.0868391
0.553933 0.258946 0.0888991
0.56878 0.262501 0.0908522
0.582467 0.265995 0.0926528
0.594888 0.268864 0.094377
0.606622 0.271031 0.0961318
0.617716 0.272648 0.0979019
0.628122 0.27393 0.0995956
0.637949 0.275074 0.101152
0.647395 0.276249 0.102571
0.656443 0.277562 0.103853
0.665125 0.278752 0.105028
0.673609 0.279988 0.106081
0.68188 0.281224 0.107057
0.689982 0.28246 0.107958
0.698009 0.283787 0.108782
0.705928 0.285252 0.10956
0.713726 0.28661 0.110292
0.721462 0.287678 0.111009
0.729061 0.288472 0.111742
0.736492 0.289113 0.112444
0.743801 0.289494 0.113146
0.750957 0.289586 0.113832
0.758022 0.289662 0.114488
0.764843 0.290043 0.115099
0.77142 0.290486 0.115633
0.77789 0.291081 0.116152
0.784283 0.291783 0.116609
0.790524 0.292607 0.117006
0.796643 0.293538 0.117372
0.802701 0.29453 0.117678
0.808728 0.295659 0.117983
0.81474 0.296788 0.118273
0.820661 0.298039 0.118563
0.82652 0.299367 0.118837
0.832334 0.300694 0.119081
0.838117 0.302022 0.11931
0.843763 0.303334 0.119493
0.849302 0.304616 0.119615
0.854795 0.305821 0.119677
0.860182 0.306813 0.119646
0.865476 0.307591 0.119509
0.870405 0.308095 0.119265
0.874983 0.308293 0.118898
0.879362 0.308232 0.118486
0.882933 0.308064 0.118166
0.884718 0.30837 0.118242
0.0330205 0.265095 0.0378882
0.0539254 0.258915 0.0331426
0.0956436 0.255772 0.0303197
0.1505 0.252369 0.0330663
0.206485 0.247959 0.039353
0.254337 0.243336 0.0461738
0.292195 0.239628 0.0517891
0.32285 0.237095 0.0551614
0.344594 0.235904 0.0570382
0.362875 0.235966 0.0602579
0.380941 0.237507 0.0640116
0.400824 0.240223 0.0675822
0.422385 0.2439 0.0708782
0.444144 0.248554 0.0742199
0.465309 0.253574 0.0773175
0.486061 0.258213 0.0802014
0.50602 0.262562 0.082887
0.524575 0.2663 0.0853437
0.541939 0.269841 0.0876326
0.55816 0.273396 0.0897841
0.573251 0.276905 0.0918135
0.586725 0.280293 0.0936599
0.59884 0.283345 0.0953536
0.6103 0.285847 0.0970169
0.621195 0.287892 0.0986648
0.631601 0.28954 0.100267
0.641611 0.290883 0.101793
0.651209 0.292088 0.103182
0.660395 0.293462 0.104479
0.669139 0.29482 0.105623
0.677668 0.296193 0.106691
0.685985 0.297566 0.107683
0.694057 0.298909 0.108583
0.701976 0.300282 0.109422
0.709697 0.301762 0.110216
0.717266 0.303243 0.110964
0.724865 0.304646 0.111711
0.732387 0.305989 0.112459
0.739742 0.307149 0.113191
0.746975 0.307851 0.113909
0.754131 0.308125 0.114626
0.761227 0.308309 0.115343
0.768078 0.308629 0.115984
0.774731 0.308888 0.116564
0.781292 0.309224 0.117128
0.787732 0.309636 0.117617
0.793912 0.310201 0.118059
0.799893 0.310918 0.118441
0.805814 0.311666 0.118776
0.811704 0.31252 0.119097
0.817548 0.31342 0.119387
0.823316 0.314443 0.119677
0.829023 0.315526 0.119951
0.834669 0.316625 0.120211
0.840299 0.317754 0.120455
0.845838 0.318898 0.120668
0.85127 0.320058 0.120821
0.856626 0.321202 0.120943
0.861921 0.322255 0.121019
0.867155 0.323232 0.121035
0.872084 0.324056 0.120958
0.876661 0.324666 0.12076
0.88101 0.325017 0.1205
0.88455 0.32517 0.120287
0.886275 0.325582 0.120394
0.0335851 0.284459 0.0380102
0.0554971 0.277974 0.0324102
0.0972457 0.27454 0.029099
0.151247 0.270649 0.0311284
0.206683 0.265904 0.0366979
0.255009 0.261265 0.043122
0.294224 0.257664 0.0487984
0.32636 0.255268 0.0527657
0.350652 0.253071 0.0547646
0.371633 0.252049 0.0574807
0.390402 0.252674 0.0620127
0.409155 0.254536 0.066865
0.429114 0.257481 0.0708934
0.449928 0.261738 0.0744335
0.470558 0.266804 0.077821
0.490257 0.271717 0.080827
0.509758 0.27657 0.08365
0.528084 0.280613 0.0861677
0.545495 0.284169 0.0885176
0.56202 0.287617 0.0907454
0.57731 0.291035 0.0928206
0.590906 0.294224 0.0946822
0.603143 0.297261 0.0963455
0.614572 0.299977 0.0979629
0.625315 0.302296 0.0995346
0.63566 0.30425 0.101076
0.645701 0.305867 0.102571
0.65536 0.30724 0.10399
0.664546 0.308629 0.105272
0.67332 0.310109 0.106432
0.681895 0.31162 0.1075
0.690272 0.313146 0.108507
0.698375 0.314626 0.109438
0.706264 0.316091 0.110307
0.713863 0.317571 0.111131
0.721309 0.319051 0.111925
0.728771 0.320684 0.112718
0.736141 0.322332 0.113481
0.743404 0.323842 0.114229
0.750576 0.324987 0.114961
0.757671 0.325719 0.115694
0.764736 0.326299 0.116426
0.771634 0.326772 0.117098
0.778393 0.327047 0.117739
0.785046 0.327276 0.118334
0.791562 0.327504 0.118883
0.797742 0.327901 0.119371
0.803647 0.328466 0.119783
0.809476 0.329046 0.120134
0.815259 0.329717 0.120485
0.820981 0.330434 0.120806
0.826596 0.331258 0.121096
0.832151 0.332128 0.12137
0.837659 0.333013 0.12163
0.843153 0.333944 0.121874
0.848554 0.334936 0.122087
0.853849 0.335912 0.12224
0.859083 0.336889 0.122393
0.864271 0.33785 0.122499
0.869398 0.338811 0.12256
0.874266 0.339712 0.122576
0.878828 0.34049 0.122499
0.883085 0.341115 0.122377
0.886564 0.341527 0.122255
0.888212 0.342016 0.122393
0.0351263 0.302617 0.0392767
0.0585794 0.295979 0.032929
0.100969 0.292287 0.0292821
0.154376 0.287999 0.0306249
0.208774 0.283009 0.0353857
0.256458 0.278401 0.0412604
0.29575 0.274907 0.0468452
0.328618 0.272618 0.051133
0.355535 0.269947 0.0540017
0.379004 0.268299 0.0564584
0.399512 0.267887 0.0602731
0.418143 0.268727 0.0652323
0.436469 0.270939 0.0702831
0.455894 0.274678 0.0746471
0.476249 0.279622 0.0782788
0.495262 0.28452 0.0814984
0.514183 0.289723 0.0844892
0.532189 0.29427 0.0871595
0.549386 0.298161 0.089601
0.565682 0.301701 0.0918441
0.58088 0.305058 0.0938888
0.594842 0.30808 0.0957504
0.607584 0.311086 0.0974136
0.619272 0.313954 0.0990463
0.630106 0.316457 0.100587
0.640391 0.318624 0.102098
0.650309 0.32047 0.103563
0.659892 0.322087 0.104982
0.669017 0.323507 0.106279
0.677806 0.324987 0.107454
0.686397 0.326543 0.108553
0.694759 0.328145 0.10959
0.702876 0.329732 0.110552
0.710735 0.331289 0.111467
0.718318 0.332845 0.112337
0.725765 0.334371 0.113191
0.733135 0.336141 0.114015
0.740383 0.337926 0.114809
0.747524 0.339635 0.115572
0.75462 0.3411 0.11632
0.761669 0.342245 0.117067
0.768688 0.343206 0.1178
0.775586 0.343969 0.118502
0.782422 0.344411 0.119188
0.789151 0.344656 0.119829
0.795712 0.344869 0.120439
0.801923 0.345235 0.120958
0.807813 0.345754 0.121401
0.813596 0.346242 0.121798
0.819303 0.346822 0.122179
0.824933 0.347433 0.12253
0.830457 0.348104 0.12282
0.83592 0.348852 0.12311
0.841321 0.349615 0.123369
0.846662 0.350408 0.123613
0.851942 0.351232 0.123812
0.85713 0.352071 0.12398
0.862257 0.35288 0.124117
0.867323 0.353704 0.124224
0.872328 0.354543 0.124269
0.877104 0.355337 0.124269
0.881605 0.356085 0.124239
0.88574 0.356786 0.124178
0.889128 0.357321 0.124117
0.890684 0.357839 0.124285
0.037644 0.319509 0.0416419
0.062501 0.312688 0.0343481
0.106096 0.308782 0.0305333
0.160006 0.304219 0.0313573
0.214176 0.299062 0.035523
0.261295 0.294469 0.0411078
0.300084 0.291051 0.0466468
0.332464 0.288808 0.0511177
0.361044 0.28632 0.0544594
0.385412 0.284764 0.0572976
0.407477 0.283467 0.0600137
0.427436 0.283238 0.0637827
0.445518 0.284733 0.0690623
0.463066 0.287816 0.0748455
0.482292 0.292241 0.0787823
0.50103 0.297108 0.0823224
0.519341 0.302129 0.0854353
0.536828 0.306981 0.0882582
0.553628 0.311559 0.0907912
0.569589 0.315633 0.0930343
0.584619 0.319097 0.0950484
0.598749 0.322057 0.0969558
0.611795 0.325032 0.0987106
0.623865 0.328008 0.100359
0.635035 0.330739 0.101884
0.645426 0.33312 0.103349
0.655268 0.335164 0.104784
0.66479 0.33698 0.106172
0.673915 0.338506 0.107485
0.682704 0.339895 0.10869
0.691264 0.341375 0.109834
0.699565 0.342962 0.110903
0.707591 0.344564 0.111894
