_SYSTEM/luts/NORMAL -1_0 SCENE 02.cube
TITLE "Generated by Resolve"
LUT_3D_SIZE 5
0.00199893 0.00128176 0.00157168
0.457145 0.0620584 0.0348821
0.717769 0.113268 0.0462654
0.826947 0.108278 0.0377661
0.883177 0.0750286 0.0328679
0.0591745 0.370794 0.065507
0.514199 0.327993 0.0678416
0.717128 0.36733 0.102312
0.861585 0.36875 0.101839
0.903777 0.339879 0.0560006
0.129503 0.535485 0.131807
0.558785 0.516274 0.0938582
0.772961 0.534356 0.135836
0.900343 0.558038 0.139178
0.941497 0.55433 0.113161
0.16405 0.660395 0.144366
0.56527 0.649317 0.0928664
0.784817 0.676127 0.128069
0.920913 0.707362 0.152331
0.969085 0.729747 0.157717
0.202838 0.746197 0.170306
0.573648 0.750011 0.0987411
0.801129 0.791821 0.163607
0.934249 0.838224 0.217411
0.987213 0.869276 0.214115
0.00445563 0.098085 0.382193
0.452201 0.111147 0.304616
0.65127 0.162448 0.282475
0.772763 0.163668 0.28336
0.808209 0.0946365 0.223285
0.0719615 0.399268 0.389441
0.390738 0.392035 0.364675
0.684581 0.371328 0.291341
0.858061 0.373007 0.268894
0.924285 0.3449 0.218997
0.116747 0.576852 0.406653
0.389944 0.585534 0.317678
0.699443 0.56701 0.276555
0.878645 0.567346 0.268254
0.958267 0.568841 0.238193
0.128023 0.702037 0.393393
0.402152 0.717296 0.287221
0.694652 0.715419 0.257557
0.898314 0.730373 0.251057
0.976776 0.756817 0.268025
0.146624 0.781262 0.407019
0.423163 0.818555 0.273594
0.717189 0.85066 0.310811
0.906096 0.877211 0.341024
0.989273 0.90837 0.329656
0 0.120455 0.60148
0.370947 0.0977798 0.564019
0.614679 0.169467 0.452232
0.736553 0.172473 0.452567
0.792111 0.148119 0.455695
0.0523842 0.401404 0.536278
0.315892 0.412512 0.576333
0.645212 0.384024 0.51342
0.827176 0.387182 0.435981
0.897551 0.360311 0.378393
0.126757 0.572717 0.581262
0.337743 0.59971 0.592187
0.638758 0.624384 0.588037
0.864744 0.56994 0.479332
0.949996 0.567636 0.440421
0.129381 0.705257 0.604349
0.323705 0.743572 0.545068
0.602319 0.75877 0.485832
0.858122 0.743587 0.4486
0.95227 0.768215 0.450767
0.151949 0.792599 0.637018
0.344701 0.826001 0.511971
0.651652 0.867018 0.509316
0.866545 0.884962 0.501656
0.98468 0.92311 0.487602
0 0.189609 0.753429
0.225345 0.0625772 0.580438
0.538247 0.085069 0.548074
0.713237 0.156329 0.547845
0.781338 0.168536 0.557946
0.0265507 0.222614 0.531914
0.198154 0.306798 0.649195
0.511772 0.366476 0.698009
0.76022 0.359472 0.616327
0.841642 0.322744 0.533806
0.109422 0.551125 0.659159
0.323568 0.577646 0.73109
0.549233 0.605371 0.76173
0.819104 0.56437 0.72166
0.932738 0.563653 0.653361
0.136751 0.697978 0.695872
0.305577 0.722255 0.738857
0.552087 0.759823 0.772839
0.835554 0.808042 0.787274
0.923674 0.762615 0.691341
0.17026 0.798947 0.74519
0.342885 0.840238 0.737911
0.592142 0.868925 0.737392
0.819501 0.895308 0.708278
0.957366 0.918761 0.674784
0 0.203159 0.813947
0.299336 0.132326 0.671794
0.397345 0.0624247 0.471015
0.573739 0.074403 0.511696
0.729946 0.104829 0.563302
0.0284733 0.213092 0.528847
0.0680095 0.149783 0.581659
0.227634 0.119615 0.596872
0.549203 0.179446 0.626963
0.735393 0.246052 0.611734
0.0585489 0.474907 0.651438
0.197009 0.476616 0.713375
0.48687 0.56022 0.815869
0.739727 0.559258 0.844724
0.905608 0.559045 0.834867
0.112169 0.672877 0.71104
0.285313 0.692134 0.773953
0.5505 0.753445 0.838727
0.760723 0.759152 0.844907
0.913375 0.767742 0.876783
0.181628 0.791455 0.781613
0.37113 0.820157 0.813413
0.614969 0.852705 0.858656
0.808225 0.892943 0.890669
0.971069 0.955108 0.94815
