_SYSTEM/luts/NORMAL -1_0 SKIN.cube
TITLE "Generated by Resolve"
LUT_3D_SIZE 9
0.0108034 0.0062562 0.00888075
0.280278 0.0446937 0.0312047
0.481666 0.0783398 0.0500496
0.629786 0.120592 0.074052
0.710552 0.153811 0.0967575
0.759503 0.173526 0.109804
0.798764 0.174685 0.110277
0.829602 0.165637 0.106752
0.858137 0.171542 0.111009
0.0345617 0.221973 0.0411841
0.324727 0.201938 0.0636606
0.498619 0.233417 0.0814832
0.614282 0.256031 0.0971542
0.68629 0.265415 0.107485
0.748058 0.270588 0.1131
0.800214 0.278264 0.116762
0.847776 0.289647 0.118517
0.882963 0.290074 0.11603
0.0516976 0.362142 0.0558938
0.377859 0.333501 0.0609293
0.53843 0.340673 0.0857252
0.648966 0.373098 0.10634
0.723842 0.390173 0.117571
0.781323 0.402502 0.125093
0.831769 0.411093 0.129534
0.873106 0.416587 0.131212
0.903716 0.419944 0.1308
0.108675 0.443915 0.114076
0.416068 0.437201 0.0876326
0.581415 0.455619 0.106355
0.688716 0.474235 0.119936
0.759564 0.494697 0.134356
0.817853 0.511162 0.143221
0.864927 0.521523 0.147494
0.902708 0.529915 0.147066
0.928145 0.532906 0.142962
0.157549 0.510719 0.159045
0.447211 0.521431 0.111559
0.61236 0.552239 0.128954
0.718837 0.564858 0.139849
0.788418 0.576852 0.149493
0.842496 0.588815 0.155566
0.884886 0.597086 0.155932
0.917876 0.602289 0.151919
0.939773 0.604425 0.145098
0.18851 0.578714 0.184024
0.477684 0.593637 0.13402
0.636652 0.628977 0.146517
0.741024 0.643473 0.161273
0.808469 0.648844 0.161349
0.860777 0.652171 0.160006
0.899565 0.655467 0.157748
0.928512 0.658274 0.151858
0.948592 0.659998 0.144503
0.215122 0.64062 0.202411
0.509697 0.657526 0.153521
0.657969 0.692317 0.160632
0.755703 0.703548 0.173419
0.822705 0.708354 0.171298
0.874372 0.708507 0.162875
0.910948 0.708202 0.156939
0.93727 0.70869 0.150286
0.955779 0.709712 0.143343
0.236973 0.695949 0.214755
0.536233 0.715648 0.166583
0.672984 0.742489 0.168048
0.768521 0.753033 0.179492
0.835966 0.758663 0.178973
0.884855 0.758648 0.168963
0.919203 0.757824 0.160098
0.944167 0.757244 0.152468
0.961547 0.757168 0.14583
0.252918 0.739284 0.220096
0.550011 0.761364 0.170092
0.683696 0.782773 0.168795
0.778149 0.791897 0.177829
0.846098 0.796963 0.177646
0.893706 0.798138 0.170016
0.926207 0.798352 0.163165
0.949981 0.798505 0.156756
0.966186 0.798871 0.150286
0.0276493 0.0808576 0.302419
0.289937 0.0645609 0.222324
0.473518 0.100465 0.170718
0.586694 0.140642 0.190082
0.645701 0.170596 0.208377
0.692699 0.19527 0.219287
0.740871 0.202548 0.22504
0.778912 0.189181 0.209445
0.809262 0.19176 0.210925
0.0540017 0.252171 0.257694
0.217716 0.221805 0.203067
0.452064 0.220935 0.172198
0.58648 0.239551 0.177066
0.664393 0.254932 0.185306
0.727687 0.268315 0.191348
0.783215 0.279652 0.195499
0.836179 0.290272 0.199619
0.877897 0.296681 0.201572
0.0770123 0.396048 0.288136
0.235996 0.361578 0.203357
0.467628 0.347234 0.171725
0.602487 0.370581 0.189181
0.689891 0.382849 0.194965
0.756817 0.393698 0.200946
0.816205 0.402441 0.206302
0.865263 0.408957 0.208621
0.902983 0.411963 0.208591
0.12137 0.491722 0.32752
0.283345 0.482795 0.236667
0.493599 0.47599 0.189319
0.634577 0.483192 0.19147
0.719051 0.497414 0.205219
0.785809 0.511604 0.213703
0.842374 0.519768 0.218341
0.890364 0.527031 0.218997
0.924971 0.529854 0.216022
0.158251 0.565759 0.351186
0.322042 0.57174 0.268223
0.521294 0.577173 0.218601
0.663081 0.585367 0.212512
0.749615 0.590906 0.216831
0.811597 0.598444 0.221775
0.864179 0.604669 0.222614
0.907362 0.608881 0.22063
0.937804 0.611124 0.216037
0.184939 0.634913 0.370413
0.358526 0.649256 0.294392
0.550072 0.66038 0.242145
0.685191 0.666743 0.236133
0.770916 0.66981 0.232197
0.834165 0.669734 0.229068
0.883314 0.670161 0.227451
0.921706 0.671321 0.223224
0.948867 0.672023 0.216999
0.208621 0.695827 0.385336
0.393851 0.714641 0.309758
0.577768 0.728832 0.260914
0.704051 0.731182 0.253819
0.787366 0.733349 0.247639
0.851484 0.73225 0.238682
0.898131 0.7299 0.232273
0.932937 0.728634 0.226429
0.956954 0.728222 0.219547
0.229694 0.751202 0.394263
0.426047 0.771954 0.316899
0.601617 0.784573 0.27396
0.722057 0.787182 0.268528
0.803326 0.788952 0.264302
0.865049 0.787762 0.252872
0.909667 0.786389 0.243305
0.942428 0.785428 0.235691
0.964279 0.784039 0.228305
0.244297 0.795071 0.393118
0.445212 0.817426 0.312276
0.616053 0.827878 0.274479
0.735439 0.83154 0.271763
0.815518 0.833722 0.269688
0.875822 0.833661 0.261448
0.918349 0.832792 0.251987
0.949737 0.833539 0.245533
0.969573 0.832593 0.237858
0.0211185 0.11136 0.48777
0.2448 0.100221 0.476814
0.471717 0.125521 0.344335
0.573724 0.172061 0.302174
0.617655 0.193439 0.296757
0.6795 0.204273 0.297368
0.718578 0.215122 0.30399
0.761685 0.211109 0.302296
0.790448 0.21062 0.294743
0.038407 0.284581 0.420706
0.176287 0.269932 0.387335
0.397208 0.231876 0.315892
0.5505 0.248127 0.281743
0.636011 0.268925 0.281376
0.704417 0.284077 0.285191
0.755505 0.299351 0.286046
0.803143 0.313985 0.287816
0.844709 0.323186 0.287449
0.0950637 0.404196 0.403311
0.212772 0.390951 0.384573
0.403937 0.396139 0.374395
0.594339 0.381826 0.32369
0.688121 0.392172 0.319524
0.760098 0.405341 0.325414
0.817929 0.413092 0.327703
0.864866 0.421485 0.326635
0.90161 0.426062 0.321462
0.137011 0.504402 0.438529
0.259815 0.511406 0.411505
0.428046 0.52134 0.375387
0.616205 0.507149 0.332143
0.712657 0.513344 0.338186
0.787884 0.524132 0.340764
0.847623 0.528832 0.34316
0.894652 0.532113 0.340795
0.928923 0.53315 0.334966
0.170092 0.587594 0.469154
0.301701 0.605493 0.435599
0.464073 0.613809 0.385153
0.626398 0.604562 0.347021
0.733501 0.606516 0.342565
0.805066 0.611719 0.346197
0.863554 0.617151 0.345617
0.908492 0.620096 0.341375
0.940444 0.621317 0.334524
0.19704 0.65893 0.492134
0.338903 0.682811 0.455329
0.497322 0.694163 0.396933
0.649729 0.687907 0.365621
0.751537 0.685527 0.351385
0.824491 0.685328 0.347738
0.879057 0.684596 0.345861
0.920775 0.684642 0.3411
0.950027 0.685191 0.335332
0.217929 0.718853 0.509377
0.373617 0.748852 0.469291
0.527306 0.756283 0.408362
0.673167 0.754131 0.380423
0.76875 0.751171 0.368078
0.840467 0.748943 0.356695
0.892576 0.745235 0.348638
0.931167 0.742977 0.344564
0.957732 0.742153 0.339467
0.235004 0.773434 0.520317
0.401938 0.806149 0.470924
0.555169 0.812268 0.418814
0.692744 0.813321 0.391287
0.782895 0.810391 0.382864
0.852522 0.808164 0.373342
0.903456 0.804852 0.360464
0.940246 0.802319 0.354055
0.964965 0.800214 0.349218
0.244282 0.815976 0.521553
0.418799 0.851438 0.463584
0.573343 0.858839 0.418952
0.706081 0.861357 0.39556
0.793515 0.858412 0.389319
0.861311 0.855772 0.383459
0.911711 0.853498 0.37261
0.947463 0.852522 0.366445
0.970291 0.850843 0.360784
0.0215763 0.133349 0.617899
0.208957 0.125811 0.602548
0.444633 0.148348 0.495933
0.558877 0.194339 0.409583
0.624033 0.219379 0.384726
0.675349 0.2327 0.381994
0.721569 0.244205 0.380835
0.770138 0.249821 0.385611
0.801831 0.250889 0.384482
0.0339361 0.302525 0.533791
0.178256 0.29865 0.505425
0.347997 0.27303 0.451926
0.517678 0.263066 0.39086
0.618265 0.277989 0.364889
0.679545 0.293996 0.357061
0.730495 0.309789 0.356542
0.778714 0.324849 0.357168
0.818524 0.336065 0.355245
0.107561 0.424231 0.487877
0.226368 0.418662 0.485878
0.356008 0.426322 0.492668
0.545754 0.391302 0.440711
0.669367 0.400351 0.420447
0.746563 0.419989 0.417578
0.802762 0.434607 0.420279
0.849699 0.445029 0.418601
0.884642 0.451041 0.412284
0.152224 0.511086 0.507469
0.265248 0.523919 0.518593
0.401343 0.54876 0.538766
0.587701 0.559335 0.528893
0.715419 0.530327 0.47306
0.784695 0.532738 0.462455
0.848692 0.539376 0.459693
0.89546 0.543511 0.455924
0.928252 0.545846 0.450904
0.176043 0.595254 0.543954
0.300359 0.62298 0.553658
0.43949 0.63975 0.546227
0.596475 0.65774 0.526665
0.736187 0.636942 0.482612
0.799985 0.625681 0.476493
0.863233 0.628046 0.468437
0.909575 0.629328 0.46334
0.941741 0.629664 0.45774
0.201801 0.669612 0.575051
0.336309 0.703624 0.578866
0.475441 0.719371 0.553582
0.612284 0.714626 0.516991
0.72874 0.708797 0.48719
0.812696 0.701274 0.47747
0.873121 0.698787 0.470314
0.917998 0.698451 0.464424
0.948455 0.698573 0.459388
0.224002 0.731334 0.598581
0.36817 0.769436 0.59295
0.505943 0.78175 0.555962
0.635676 0.781323 0.516411
0.742016 0.772305 0.496071
0.825452 0.7664 0.481209
0.885008 0.761746 0.470878
0.926726 0.757992 0.465705
0.955795 0.756771 0.462348
0.24097 0.786847 0.61471
0.39443 0.826032 0.5953
0.531899 0.83798 0.554986
0.655436 0.840238 0.516609
0.757168 0.832624 0.498817
0.83563 0.826062 0.487602
0.894224 0.821729 0.474678
0.935515 0.818387 0.470497
0.962783 0.815534 0.469123
0.246616 0.827893 0.61828
0.406226 0.868681 0.588617
0.54522 0.881498 0.548989
0.669123 0.884901 0.515785
0.768475 0.88014 0.499794
0.843153 0.873014 0.490593
0.900465 0.869398 0.482261
0.941588 0.867521 0.479118
0.968093 0.865049 0.477531
0.0231022 0.148455 0.685817
0.169329 0.138811 0.662882
0.404562 0.159594 0.592004
0.541375 0.199878 0.509209
0.621775 0.231739 0.460151
0.684062 0.24799 0.451331
0.732815 0.259266 0.451881
0.774624 0.268391 0.453452
0.807019 0.273732 0.453956
0.0331121 0.256443 0.61062
0.175341 0.299611 0.589517
0.326101 0.307759 0.535225
0.491524 0.28893 0.489815
0.606104 0.293233 0.450736
0.679698 0.30724 0.430686
0.733379 0.322454 0.424857
0.783185 0.337865 0.425101
0.823865 0.349203 0.421363
0.11516 0.438865 0.552468
0.235355 0.440909 0.55935
0.35996 0.445396 0.575021
0.515602 0.418921 0.555306
0.652857 0.408835 0.514443
0.739055 0.423438 0.496269
0.796139 0.436851 0.488823
0.843915 0.447654 0.483253
0.879881 0.454871 0.474845
0.166552 0.522866 0.562432
0.279271 0.53576 0.586999
0.403708 0.556298 0.601312
0.538521 0.575113 0.621164
0.683818 0.541421 0.571756
0.770764 0.538277 0.545983
0.843488 0.547692 0.541268
0.892485 0.553765 0.536995
0.925765 0.556344 0.531151
0.186343 0.599847 0.595605
0.309575 0.627985 0.625406
0.44242 0.649592 0.638346
0.575082 0.681483 0.668132
0.727001 0.679072 0.648096
0.812497 0.643214 0.588968
0.8589 0.634455 0.568093
0.909606 0.634089 0.559106
0.942748 0.633539 0.552361
0.204746 0.67306 0.62858
0.339178 0.712993 0.658015
0.469245 0.732433 0.659007
0.590616 0.739605 0.648493
0.72282 0.759777 0.640406
0.832258 0.737987 0.601938
0.869383 0.711116 0.578332
0.91458 0.706264 0.565728
0.947341 0.704158 0.557214
0.226307 0.736461 0.656107
0.366125 0.778714 0.67483
0.497887 0.795438 0.66334
0.612696 0.797498 0.635248
0.719219 0.793698 0.614557
0.815534 0.792325 0.59527
0.876448 0.777768 0.581537
0.920897 0.770642 0.571237
0.953613 0.767941 0.56405
0.244388 0.792462 0.675563
0.391073 0.835523 0.679088
0.520256 0.84947 0.658137
0.629999 0.854414 0.626413
0.732631 0.849363 0.604288
0.816724 0.840696 0.590036
0.883299 0.836545 0.579126
0.930327 0.832914 0.571786
0.96051 0.828672 0.566506
0.249454 0.833951 0.68336
0.400229 0.876554 0.67512
0.529397 0.891524 0.649958
0.641688 0.898573 0.61796
0.742458 0.896086 0.595392
0.827359 0.888106 0.582773
0.891554 0.883009 0.575418
0.93724 0.881285 0.572122
0.965545 0.878126 0.569543
0.0236362 0.160662 0.698848
0.130999 0.142153 0.653162
0.323888 0.157595 0.631891
0.513436 0.19733 0.589746
0.616464 0.229374 0.544427
0.685252 0.253529 0.511589
0.734783 0.265431 0.503243
0.777966 0.275624 0.505806
0.808118 0.283177 0.506142
0.0346838 0.21471 0.605035
0.123781 0.209277 0.629053
0.310887 0.275044 0.632776
0.471336 0.307561 0.578912
0.58996 0.312657 0.539437
0.675669 0.322927 0.512963
0.73312 0.337835 0.495827
0.78497 0.353231 0.49102
0.826322 0.364492 0.484886
0.114778 0.426886 0.619013
0.237583 0.452811 0.624063
0.364965 0.466926 0.644831
0.499962 0.446174 0.636347
0.635065 0.430426 0.61207
0.732692 0.433341 0.57763
0.797269 0.445197 0.559945
0.846357 0.454856 0.547982
0.882231 0.461051 0.535103
0.175525 0.536477 0.611627
0.286915 0.55021 0.639887
0.412268 0.571969 0.668894
0.525856 0.579065 0.674937
0.656718 0.557809 0.662287
0.760906 0.545251 0.625803
0.836484 0.54963 0.609018
0.889586 0.55584 0.600229
0.923888 0.557977 0.590661
0.199771 0.607477 0.641443
0.324071 0.63447 0.677943
0.456031 0.655589 0.700359
0.564141 0.67364 0.709285
0.679026 0.685679 0.726909
0.789853 0.653498 0.678401
0.852583 0.640696 0.643244
0.908248 0.640192 0.632746
0.943313 0.639567 0.625193
0.215671 0.675959 0.672984
0.351186 0.71516 0.712627
0.477607 0.732906 0.728588
0.587762 0.742336 0.730129
0.703517 0.777111 0.767636
0.834501 0.782605 0.761547
0.885954 0.733852 0.687785
0.910262 0.714137 0.653513
0.947234 0.71017 0.642451
0.23006 0.738857 0.702007
0.367498 0.782238 0.734081
0.495354 0.799908 0.742748
0.603403 0.806928 0.734752
0.699535 0.817182 0.734173
0.829984 0.849317 0.745541
0.908202 0.827771 0.708141
0.918318 0.78407 0.66659
0.950286 0.77792 0.653361
0.246983 0.79411 0.722667
0.387503 0.839506 0.74229
0.515389 0.854109 0.741176
0.61532 0.862669 0.728557
0.710521 0.859632 0.706508
0.80502 0.858549 0.694102
0.88484 0.863569 0.684779
0.925032 0.848035 0.669245
0.955993 0.840787 0.657282
0.252064 0.836042 0.733425
0.395956 0.88011 0.741833
0.521416 0.895079 0.735134
0.622751 0.905196 0.71632
0.720363 0.904799 0.691188
0.814633 0.899245 0.675563
0.882582 0.894118 0.668452
0.931029 0.893462 0.66363
0.962325 0.891096 0.656184
0.0274205 0.297597 0.846555
0.148089 0.167468 0.634928
0.223514 0.154086 0.603861
0.410971 0.166583 0.602182
0.574273 0.207416 0.608774
0.679606 0.240528 0.584543
0.73962 0.264775 0.562417
0.782116 0.280613 0.553368
0.811139 0.290028 0.551675
0.0392004 0.214252 0.566781
0.106447 0.199252 0.579705
0.212558 0.21973 0.632029
0.42446 0.256458 0.654719
0.570413 0.296925 0.642008
0.668299 0.326711 0.60148
0.733181 0.349798 0.570245
0.787442 0.364782 0.557748
0.830381 0.376196 0.551385
0.0939498 0.314031 0.627726
0.174166 0.354192 0.666178
0.347921 0.439277 0.709117
0.493233 0.462943 0.706386
0.618463 0.457252 0.691157
0.720226 0.451987 0.661433
0.794751 0.45948 0.635554
0.847288 0.467903 0.618097
0.883482 0.472602 0.602762
0.17229 0.53959 0.664576
0.290288 0.56231 0.691295
0.420508 0.587747 0.729519
0.535988 0.591791 0.744228
0.645304 0.577417 0.74316
0.751369 0.560311 0.719097
0.831189 0.557305 0.686213
0.888533 0.560265 0.664805
0.923079 0.561303 0.650156
0.208057 0.617014 0.684123
0.334783 0.644388 0.723247
0.46392 0.666194 0.754849
0.567346 0.679561 0.763165
0.65565 0.68098 0.765972
0.764401 0.658289 0.748898
0.844633 0.646693 0.718547
0.903777 0.642786 0.70396
0.943053 0.641443 0.693324
0.229831 0.6795 0.712505
0.367544 0.717144 0.755993
0.494163 0.733974 0.781842
0.597238 0.745113 0.786206
0.682124 0.759686 0.793652
0.785336 0.771069 0.820417
0.870497 0.745998 0.776867
0.907164 0.723278 0.732219
0.946899 0.717037 0.719524
0.244068 0.739254 0.739651
0.382574 0.780743 0.779171
0.507485 0.797818 0.801114
0.607034 0.807294 0.805829
0.694926 0.815106 0.807187
0.813596 0.858991 0.858198
0.922683 0.876234 0.869978
0.936858 0.813291 0.778027
0.947188 0.789563 0.742718
0.252705 0.794171 0.761624
0.388266 0.839414 0.792844
0.513893 0.854719 0.806363
0.61149 0.86421 0.810849
0.699916 0.866484 0.803876
0.792401 0.880354 0.808392
0.916854 0.921645 0.84416
0.957397 0.900374 0.800885
0.953521 0.855573 0.75462
0.256397 0.83473 0.773831
0.393393 0.880903 0.79733
0.517754 0.895659 0.804364
0.616663 0.906493 0.805234
0.703868 0.910582 0.795071
0.79704 0.907057 0.774777
0.876463 0.906691 0.772122
0.935546 0.915785 0.770428
0.958099 0.903792 0.755184
0.0364996 0.335821 0.865629
0.264439 0.286824 0.820127
0.306462 0.233692 0.646983
0.299519 0.151568 0.564416
0.430381 0.165942 0.595743
0.592279 0.199847 0.609659
0.702876 0.231769 0.612024
0.774975 0.260914 0.606317
0.812909 0.281682 0.598535
0.0699931 0.376516 0.687694
0.153704 0.291096 0.623667
0.175937 0.216114 0.587121
0.293828 0.212345 0.623072
0.47248 0.249378 0.662608
0.621363 0.29337 0.671748
0.722255 0.330434 0.64715
0.789883 0.361166 0.624094
0.834211 0.382116 0.607904
0.0922713 0.272786 0.605661
0.147402 0.281285 0.633661
0.25803 0.342412 0.693996
0.421042 0.383902 0.733883
0.580972 0.422614 0.754726
0.704402 0.452277 0.745052
0.789364 0.469108 0.714961
0.849653 0.479026 0.688945
0.886687 0.481437 0.668986
0.142092 0.45623 0.693553
0.243503 0.500511 0.72958
0.407675 0.577707 0.78407
0.543465 0.606271 0.808942
0.642435 0.595499 0.814145
0.73846 0.579644 0.803098
0.823453 0.570428 0.770169
0.885832 0.570016 0.742855
0.922698 0.56875 0.721462
0.210819 0.625193 0.724819
0.342199 0.65304 0.765911
0.469383 0.676493 0.80676
0.574411 0.687419 0.825666
0.658015 0.685481 0.833402
0.748547 0.669917 0.830549
0.8365 0.65362 0.807218
0.90074 0.647517 0.783673
0.942031 0.644785 0.76849
0.238727 0.685389 0.749462
0.378485 0.720607 0.797391
0.5019 0.738521 0.82977
0.602579 0.750942 0.842176
0.677943 0.759014 0.843824
0.752148 0.756146 0.844541
0.84271 0.738872 0.832914
0.901884 0.726619 0.809476
0.945464 0.721202 0.798962
0.259159 0.740337 0.774243
0.402228 0.7785 0.820905
0.524224 0.795758 0.848096
0.622171 0.805936 0.859205
0.69984 0.814572 0.857008
0.775189 0.827649 0.866072
0.873259 0.845594 0.900771
0.928374 0.825833 0.867247
0.945998 0.802762 0.827054
0.268803 0.792432 0.796002
0.405631 0.835065 0.836423
0.525856 0.852399 0.858778
0.621393 0.861769 0.871977
0.704677 0.867674 0.872328
0.787045 0.875029 0.870848
0.901762 0.923766 0.929549
0.968475 0.938003 0.945296
0.970291 0.888716 0.874907
0.267674 0.832929 0.810269
0.400824 0.877806 0.844633
0.52076 0.894347 0.861143
0.618173 0.905028 0.873396
0.701106 0.911818 0.876921
0.786694 0.913191 0.86836
0.868772 0.925109 0.872572
0.962386 0.96347 0.910018
0.980789 0.953231 0.886305
0.0452583 0.351217 0.863798
0.272633 0.305974 0.823331
0.404273 0.302617 0.748669
0.387228 0.219364 0.624689
0.347784 0.156176 0.568795
0.445304 0.165118 0.592844
0.622843 0.203647 0.621027
0.727932 0.234653 0.630838
0.796201 0.264973 0.634485
0.0966049 0.432303 0.744595
0.206775 0.40618 0.749187
0.253788 0.323781 0.68397
0.248783 0.215473 0.60264
0.347311 0.215778 0.629099
0.499626 0.244388 0.662913
0.645716 0.280919 0.673457
0.756603 0.322011 0.673793
0.829725 0.363729 0.663172
0.100786 0.296391 0.606256
0.153613 0.291112 0.625071
0.212634 0.294972 0.669566
0.335454 0.317845 0.715434
0.476814 0.349462 0.740749
0.633463 0.395789 0.767315
0.757473 0.439063 0.770504
0.842222 0.470741 0.750774
0.887648 0.484947 0.725978
0.125704 0.395514 0.692424
0.20116 0.41735 0.721233
0.32105 0.465583 0.773785
0.492775 0.532647 0.835538
0.627207 0.574899 0.86331
0.729519 0.591043 0.86334
0.81503 0.584527 0.839796
0.882078 0.578988 0.809171
0.922911 0.575631 0.785031
0.198184 0.611246 0.759518
0.327993 0.642557 0.805035
0.466529 0.678828 0.850111
0.578958 0.694652 0.876341
0.663279 0.692088 0.889586
0.744915 0.680018 0.890272
0.826291 0.664195 0.879896
0.896284 0.652583 0.855268
0.9411 0.648737 0.836774
0.241749 0.691081 0.7794
0.385122 0.72398 0.832502
0.505425 0.743175 0.868406
0.604883 0.756512 0.888334
0.680949 0.762371 0.89572
0.75256 0.756863 0.896773
0.830045 0.741909 0.8925
0.899077 0.727626 0.879454
0.945098 0.722332 0.868238
0.265309 0.743465 0.803555
0.410712 0.779065 0.855543
0.529976 0.796918 0.884367
0.627161 0.808957 0.901152
0.702281 0.818021 0.902464
0.768353 0.824231 0.901442
0.835187 0.821454 0.901854
0.9028 0.811658 0.896788
0.944518 0.804501 0.886442
0.277424 0.791897 0.82266
0.41976 0.832029 0.869795
0.535698 0.84976 0.894942
0.632563 0.859556 0.911986
0.714626 0.866941 0.9149
0.789258 0.873426 0.907912
0.854353 0.883619 0.915755
0.938018 0.908309 0.954849
0.965057 0.891966 0.93373
0.276555 0.830808 0.835203
0.412711 0.873732 0.877501
0.529854 0.891966 0.898711
0.629374 0.902083 0.914275
0.711147 0.909392 0.921111
0.792233 0.912978 0.916197
0.859312 0.918471 0.913909
0.95613 0.964584 0.970016
0.990982 0.978286 0.982361
