_SYSTEM/luts/NORMAL -1_0 SCENE 01.cube
TITLE "Generated by Resolve"
LUT_3D_SIZE 65
0.0041352 0.00231937 0.00297551
0.0650034 0.0231632 0.00421149
0.137011 0.0213779 0.00656138
0.177218 0.0236973 0.0135195
0.2056 0.032517 0.0219577
0.234195 0.039353 0.0264744
0.260227 0.0444495 0.0299229
0.286046 0.047837 0.0318151
0.311604 0.0506905 0.0334173
0.336934 0.0525673 0.0346532
0.363226 0.0552224 0.0356909
0.388754 0.0561837 0.035996
0.414511 0.0573281 0.0361028
0.441474 0.0607919 0.0367437
0.466789 0.0635233 0.0368048
0.491096 0.0660716 0.036759
0.513832 0.068864 0.0369573
0.535943 0.0718395 0.0376745
0.55729 0.0744335 0.0384527
0.577768 0.0777142 0.0391546
0.598016 0.0815137 0.0399481
0.616388 0.0847028 0.0405737
0.633143 0.0877089 0.0410773
0.648997 0.0907759 0.0415961
0.664118 0.0938888 0.0420539
0.678813 0.0974289 0.0426032
0.691432 0.101274 0.0433051
0.703212 0.105409 0.0444495
0.713878 0.109697 0.0461738
0.723842 0.113664 0.0479438
0.733394 0.117662 0.0496681
0.741955 0.120531 0.0512093
0.749981 0.12282 0.052903
0.757397 0.124575 0.0544137
0.764431 0.125383 0.0559548
0.770764 0.126757 0.0574502
0.776379 0.129229 0.0590677
0.781949 0.13193 0.0605478
0.787503 0.135225 0.0616464
0.792935 0.138674 0.062562
0.798306 0.141573 0.0633097
0.803265 0.14374 0.0635691
0.808789 0.144411 0.0634928
0.814008 0.14461 0.0628519
0.818998 0.144778 0.0620432
0.823896 0.144701 0.0611429
0.82829 0.144259 0.0601663
0.832349 0.143557 0.058793
0.83595 0.142199 0.0571298
0.8392 0.140398 0.0551766
0.842206 0.138186 0.0529641
0.844495 0.135561 0.0504921
0.846555 0.13257 0.0477913
0.848341 0.128725 0.0446326
0.849515 0.124361 0.041062
0.850843 0.119936 0.0375372
0.852644 0.116228 0.0346075
0.854322 0.11194 0.0317998
0.855817 0.10724 0.0293736
0.856962 0.102205 0.0277867
0.857923 0.0963302 0.0270695
0.85922 0.090486 0.0264286
0.860853 0.0847639 0.0257725
0.86244 0.0788128 0.0251316
0.864378 0.0728313 0.0245975
0.00680552 0.0293889 0.00779736
0.0412604 0.0259556 0.00694286
0.0919203 0.0291295 0.00906386
0.130999 0.0364385 0.0172427
0.165454 0.0463569 0.0287327
0.203098 0.0536812 0.0343481
0.240742 0.0570687 0.0360723
0.27602 0.0585336 0.0356909
0.305501 0.0614328 0.0367895
0.333501 0.0654612 0.0383154
0.361212 0.0698711 0.039292
0.388693 0.0732738 0.0396735
0.416236 0.0761425 0.040177
0.442374 0.0785382 0.0400854
0.467826 0.0805219 0.040177
0.492332 0.0825513 0.0401923
0.515038 0.0853285 0.0401312
0.53669 0.0879683 0.0401007
0.557092 0.0900893 0.0404059
0.577188 0.09308 0.0407416
0.596506 0.0957809 0.0410925
0.614664 0.098497 0.0416876
0.631495 0.101152 0.0420996
0.647272 0.103593 0.0424353
0.662516 0.106783 0.0429847
0.676631 0.109911 0.0438087
0.689342 0.113725 0.0454414
0.700999 0.117449 0.0470893
0.711025 0.121141 0.0486305
0.720729 0.124987 0.0505074
0.729625 0.128649 0.0522164
0.738247 0.131807 0.0540932
0.746258 0.13402 0.0557412
0.753689 0.135958 0.0573434
0.760723 0.137362 0.0588998
0.76704 0.139132 0.0603952
0.772686 0.141909 0.0619821
0.778439 0.145022 0.0634928
0.784268 0.148898 0.0646677
0.790005 0.152377 0.0657054
0.795514 0.155352 0.0661784
0.80119 0.157992 0.0666514
0.807233 0.158618 0.0665446
0.813458 0.159304 0.0661784
0.81912 0.15993 0.0656901
0.824521 0.160296 0.065095
0.829374 0.160174 0.0642252
0.833906 0.159579 0.0629129
0.838117 0.158694 0.0615702
0.841886 0.157198 0.0598154
0.84506 0.155047 0.0576486
0.847944 0.15256 0.0551919
0.85034 0.149554 0.0524758
0.852354 0.145953 0.0494087
0.854078 0.141924 0.046128
0.855177 0.137041 0.0423896
0.856352 0.131762 0.0383154
0.857954 0.127199 0.0348974
0.859678 0.122621 0.0315557
0.86096 0.117617 0.0287022
0.861891 0.1122 0.0274205
0.862974 0.10634 0.0267643
0.86482 0.0994888 0.026154
0.866545 0.0933547 0.0255741
0.868528 0.0869612 0.0249638
0.00781262 0.0545357 0.0142672
0.0276493 0.0548562 0.0141451
0.0760815 0.0462348 0.0114137
0.124041 0.0515145 0.0180972
0.157702 0.0595865 0.0317388
0.189624 0.0683604 0.0418097
0.228717 0.0757458 0.0438087
0.265171 0.0793164 0.0424659
0.298161 0.0806287 0.0393835
0.327962 0.0826734 0.0392309
0.356359 0.0857557 0.0402686
0.385931 0.0887922 0.0411383
0.413901 0.0912947 0.0413672
0.44004 0.0942245 0.0415351
0.465034 0.0966506 0.0416571
0.488548 0.0985275 0.0414588
0.511025 0.100908 0.0412909
0.532067 0.103471 0.0412299
0.552239 0.106325 0.0414893
0.571649 0.108797 0.0418097
0.590814 0.111498 0.0424048
0.609628 0.114015 0.0432898
0.626917 0.116167 0.0441138
0.643122 0.118059 0.0449226
0.65713 0.120455 0.0457465
0.669993 0.123049 0.0467689
0.6822 0.126116 0.0480354
0.693202 0.129046 0.0492714
0.703456 0.13228 0.0510719
0.713008 0.1355 0.0530251
0.722347 0.139254 0.0551308
0.731121 0.142031 0.0570535
0.739498 0.144198 0.0589609
0.747127 0.146288 0.0605783
0.754192 0.147723 0.0621042
0.760678 0.149569 0.0634928
0.76669 0.152453 0.0650034
0.772625 0.155795 0.066331
0.778775 0.159884 0.0674907
0.784833 0.163684 0.0683757
0.791028 0.167117 0.0689097
0.797131 0.169833 0.0690776
0.803906 0.171145 0.0691081
0.810605 0.172534 0.0690318
0.816587 0.173693 0.0689555
0.822522 0.174762 0.0689097
0.827939 0.175189 0.0683299
0.833082 0.175448 0.0675669
0.837705 0.174899 0.0662394
0.842008 0.173922 0.0647288
0.845991 0.17232 0.0628672
0.849485 0.170123 0.0606241
0.852308 0.167346 0.0580301
0.854749 0.163775 0.0549935
0.857069 0.159808 0.0518349
0.858885 0.155627 0.0483253
0.860395 0.150423 0.0442054
0.861585 0.14464 0.0400702
0.862959 0.138903 0.035523
0.8645 0.133944 0.0318303
0.865538 0.128573 0.0292515
0.86685 0.122545 0.0279698
0.868467 0.116152 0.0271916
0.870344 0.109377 0.0265354
0.872541 0.102113 0.0259709
0.00816358 0.0840925 0.0200504
0.0268254 0.0855268 0.0216068
0.0591745 0.082536 0.0183719
0.120821 0.077348 0.0234073
0.160571 0.0847028 0.0358282
0.197314 0.0939956 0.0463417
0.23331 0.100771 0.051957
0.267979 0.103349 0.0502785
0.298482 0.10425 0.0461738
0.325475 0.1037 0.0406043
0.35317 0.105882 0.0410163
0.381033 0.107408 0.0408026
0.408652 0.109361 0.0407263
0.434119 0.112154 0.0410925
0.457893 0.113771 0.0409247
0.481147 0.115587 0.0409094
0.503807 0.118395 0.0411536
0.52488 0.121401 0.0417334
0.543893 0.1243 0.0424048
0.562905 0.12668 0.0431678
0.581552 0.129015 0.0440833
0.600473 0.13109 0.0453193
0.618402 0.132937 0.0467994
0.634104 0.134081 0.0478828
0.648035 0.135927 0.0490425
0.660868 0.137835 0.0502632
0.672831 0.140093 0.0514534
0.683879 0.142596 0.052842
0.693477 0.145083 0.0545357
0.702724 0.147829 0.0564431
0.711879 0.150973 0.0585031
0.720394 0.153063 0.0603342
0.728649 0.154513 0.0619669
0.736339 0.15584 0.0634928
0.743648 0.156832 0.0648814
0.7505 0.158511 0.0662699
0.756863 0.161303 0.0674449
0.763333 0.164553 0.0684062
0.769924 0.168582 0.0692607
0.776791 0.172641 0.0701152
0.783795 0.175906 0.0704967
0.790951 0.179004 0.0708019
0.798321 0.180804 0.071046
0.80528 0.18233 0.071046
0.811627 0.183917 0.0710918
0.81767 0.185351 0.0710918
0.823575 0.186633 0.0710155
0.82919 0.187533 0.0707256
0.83444 0.188083 0.0702831
0.83946 0.188083 0.0693065
0.843946 0.186877 0.0674449
0.847974 0.185275 0.0654459
0.85153 0.183062 0.063035
0.854688 0.180346 0.0602579
0.857633 0.176898 0.0572671
0.859922 0.172946 0.0538796
0.862196 0.168215 0.0500801
0.864088 0.162951 0.0462806
0.86569 0.15697 0.0416419
0.86688 0.150378 0.036759
0.868284 0.144671 0.0329595
0.870115 0.13872 0.0301976
0.871916 0.132494 0.0288853
0.874174 0.125689 0.0281376
0.876478 0.118639 0.0275425
0.0155489 0.121202 0.0273136
0.0320134 0.121828 0.0303197
0.0548104 0.121447 0.0265812
0.121614 0.118654 0.0302892
0.171679 0.11664 0.0411536
0.208484 0.122606 0.0497444
0.244877 0.130419 0.0571603
0.275914 0.134081 0.0571756
0.301701 0.133669 0.0517281
0.32578 0.13193 0.0451667
0.351446 0.131273 0.0418708
0.378698 0.132296 0.041474
0.404852 0.133761 0.0411536
0.429648 0.13611 0.0412757
0.45391 0.137972 0.0411994
0.476829 0.139406 0.0411536
0.49749 0.141253 0.0413977
0.517342 0.14313 0.0419318
0.5364 0.145068 0.04271
0.555077 0.146639 0.0437781
0.573251 0.148394 0.0451209
0.591592 0.150439 0.0466316
0.608118 0.151858 0.0483253
0.623484 0.153323 0.0502022
0.638544 0.154635 0.0516823
0.65214 0.155947 0.053193
0.664042 0.157733 0.0548867
0.674723 0.159487 0.0565347
0.68397 0.161685 0.0583963
0.692866 0.163729 0.0603342
0.701656 0.165713 0.0622873
0.71046 0.167193 0.0641794
0.718837 0.168093 0.0656748
0.727138 0.169192 0.0671244
0.735103 0.169802 0.0679332
0.742855 0.170764 0.0686351
0.750195 0.172244 0.0696117
0.757427 0.174258 0.0704204
0.764981 0.1776 0.0712749
0.772396 0.180652 0.0718395
0.779934 0.183963 0.0724041
0.787274 0.187182 0.0729992
0.794537 0.189197 0.0731212
0.801602 0.191394 0.0732738
0.808057 0.193225 0.0735943
0.814313 0.195026 0.0738384
0.820508 0.19649 0.0737621
0.826352 0.197681 0.0735485
0.832135 0.198718 0.0733806
0.837797 0.198993 0.0726635
0.842786 0.199115 0.0716716
0.847684 0.19855 0.0703441
0.852232 0.197147 0.0682841
0.85626 0.195209 0.0659342
0.859754 0.192447 0.0632029
0.863081 0.188968 0.0602121
0.866056 0.184619 0.0565957
0.868727 0.179873 0.0530861
0.871107 0.174502 0.0487678
0.87303 0.168399 0.0441749
0.874205 0.161395 0.0392004
0.875669 0.154589 0.0348669
0.877729 0.148455 0.032166
0.88014 0.141924 0.0305943
0.882414 0.135073 0.0298772
0.0261387 0.158862 0.0392615
0.0426947 0.158602 0.0392157
0.0709087 0.157565 0.0347753
0.126513 0.157259 0.0349432
0.186343 0.15108 0.0456245
0.222171 0.148867 0.0534829
0.254612 0.151125 0.0584268
0.284215 0.154803 0.0608072
0.306569 0.155276 0.0557107
0.327855 0.153765 0.0489509
0.35169 0.152392 0.0435035
0.379019 0.154284 0.0435645
0.40473 0.156069 0.0433814
0.429267 0.159472 0.0434882
0.452705 0.161425 0.0432746
0.475074 0.162905 0.0432288
0.494377 0.16408 0.0433356
0.513756 0.165194 0.0438239
0.533181 0.166522 0.0446784
0.55108 0.16759 0.0458228
0.569116 0.16875 0.0473182
0.586679 0.16994 0.0489815
0.602808 0.17116 0.0510109
0.617288 0.17258 0.0530709
0.631022 0.173053 0.0547646
0.644129 0.173831 0.0564736
0.65626 0.17464 0.0582132
0.667613 0.176059 0.0601205
0.677623 0.177508 0.0621347
0.687007 0.178698 0.0641947
0.696178 0.179934 0.0663005
0.704784 0.180758 0.0679484
0.713863 0.181949 0.0690776
0.722408 0.183383 0.0700542
0.730938 0.184039 0.0707408
0.739193 0.184878 0.071458
0.746822 0.185321 0.0720378
0.75494 0.186282 0.0726482
0.762905 0.188342 0.0731975
0.770932 0.190341 0.0736706
0.778729 0.192737 0.0743114
0.786252 0.195132 0.0747845
0.793851 0.197482 0.0753185
0.801221 0.199496 0.0757153
0.808133 0.201465 0.0759747
0.814878 0.203159 0.0762646
0.821332 0.204517 0.0764782
0.827634 0.205875 0.0764477
0.833631 0.207065 0.0761273
0.839658 0.207889 0.0755779
0.84506 0.208469 0.0746929
0.850141 0.208484 0.0736095
0.855024 0.208438 0.0723735
0.859373 0.20763 0.0706798
0.863279 0.20557 0.0682231
0.866941 0.20264 0.0653697
0.870512 0.199084 0.0622416
0.873411 0.194858 0.0588083
0.876204 0.189761 0.054902
0.878798 0.184344 0.0506142
0.880446 0.178042 0.0458686
0.88191 0.170947 0.0408942
0.883421 0.163302 0.0362554
0.885695 0.156909 0.0333562
0.887999 0.150271 0.0318456
0.0300755 0.189212 0.0459602
0.0499275 0.186267 0.0447089
0.0803082 0.184878 0.0370184
0.13051 0.184039 0.0347448
0.192737 0.177707 0.0450752
0.23331 0.171633 0.0543374
0.264469 0.169711 0.0586404
0.293065 0.171847 0.0612345
0.315206 0.173007 0.0585336
0.33402 0.172061 0.0522621
0.352682 0.169314 0.0449989
0.37789 0.17084 0.044358
0.403342 0.173114 0.0445563
0.427268 0.176303 0.0444648
0.450248 0.17879 0.04448
0.471977 0.180743 0.0447852
0.491386 0.182239 0.045243
0.511208 0.183948 0.046128
0.530663 0.185733 0.0473335
0.548928 0.187823 0.0487984
0.566506 0.189258 0.0504768
0.58378 0.190356 0.0523842
0.599252 0.19147 0.0544442
0.61294 0.192523 0.0564431
0.625834 0.193057 0.05832
0.637736 0.1935 0.0601205
0.650294 0.193988 0.0620584
0.661738 0.194842 0.0640116
0.671534 0.19556 0.066041
0.681056 0.196185 0.068101
0.690028 0.196445 0.069276
0.699092 0.196628 0.0704509
0.707805 0.197208 0.0715496
0.716365 0.197803 0.0725109
0.725231 0.198917 0.0733501
0.733791 0.199817 0.0739605
0.742657 0.200336 0.0744335
0.751629 0.200885 0.0747997
0.760601 0.201221 0.0751049
0.769604 0.201526 0.0753948
0.777691 0.203082 0.0759747
0.785672 0.204715 0.0766003
0.793347 0.207004 0.0771344
0.8009 0.209491 0.0778668
0.808072 0.2112 0.0783703
0.814969 0.212802 0.0786908
0.82179 0.214267 0.0789044
0.828244 0.21532 0.0788586
0.834257 0.216419 0.0784924
0.840116 0.217319 0.0779583
0.845502 0.217823 0.0772564
0.850614 0.217899 0.0763409
0.855604 0.217655 0.0749981
0.860212 0.217212 0.0736248
0.864515 0.216373 0.0720684
0.868696 0.214832 0.0699626
0.872663 0.211978 0.0670787
0.876158 0.208331 0.0637827
0.879469 0.203952 0.0602426
0.882551 0.198871 0.0561227
0.88481 0.193133 0.0516518
0.886976 0.18706 0.047013
0.88896 0.179767 0.041886
0.891035 0.172213 0.0371862
0.893385 0.165301 0.0340276
0.0310063 0.21294 0.0471809
0.0487831 0.20885 0.0436408
0.0822614 0.20676 0.0354162
0.13518 0.206714 0.0330205
0.198962 0.200885 0.0434424
0.243671 0.193515 0.0536507
0.275898 0.188617 0.0587778
0.302266 0.187961 0.0608682
0.324361 0.188724 0.0598306
0.340169 0.187686 0.0539406
0.355505 0.185519 0.0471046
0.3785 0.186618 0.0457771
0.402747 0.1888 0.0458534
0.426474 0.191485 0.0459449
0.448096 0.193194 0.0460517
0.468406 0.194888 0.0463417
0.489845 0.197253 0.0472725
0.509682 0.199207 0.0485084
0.52813 0.201251 0.0499886
0.546593 0.204044 0.0517281
0.563821 0.206134 0.0534981
0.580652 0.207828 0.0557717
0.595956 0.208972 0.0579385
0.610254 0.210651 0.0602579
0.622248 0.211673 0.0622416
0.633326 0.21265 0.0639811
0.645899 0.213413 0.0660258
0.657221 0.213947 0.0680552
0.66685 0.214313 0.0695811
0.676448 0.213947 0.070634
0.686 0.214054 0.0717479
0.695323 0.213718 0.0728466
0.704021 0.213489 0.0738079
0.712734 0.213748 0.0746777
0.721614 0.214374 0.0754559
0.730632 0.215198 0.0761273
0.739956 0.215763 0.0765698
0.748959 0.216373 0.076997
0.75816 0.21677 0.0773175
0.767163 0.216999 0.0775616
0.775952 0.2177 0.0780804
0.784375 0.217914 0.0784619
0.792523 0.219257 0.079118
0.800443 0.221073 0.0796674
0.80795 0.222293 0.0801251
0.815045 0.223835 0.0806744
0.821759 0.224918 0.0808728
0.82826 0.225742 0.0808728
0.834424 0.226566 0.0805676
0.840314 0.227207 0.0799268
0.845853 0.227771 0.079118
0.85127 0.227955 0.0783093
0.856352 0.227909 0.0771801
0.86125 0.227619 0.0760967
0.865873 0.2271 0.0747387
0.870176 0.226322 0.0729229
0.874189 0.224948 0.0706798
0.878279 0.223011 0.0682841
0.882094 0.219471 0.0649882
0.885679 0.215213 0.0612345
0.888655 0.210117 0.057023
0.891279 0.204669 0.0526284
0.893889 0.19852 0.0475471
0.896452 0.191409 0.0422522
0.899062 0.183734 0.0374609
0.0287633 0.23357 0.0455634
0.045716 0.228794 0.0411688
0.0763256 0.225467 0.0314183
0.138598 0.226459 0.0305791
0.203265 0.219867 0.0398413
0.251026 0.211826 0.05066
0.284886 0.205646 0.0569619
0.310475 0.203021 0.0594034
0.332143 0.202564 0.0590829
0.346181 0.201556 0.0545815
0.359945 0.200641 0.0489967
0.380362 0.20119 0.0470741
0.403601 0.203082 0.0473793
0.426276 0.205249 0.0476844
0.447501 0.206882 0.0478981
0.468269 0.208774 0.0484474
0.488426 0.210666 0.0494087
0.507607 0.213016 0.0507973
0.525521 0.215549 0.052491
0.543664 0.218219 0.0543832
0.561364 0.221103 0.0566415
0.57792 0.223133 0.0588693
0.593103 0.225177 0.061265
0.606836 0.226993 0.063447
0.619257 0.228458 0.0657816
0.630915 0.229648 0.0677501
0.64184 0.230686 0.0694591
0.652552 0.231724 0.0706035
0.662608 0.231968 0.0716259
0.672679 0.232166 0.0727855
0.682765 0.231891 0.0738231
0.692485 0.231144 0.0747845
0.701778 0.230838 0.0757153
0.710811 0.230503 0.0764782
0.720027 0.230808 0.0772412
0.729168 0.231159 0.077821
0.738308 0.231693 0.0783856
0.747326 0.232517 0.0789654
0.756451 0.232761 0.0793317
0.765713 0.233509 0.0797894
0.774716 0.233555 0.0801556
0.783597 0.233448 0.0806134
0.792081 0.23386 0.0812085
0.800107 0.234409 0.0816205
0.807935 0.235325 0.0819409
0.815198 0.236332 0.0823987
0.822156 0.237446 0.082475
0.828779 0.238132 0.0823987
0.834943 0.238621 0.082063
0.84097 0.2392 0.0817121
0.846738 0.239353 0.081117
0.852216 0.239628 0.0801862
0.857359 0.239658 0.0791791
0.86247 0.239384 0.0781872
0.867399 0.238987 0.076936
0.8719 0.238315 0.0753643
0.876158 0.237293 0.073518
0.880217 0.235782 0.0712902
0.884337 0.234012 0.0689403
0.888197 0.231846 0.0659953
0.891646 0.227466 0.0621042
0.894697 0.222644 0.0578775
0.897871 0.216983 0.0531014
0.900984 0.210712 0.0478828
0.904158 0.203708 0.0425727
0.02533 0.251514 0.0416724
0.0413062 0.245335 0.0364385
0.0708324 0.241215 0.0270542
0.129809 0.240055 0.0255589
0.202792 0.23566 0.0358129
0.255787 0.228077 0.0475166
0.291951 0.221836 0.0547036
0.318105 0.218753 0.0583047
0.337026 0.216739 0.0577401
0.350896 0.215534 0.0542916
0.363638 0.21474 0.0495308
0.382742 0.214847 0.0479896
0.404746 0.216159 0.0483864
0.426902 0.217945 0.0490425
0.448447 0.22002 0.0496986
0.469032 0.221973 0.0504463
0.488075 0.223926 0.0516365
0.506325 0.226093 0.0530404
0.523949 0.228702 0.0548562
0.54197 0.231479 0.057084
0.559121 0.234241 0.0594034
0.575555 0.236866 0.0617685
0.590524 0.239307 0.0642557
0.604059 0.241123 0.0666056
0.616648 0.243107 0.0692607
0.628061 0.243977 0.0704967
0.63917 0.245274 0.071519
0.64976 0.246418 0.0724804
0.660166 0.247471 0.0735637
0.670314 0.248219 0.0745861
0.680583 0.248035 0.0755932
0.690867 0.247791 0.0765545
0.700465 0.247349 0.0773022
0.710246 0.246906 0.0779736
0.719783 0.246998 0.0785229
0.728862 0.246845 0.0790723
0.73785 0.247456 0.0797436
0.746563 0.247807 0.0803693
0.755611 0.248569 0.0810407
0.764736 0.249897 0.0816205
0.773754 0.250004 0.0821088
0.782849 0.249775 0.0825666
0.791531 0.249424 0.0829938
0.800015 0.249226 0.0834058
0.808042 0.249012 0.0836957
0.815595 0.24976 0.0839399
0.822736 0.250507 0.0840925
0.829313 0.250813 0.0839246
0.835737 0.251423 0.0836957
0.841794 0.251804 0.0834211
0.847715 0.251926 0.0830549
0.85333 0.252003 0.0823835
0.85861 0.252033 0.0814221
0.863798 0.251911 0.0802167
0.868681 0.251499 0.0792554
0.873503 0.25098 0.0779278
0.877974 0.250019 0.0761425
0.882139 0.248692 0.0740215
0.886305 0.247074 0.0717479
0.89044 0.245182 0.0693217
0.894011 0.242893 0.0663615
0.897215 0.239994 0.0628214
0.900923 0.23537 0.0585031
0.904463 0.229755 0.0536049
0.908049 0.223499 0.048188
0.0242008 0.267964 0.0386969
0.037171 0.261372 0.0314183
0.0639963 0.256519 0.0235752
0.118715 0.254215 0.0213169
0.190402 0.249836 0.0288396
0.248264 0.243244 0.04094
0.290867 0.237278 0.049958
0.318212 0.233371 0.0543374
0.337545 0.230945 0.0548104
0.3523 0.229221 0.0526894
0.365484 0.228153 0.0489052
0.386038 0.228489 0.0488746
0.407279 0.229587 0.0494087
0.430014 0.231174 0.0504921
0.450828 0.232914 0.0514839
0.470726 0.23508 0.0526436
0.48925 0.237247 0.0540017
0.507149 0.239292 0.0556497
0.524681 0.241657 0.0575875
0.541497 0.244022 0.0598306
0.557961 0.246799 0.0622873
0.573587 0.249668 0.0645762
0.588174 0.251942 0.0670481
0.601968 0.253697 0.0693828
0.614145 0.25507 0.0710613
0.625574 0.256565 0.0722972
0.636957 0.257954 0.073228
0.647791 0.259297 0.0740826
0.658228 0.260746 0.0750439
0.668467 0.262043 0.0759594
0.679103 0.262745 0.076936
0.689525 0.262959 0.0777142
0.699657 0.262913 0.0783398
0.70988 0.262486 0.0789807
0.719478 0.262379 0.0796063
0.72874 0.26247 0.0802319
0.737591 0.262699 0.0808576
0.74638 0.263066 0.0814527
0.755261 0.263767 0.0820478
0.764019 0.264439 0.0827039
0.77322 0.265324 0.0833906
0.782208 0.265812 0.0839094
0.791058 0.266026 0.0844129
0.799649 0.265034 0.0848096
0.808103 0.264317 0.0852216
0.815869 0.264271 0.0854353
0.823377 0.264149 0.085481
0.830106 0.264164 0.085481
0.836454 0.264439 0.0852827
0.842695 0.264759 0.0850385
0.848844 0.264851 0.0846876
0.854566 0.26482 0.084062
0.860014 0.26479 0.0832532
0.865217 0.264576 0.0823072
0.870222 0.26424 0.0812695
0.875105 0.263798 0.0799725
0.879667 0.262898 0.0783703
0.883955 0.261677 0.076463
0.888136 0.260136 0.074342
0.892439 0.258457 0.0720378
0.896452 0.256306 0.0693675
0.899702 0.253819 0.0659648
0.903471 0.251118 0.0623941
0.906905 0.247715 0.0584421
0.910872 0.243137 0.0534676
0.0240787 0.284901 0.0374456
0.0367132 0.277943 0.0300145
0.0641947 0.272923 0.0223087
0.110735 0.269749 0.0184482
0.174838 0.26482 0.0225528
0.232761 0.258869 0.0338445
0.277363 0.253056 0.0430304
0.309361 0.249516 0.0485237
0.331884 0.246677 0.0507057
0.34905 0.24448 0.0500191
0.368856 0.242939 0.0492409
0.390463 0.242527 0.0498817
0.411337 0.243091 0.0506142
0.432425 0.243854 0.0518349
0.452155 0.245441 0.053315
0.470939 0.247456 0.0549172
0.489143 0.249302 0.0564279
0.506996 0.25156 0.0582132
0.523857 0.253864 0.0603342
0.54052 0.256504 0.0626383
0.556664 0.259083 0.0650492
0.571664 0.261448 0.0673228
0.586175 0.2636 0.0690929
0.599954 0.265263 0.0708476
0.612589 0.266865 0.0725872
0.624399 0.268482 0.0740368
0.635294 0.269917 0.0748455
0.646097 0.271656 0.0756542
0.65684 0.273167 0.076463
0.667521 0.275303 0.0772412
0.677974 0.276555 0.0778973
0.688441 0.277546 0.0784772
0.698955 0.277729 0.0791638
0.709224 0.277256 0.0798352
0.718975 0.277272 0.0804913
0.728252 0.277089 0.0811017
0.737301 0.27744 0.0817273
0.746227 0.277745 0.0823835
0.755047 0.278218 0.0830701
0.763821 0.27895 0.0838178
0.772702 0.279789 0.0844434
0.78172 0.28098 0.0850538
0.790509 0.281529 0.0854963
0.79913 0.280827 0.0858473
0.807752 0.280385 0.0862898
0.815747 0.279591 0.0865492
0.823743 0.278828 0.086656
0.830671 0.278355 0.0867323
0.837308 0.278462 0.0866712
0.843717 0.278538 0.0864881
0.849805 0.278309 0.0861067
0.855604 0.278416 0.0855573
0.861173 0.278187 0.0848249
0.866499 0.27776 0.0838941
0.871809 0.277302 0.082887
0.876524 0.276753 0.0819867
0.881331 0.276066 0.0805676
0.885863 0.274723 0.0786755
0.890181 0.273487 0.076524
0.894484 0.271885 0.074342
0.898848 0.269917 0.0720531
0.902235 0.267781 0.0688182
0.905837 0.265141 0.0653086
0.909545 0.26244 0.0616922
0.913649 0.259236 0.0573281
0.024033 0.301183 0.0368658
0.0365454 0.293553 0.0296025
0.0653239 0.288258 0.0213931
0.111742 0.284977 0.0169528
0.171466 0.280293 0.0195773
0.221836 0.274876 0.0288396
0.263584 0.269963 0.0371099
0.29688 0.266239 0.0425879
0.32401 0.262928 0.0462043
0.348867 0.260212 0.0484779
0.373144 0.257588 0.049836
0.395331 0.256367 0.0509041
0.4159 0.256031 0.0518807
0.435203 0.256123 0.053315
0.454017 0.25745 0.0551308
0.471946 0.259052 0.0569772
0.490562 0.260945 0.0589303
0.507881 0.262989 0.0610056
0.524559 0.265446 0.0633402
0.540688 0.268299 0.0655985
0.555703 0.270604 0.0672007
0.570413 0.272511 0.068864
0.584573 0.274571 0.0705425
0.598688 0.276738 0.0723735
0.611276 0.278523 0.0741283
0.623117 0.280095 0.0755779
0.634302 0.282002 0.0764172
0.645243 0.283558 0.0771344
0.656306 0.285298 0.0778515
0.667277 0.287327 0.0785229
0.677623 0.288838 0.0790265
0.68777 0.290242 0.0795758
0.697948 0.290654 0.0800793
0.708202 0.291005 0.080766
0.717998 0.290913 0.0814374
0.727718 0.290929 0.0821241
0.737148 0.291402 0.0828107
0.746227 0.291569 0.0834516
0.755184 0.292195 0.0841993
0.763745 0.292592 0.0848249
0.772412 0.293263 0.0853895
0.781201 0.294636 0.0859541
0.789731 0.295399 0.0863508
0.798627 0.295872 0.0867933
0.807233 0.296162 0.0871748
0.815671 0.295079 0.08748
0.823911 0.293767 0.0875868
0.831312 0.293248 0.0876631
0.838315 0.292958 0.0878157
0.844831 0.292622 0.0876936
0.851087 0.2925 0.0873884
0.857023 0.292165 0.0868391
0.862699 0.291798 0.086305
0.868101 0.291325 0.0857557
0.873396 0.290684 0.0849317
0.878401 0.290425 0.0839094
0.883238 0.28954 0.0824598
0.887907 0.288518 0.0808118
0.892409 0.287221 0.079118
0.896803 0.285664 0.076997
0.901198 0.284108 0.0745251
0.904845 0.281987 0.0717327
0.908537 0.279789 0.068452
0.912139 0.277073 0.0648356
0.916396 0.274159 0.0606699
0.0243229 0.31606 0.0371862
0.0372015 0.307759 0.0296941
0.0667277 0.302022 0.0210574
0.11342 0.299031 0.0161898
0.173236 0.29482 0.0183413
0.225696 0.28986 0.027451
0.268696 0.284825 0.0357671
0.301411 0.280232 0.0417334
0.329488 0.277012 0.0457771
0.354894 0.274189 0.0484932
0.378424 0.27158 0.0504768
0.399725 0.26952 0.0519875
0.419898 0.268376 0.0533913
0.439734 0.268482 0.0551766
0.458366 0.269032 0.0570535
0.476234 0.270237 0.0590982
0.494194 0.271839 0.0614939
