_SYSTEM/luts/NORMAL -1_0 SKIN V2.cube
TITLE "Generated by Resolve"
LUT_3D_SIZE 5
0.0181125 0.00643931 0
0.379202 0.125231 0.0774853
0.592737 0.20589 0.13785
0.69073 0.222583 0.147265
0.751141 0.219745 0.143679
0.140688 0.30811 0.10074
0.482567 0.357519 0.145586
0.665461 0.40705 0.183963
0.775051 0.428153 0.190677
0.847288 0.437415 0.188998
0.23064 0.469291 0.180697
0.57969 0.552865 0.211536
0.754147 0.580331 0.221592
0.854704 0.599741 0.221592
0.911849 0.60676 0.206409
0.280949 0.603113 0.22295
0.641459 0.686275 0.235157
0.80444 0.705409 0.234455
0.893568 0.706188 0.213046
0.940459 0.707759 0.193652
0.307927 0.70721 0.241001
0.674952 0.77557 0.228855
0.834501 0.79295 0.228794
0.916487 0.794995 0.205997
0.95819 0.795895 0.186633
0.0632944 0.130953 0.276188
0.380316 0.18349 0.285634
0.556512 0.22858 0.276326
0.657298 0.249989 0.28542
0.720623 0.248692 0.282048
0.169467 0.374426 0.36141
0.399954 0.399039 0.369894
0.646693 0.409354 0.339834
0.770809 0.432807 0.34995
0.852094 0.446036 0.348577
0.252003 0.55172 0.439017
0.481285 0.599374 0.414359
0.72076 0.605188 0.382956
0.843091 0.61944 0.387594
0.917021 0.625376 0.375143
0.293919 0.684535 0.486763
0.549325 0.73843 0.442527
0.76524 0.744778 0.41033
0.882933 0.742336 0.388922
0.946365 0.741054 0.375021
0.30837 0.786191 0.506798
0.590768 0.844343 0.447929
0.794949 0.851301 0.422278
0.908934 0.849287 0.401602
0.966445 0.84799 0.385595
0.0836957 0.171191 0.409674
0.347585 0.216999 0.445808
0.571908 0.2663 0.413108
0.68452 0.291615 0.412116
0.756054 0.306294 0.420111
0.197101 0.411566 0.478004
0.379065 0.44567 0.523415
0.625864 0.42742 0.489632
0.763561 0.454765 0.48217
0.84596 0.471412 0.478767
0.261646 0.569192 0.555871
0.470817 0.638468 0.621103
0.731167 0.678126 0.642084
0.846967 0.639719 0.572351
0.92459 0.641199 0.560586
0.297063 0.706676 0.623789
0.530434 0.779904 0.657984
0.728344 0.787854 0.620722
0.875654 0.776028 0.592599
0.947204 0.768643 0.577279
0.309453 0.808423 0.65742
0.555535 0.877775 0.652155
0.75314 0.888029 0.608881
0.893004 0.879667 0.588846
0.964233 0.876539 0.581186
0.147585 0.288777 0.576654
0.229587 0.179278 0.458152
0.528649 0.248539 0.516732
0.689708 0.300374 0.510109
0.764782 0.321569 0.510948
0.138308 0.316564 0.498207
0.369314 0.446143 0.617609
0.610666 0.471427 0.638605
0.769482 0.477623 0.608484
0.855253 0.489189 0.591485
0.283085 0.587228 0.640574
0.492882 0.657893 0.721538
0.66714 0.678752 0.747265
0.836271 0.653284 0.706615
0.926665 0.650843 0.687938
0.308507 0.712459 0.708537
0.536721 0.786465 0.782864
0.706172 0.810666 0.800565
0.92781 0.875059 0.862638
0.945052 0.790738 0.742336
0.310399 0.81207 0.748821
0.543206 0.884337 0.795819
0.717418 0.904204 0.792325
0.880018 0.904753 0.772793
0.959228 0.902892 0.756878
0.174517 0.320912 0.680629
0.385122 0.329351 0.661097
0.352087 0.169772 0.487495
0.587762 0.23566 0.548257
0.745769 0.300145 0.585672
0.127352 0.300191 0.516823
0.231556 0.30515 0.567422
0.47306 0.367102 0.65977
0.734936 0.459709 0.723323
0.860899 0.502052 0.708095
0.272251 0.583597 0.707485
0.497032 0.671046 0.810117
0.671107 0.694667 0.855711
0.822644 0.671595 0.851347
0.926772 0.659113 0.820951
0.32726 0.717311 0.775616
0.555291 0.787961 0.864027
0.712398 0.815579 0.888487
0.839521 0.820401 0.895872
0.942336 0.806622 0.881254
0.325109 0.810025 0.814832
0.552514 0.882353 0.888777
0.722667 0.904952 0.913741
0.862913 0.916762 0.913268
0.992798 0.977523 0.981506
