_SYSTEM/luts/NORMAL -1_0 SKIN.cube
TITLE "Generated by Resolve"
LUT_3D_SIZE 5
0.0108034 0.0062562 0.00888075
0.481666 0.0783398 0.0500496
0.710552 0.153811 0.0967575
0.798764 0.174685 0.110277
0.858137 0.171542 0.111009
0.0516976 0.362142 0.0558938
0.53843 0.340673 0.0857252
0.723842 0.390173 0.117571
0.831769 0.411093 0.129534
0.903716 0.419944 0.1308
0.157549 0.510719 0.159045
0.61236 0.552239 0.128954
0.788418 0.576852 0.149493
0.884886 0.597086 0.155932
0.939773 0.604425 0.145098
0.215122 0.64062 0.202411
0.657969 0.692317 0.160632
0.822705 0.708354 0.171298
0.910948 0.708202 0.156939
0.955779 0.709712 0.143343
0.252918 0.739284 0.220096
0.683696 0.782773 0.168795
0.846098 0.796963 0.177646
0.926207 0.798352 0.163165
0.966186 0.798871 0.150286
0.0211185 0.11136 0.48777
0.471717 0.125521 0.344335
0.617655 0.193439 0.296757
0.718578 0.215122 0.30399
0.790448 0.21062 0.294743
0.0950637 0.404196 0.403311
0.403937 0.396139 0.374395
0.688121 0.392172 0.319524
0.817929 0.413092 0.327703
0.90161 0.426062 0.321462
0.170092 0.587594 0.469154
0.464073 0.613809 0.385153
0.733501 0.606516 0.342565
0.863554 0.617151 0.345617
0.940444 0.621317 0.334524
0.217929 0.718853 0.509377
0.527306 0.756283 0.408362
0.76875 0.751171 0.368078
0.892576 0.745235 0.348638
0.957732 0.742153 0.339467
0.244282 0.815976 0.521553
0.573343 0.858839 0.418952
0.793515 0.858412 0.389319
0.911711 0.853498 0.37261
0.970291 0.850843 0.360784
0.0231022 0.148455 0.685817
0.404562 0.159594 0.592004
0.621775 0.231739 0.460151
0.732815 0.259266 0.451881
0.807019 0.273732 0.453956
0.11516 0.438865 0.552468
0.35996 0.445396 0.575021
0.652857 0.408835 0.514443
0.796139 0.436851 0.488823
0.879881 0.454871 0.474845
0.186343 0.599847 0.595605
0.44242 0.649592 0.638346
0.727001 0.679072 0.648096
0.8589 0.634455 0.568093
0.942748 0.633539 0.552361
0.226307 0.736461 0.656107
0.497887 0.795438 0.66334
0.719219 0.793698 0.614557
0.876448 0.777768 0.581537
0.953613 0.767941 0.56405
0.249454 0.833951 0.68336
0.529397 0.891524 0.649958
0.742458 0.896086 0.595392
0.891554 0.883009 0.575418
0.965545 0.878126 0.569543
0.0274205 0.297597 0.846555
0.223514 0.154086 0.603861
0.574273 0.207416 0.608774
0.73962 0.264775 0.562417
0.811139 0.290028 0.551675
0.0939498 0.314031 0.627726
0.347921 0.439277 0.709117
0.618463 0.457252 0.691157
0.794751 0.45948 0.635554
0.883482 0.472602 0.602762
0.208057 0.617014 0.684123
0.46392 0.666194 0.754849
0.65565 0.68098 0.765972
0.844633 0.646693 0.718547
0.943053 0.641443 0.693324
0.244068 0.739254 0.739651
0.507485 0.797818 0.801114
0.694926 0.815106 0.807187
0.922683 0.876234 0.869978
0.947188 0.789563 0.742718
0.256397 0.83473 0.773831
0.517754 0.895659 0.804364
0.703868 0.910582 0.795071
0.876463 0.906691 0.772122
0.958099 0.903792 0.755184
0.0452583 0.351217 0.863798
0.404273 0.302617 0.748669
0.347784 0.156176 0.568795
0.622843 0.203647 0.621027
0.796201 0.264973 0.634485
0.100786 0.296391 0.606256
0.212634 0.294972 0.669566
0.476814 0.349462 0.740749
0.757473 0.439063 0.770504
0.887648 0.484947 0.725978
0.198184 0.611246 0.759518
0.466529 0.678828 0.850111
0.663279 0.692088 0.889586
0.826291 0.664195 0.879896
0.9411 0.648737 0.836774
0.265309 0.743465 0.803555
0.529976 0.796918 0.884367
0.702281 0.818021 0.902464
0.835187 0.821454 0.901854
0.944518 0.804501 0.886442
0.276555 0.830808 0.835203
0.529854 0.891966 0.898711
0.711147 0.909392 0.921111
0.859312 0.918471 0.913909
0.990982 0.978286 0.982361
