_SYSTEM/luts/NORMAL -1_0 BASE.cube
TITLE "Generated by Resolve"
LUT_3D_SIZE 5
0.00433356 0.0031281 0.00383001
0.583947 0.0871748 0.0541543
0.804089 0.1626 0.0808576
0.875196 0.171206 0.0916762
0.930449 0.152728 0.0797742
0.0225834 0.414084 0.0539254
0.55555 0.346502 0.0793164
0.716594 0.368734 0.104494
0.827665 0.37821 0.108812
0.910445 0.370916 0.100008
0.11696 0.50927 0.152926
0.569238 0.505501 0.111055
0.745708 0.508354 0.131334
0.857221 0.521675 0.138018
0.934218 0.52636 0.120989
0.141299 0.600656 0.171008
0.58677 0.618647 0.120165
0.766339 0.633295 0.146593
0.885801 0.636484 0.141436
0.956619 0.639139 0.122194
0.145754 0.674037 0.16614
0.596887 0.707103 0.113161
0.784802 0.723751 0.138033
0.90222 0.734112 0.142809
0.968978 0.736004 0.125994
0.0108034 0.139971 0.565682
0.543923 0.137179 0.407477
0.676493 0.212909 0.308263
0.771572 0.226932 0.288212
0.851774 0.193011 0.240864
0.0724651 0.435294 0.432242
0.39234 0.414191 0.386435
0.659998 0.362234 0.283833
0.798993 0.371313 0.268864
0.898161 0.369406 0.24564
0.130449 0.575113 0.448875
0.386191 0.583124 0.344213
0.662364 0.548058 0.28603
0.813123 0.542168 0.274922
0.929351 0.546075 0.254627
0.140352 0.672663 0.443976
0.422782 0.708003 0.343816
0.680751 0.693065 0.296269
0.849302 0.687724 0.281758
0.957946 0.685054 0.268147
0.134859 0.744625 0.423758
0.45658 0.808255 0.326986
0.715297 0.804746 0.304616
0.876188 0.802762 0.305074
0.973953 0.801831 0.290852
0 0.175463 0.799725
0.436057 0.169558 0.689311
0.622156 0.243717 0.465156
0.751247 0.248203 0.401297
0.843732 0.24094 0.373159
0.0845808 0.455558 0.589456
0.329366 0.441917 0.578836
0.609628 0.391638 0.501457
0.77145 0.389487 0.429908
0.876173 0.389899 0.384314
0.147631 0.571633 0.566964
0.359457 0.609445 0.591943
0.647105 0.648478 0.607416
0.807416 0.568185 0.486244
0.942275 0.563119 0.453712
0.155383 0.682429 0.592187
0.389624 0.752316 0.589029
0.622156 0.753887 0.536095
0.820829 0.730266 0.494301
0.951629 0.718776 0.472663
0.150134 0.762966 0.594736
0.413718 0.856046 0.568551
0.645029 0.86511 0.508278
0.838087 0.842618 0.485725
0.962814 0.835721 0.483726
0 0.374105 1
0.227451 0.151873 0.666194
0.547646 0.206485 0.651545
0.734157 0.257404 0.535531
0.824811 0.263905 0.494041
0.0644388 0.267597 0.667643
0.297475 0.405264 0.742046
0.548348 0.436576 0.697536
0.752056 0.412863 0.596506
0.872297 0.406821 0.515023
0.164218 0.581674 0.661387
0.370962 0.617411 0.721981
0.565942 0.647929 0.73225
0.792142 0.597803 0.674052
0.939864 0.578897 0.627695
0.167376 0.678187 0.682902
0.394736 0.756939 0.753399
0.588815 0.778805 0.760204
0.887373 0.86479 0.840726
0.932464 0.741238 0.671046
0.160739 0.762234 0.701228
0.401938 0.866468 0.755199
0.589426 0.887892 0.741024
0.810147 0.871183 0.692683
0.941543 0.862501 0.670436
0 0.407294 1
0.421241 0.321172 0.831678
0.30396 0.151507 0.590463
0.564172 0.180606 0.633509
0.792828 0.234562 0.606516
0.0690929 0.259342 0.577142
0.165057 0.256291 0.6477
0.326665 0.266682 0.708782
0.668528 0.344701 0.762783
0.864042 0.417044 0.677104
0.142123 0.556771 0.758129
0.356207 0.61883 0.829541
0.567636 0.647959 0.873533
0.757397 0.617075 0.87126
0.92784 0.587076 0.798245
0.182055 0.679896 0.757961
0.415732 0.757107 0.858549
0.603555 0.779706 0.888563
0.761105 0.79234 0.873411
0.92961 0.765072 0.849638
0.173968 0.75787 0.772366
0.410239 0.86067 0.872801
0.603723 0.878325 0.899367
0.780224 0.886687 0.887114
0.997375 0.981765 0.976883
