_SYSTEM/luts/NORMAL -1_0 SKIN V2.cube
TITLE "Generated by Resolve"
LUT_3D_SIZE 65
0.0181125 0.00643931 0
0.0504616 0.0181888 0
0.0849928 0.0298466 0.00611887
0.113909 0.0394751 0.014374
0.13846 0.0475929 0.0207828
0.161349 0.0544747 0.025803
0.182162 0.0607614 0.0303655
0.20296 0.0669413 0.0345922
0.22298 0.0725109 0.0383612
0.244129 0.0792248 0.0430457
0.264942 0.0858015 0.0476692
0.2851 0.0924544 0.0525521
0.305058 0.0990616 0.0574502
0.324178 0.105623 0.0624857
0.343175 0.112276 0.0675059
0.361486 0.118761 0.0725109
0.379202 0.125231 0.0774853
0.396857 0.131884 0.0825666
0.414038 0.138766 0.0879072
0.430655 0.145693 0.0932479
0.446845 0.152697 0.0986648
0.462547 0.15935 0.103792
0.477821 0.165698 0.108553
0.492226 0.171008 0.112505
0.505821 0.175631 0.115969
0.518669 0.179721 0.119036
0.530892 0.183383 0.121782
0.542397 0.186923 0.124498
0.553399 0.190661 0.127245
0.563806 0.194522 0.130022
0.573831 0.198398 0.132723
0.583566 0.202228 0.135332
0.592737 0.20589 0.13785
0.601389 0.209247 0.140169
0.609491 0.212207 0.142168
0.617029 0.214786 0.143893
0.624094 0.216526 0.145083
0.6309 0.218006 0.146059
0.637537 0.219394 0.14696
0.643961 0.220661 0.147768
0.650187 0.221759 0.148425
0.656245 0.22269 0.148974
0.662058 0.223423 0.149371
0.667659 0.223957 0.149554
0.672923 0.224216 0.149538
0.677882 0.224247 0.149325
0.682506 0.223987 0.148867
0.686809 0.223423 0.14818
0.69073 0.222583 0.147265
0.694362 0.221515 0.146227
0.69781 0.220279 0.145129
0.701076 0.218921 0.143969
0.70425 0.217472 0.142779
0.707469 0.216052 0.141649
0.710948 0.215 0.140841
0.715053 0.214725 0.140658
0.719539 0.215106 0.140948
0.724178 0.215824 0.141466
0.72874 0.216602 0.142
0.733059 0.217365 0.142504
0.73724 0.218051 0.142916
0.741207 0.218692 0.143282
0.744869 0.219196 0.143542
0.748241 0.219562 0.143694
0.751141 0.219745 0.143679
0.0187533 0.0183108 0
0.0403296 0.0211948 0
0.0704662 0.0301671 0
0.0995956 0.0407416 0.00820935
0.127749 0.0518044 0.0175326
0.155367 0.0619821 0.0256657
0.180301 0.0701305 0.0318761
0.20322 0.0766613 0.0364691
0.22565 0.0834058 0.0413062
0.248173 0.090837 0.0467384
0.270481 0.0984817 0.0522469
0.292012 0.106188 0.0578775
0.313069 0.113558 0.0631571
0.332982 0.120607 0.0684977
0.351873 0.126986 0.0732738
0.370077 0.13312 0.0780804
0.387869 0.139361 0.0829938
0.405097 0.145617 0.0878614
0.421683 0.152071 0.0928969
0.437675 0.158526 0.0979477
0.453056 0.164843 0.1028
0.467887 0.170886 0.107424
0.482246 0.176638 0.111681
0.495933 0.181415 0.115236
0.508888 0.185565 0.118349
0.521218 0.189197 0.121019
0.53283 0.192447 0.123384
0.543816 0.195605 0.125719
0.554376 0.198962 0.128069
0.564462 0.202487 0.130541
0.574304 0.20618 0.133043
0.583856 0.209888 0.135515
0.59295 0.213443 0.137819
0.601587 0.216709 0.140002
0.60972 0.219638 0.141909
0.617441 0.222217 0.143557
0.624704 0.224018 0.144793
0.631861 0.225803 0.145937
0.638788 0.227527 0.147082
0.645487 0.229114 0.148089
0.652049 0.230564 0.148959
0.658442 0.231922 0.149783
0.664637 0.233036 0.150439
0.670604 0.234012 0.150927
0.676326 0.234775 0.151278
0.681773 0.235294 0.151431
0.68687 0.235554 0.151354
0.691646 0.235492 0.151049
0.696056 0.235142 0.150469
0.700099 0.234409 0.14966
0.703853 0.233371 0.148653
0.707362 0.23209 0.147509
0.710719 0.23064 0.146288
0.713924 0.229114 0.145006
0.717144 0.227543 0.143786
0.720424 0.226184 0.142733
0.72398 0.225238 0.142
0.727947 0.224948 0.141711
0.732143 0.225177 0.141787
0.7364 0.225681 0.142077
0.740597 0.226276 0.142412
0.744625 0.226871 0.142718
0.748363 0.227359 0.142901
0.751736 0.227695 0.142992
0.754574 0.227771 0.142855
0.024506 0.0364843 0
0.0402991 0.0362554 0
0.0682689 0.0423743 0.00166323
0.0978256 0.0521859 0.0100862
0.127153 0.0639811 0.0204929
0.15613 0.0756695 0.0303655
0.182986 0.0856336 0.0381781
0.207141 0.0926986 0.0429694
0.230198 0.0990768 0.0473182
0.253117 0.106325 0.0524758
0.275975 0.113817 0.0578317
0.298039 0.121614 0.0635233
0.319692 0.129183 0.0689097
0.339986 0.13637 0.0742351
0.359319 0.142596 0.0788739
0.377905 0.148638 0.0837262
0.395712 0.154528 0.0884871
0.41265 0.160327 0.0931258
0.428656 0.166262 0.0978408
0.444022 0.172122 0.102434
0.458579 0.177829 0.106783
0.472435 0.183261 0.110887
0.485893 0.188342 0.114672
0.49865 0.192477 0.117723
0.510735 0.195941 0.120287
0.522225 0.198932 0.122438
0.53315 0.201572 0.1243
0.543618 0.204196 0.126146
0.553674 0.207065 0.128099
0.563409 0.210132 0.130205
0.572992 0.213474 0.132403
0.582376 0.216907 0.134646
0.591409 0.220249 0.136782
0.600031 0.223392 0.138796
0.608316 0.22623 0.140581
0.61619 0.228779 0.142214
0.623652 0.230716 0.143481
0.630991 0.232685 0.144717
0.638071 0.234592 0.145937
0.644968 0.236393 0.147036
0.651728 0.238132 0.148119
0.658381 0.239796 0.149111
0.664912 0.241337 0.150042
0.67126 0.242802 0.150866
0.67747 0.244129 0.151598
0.683467 0.245335 0.15227
0.689189 0.246296 0.152728
0.694591 0.246998 0.152972
0.699672 0.247379 0.152972
0.704448 0.247425 0.152697
0.708843 0.247089 0.152163
0.712932 0.246357 0.151369
0.716716 0.245335 0.150408
0.720256 0.244053 0.149264
0.723659 0.242512 0.148013
0.726909 0.240894 0.146761
0.730159 0.239277 0.145541
0.733532 0.238056 0.14461
0.737072 0.237171 0.143847
0.74078 0.236774 0.143435
0.744747 0.236851 0.143359
0.748806 0.237217 0.143496
0.752651 0.237629 0.143633
0.756161 0.237919 0.143679
0.758968 0.237934 0.143481
0.0340734 0.059678 0.00886549
0.0484474 0.0595865 0.00721752
0.0756847 0.0646525 0.0108949
0.106065 0.0734874 0.019089
0.136065 0.0846876 0.0296483
0.164782 0.0963302 0.0399176
0.19147 0.106798 0.0485084
0.215045 0.113954 0.0534524
0.237552 0.119432 0.0569009
0.2598 0.125856 0.0612039
0.282368 0.132738 0.0659495
0.304219 0.13991 0.071046
0.325841 0.146792 0.0758068
0.346441 0.153628 0.0808118
0.36643 0.159594 0.0852064
0.385229 0.165393 0.0897993
0.403052 0.17084 0.0942397
0.419898 0.176165 0.0985733
0.435615 0.181521 0.102937
0.45037 0.186725 0.107088
0.464179 0.19176 0.11104
0.477241 0.196475 0.114641
0.489754 0.200763 0.117906
0.501732 0.204334 0.120577
0.513146 0.207416 0.122835
0.524071 0.210086 0.124712
0.534569 0.212375 0.126253
0.54464 0.214588 0.127703
0.554223 0.216785 0.129137
0.56347 0.21912 0.130724
0.572671 0.22179 0.132479
0.581796 0.224613 0.134295
0.590524 0.227466 0.13611
0.599023 0.230198 0.137819
0.607248 0.232807 0.139437
0.615137 0.235203 0.140948
0.62269 0.237217 0.142214
0.630121 0.239261 0.143465
0.637293 0.241199 0.144656
0.644251 0.243061 0.14583
0.651133 0.244877 0.14696
0.657923 0.246647 0.148028
0.664637 0.248402 0.149096
0.67126 0.250111 0.150088
0.67776 0.25182 0.151095
0.684138 0.253452 0.152056
0.690288 0.254978 0.152941
0.696284 0.256336 0.153674
0.702037 0.257511 0.154269
0.707515 0.258412 0.154665
0.712673 0.258915 0.154681
0.717433 0.259022 0.154452
0.721874 0.258717 0.153948
0.725994 0.258015 0.153185
0.729839 0.256931 0.152209
0.73344 0.255497 0.151034
0.736858 0.253864 0.149798
0.740108 0.252201 0.148531
0.743389 0.250645 0.147341
0.746654 0.249409 0.146334
0.750134 0.248569 0.145632
0.753811 0.248219 0.14522
0.757534 0.24828 0.145098
0.761044 0.248478 0.145052
0.763836 0.248463 0.144839
0.0482948 0.0880598 0.0233158
0.0633707 0.0886854 0.0217899
0.0901045 0.0937514 0.0252689
0.120943 0.10161 0.032929
0.150988 0.110857 0.0425879
0.178546 0.120607 0.0517739
0.203784 0.130053 0.0597543
0.225589 0.136599 0.0641794
0.246662 0.14139 0.0668498
0.267903 0.147341 0.0707408
0.289738 0.153719 0.0749828
0.310796 0.160311 0.0796826
0.332006 0.166629 0.0840314
0.352895 0.173083 0.0888533
0.373388 0.178759 0.0930037
0.39234 0.184054 0.0971389
0.410101 0.188998 0.101106
0.42681 0.193713 0.104952
0.44239 0.198413 0.108812
0.456962 0.202914 0.112581
0.470344 0.207263 0.116045
0.482841 0.211185 0.119219
0.494636 0.214664 0.12195
0.505974 0.2177 0.1243
0.516823 0.220493 0.126375
0.527352 0.222995 0.128084
0.537545 0.225223 0.129534
0.547341 0.227207 0.130785
0.556619 0.22887 0.131838
0.56556 0.230518 0.132937
0.574441 0.232395 0.134173
0.583139 0.234333 0.135439
0.591562 0.236332 0.136675
0.599771 0.238437 0.138033
0.607782 0.240558 0.13933
0.615549 0.242649 0.140597
0.623133 0.244617 0.141848
0.630594 0.246677 0.143053
0.637781 0.248569 0.144274
0.6448 0.250355 0.145388
0.651728 0.25211 0.146471
0.658564 0.253849 0.147555
0.665385 0.255573 0.148638
0.672068 0.257359 0.149676
0.678706 0.259159 0.150744
0.685252 0.260975 0.151873
0.691646 0.262791 0.152926
0.697948 0.264546 0.153918
0.704067 0.266209 0.154864
0.710002 0.267659 0.155642
0.715694 0.26891 0.156237
0.72108 0.269795 0.156588
0.726162 0.270344 0.15668
0.730907 0.270497 0.156481
0.735393 0.27013 0.155962
0.739452 0.269306 0.155184
0.743297 0.268055 0.154116
0.746807 0.266468 0.152926
0.750134 0.264744 0.151598
0.753292 0.262989 0.150286
0.756359 0.261418 0.149096
0.759579 0.260227 0.148135
0.762921 0.259571 0.147494
0.766201 0.259388 0.147173
0.768917 0.259281 0.146822
0.0649424 0.118807 0.0394141
0.0804456 0.119417 0.0374609
0.107057 0.124697 0.0408026
0.138064 0.131655 0.0478676
0.167651 0.138582 0.0561379
0.193668 0.145388 0.063386
0.216846 0.152651 0.0699016
0.236835 0.158053 0.0733959
0.256153 0.16228 0.0754559
0.276493 0.16791 0.0790112
0.297429 0.173907 0.0830549
0.31809 0.180331 0.0877241
0.339178 0.186709 0.0923781
0.359915 0.193027 0.0971847
0.380438 0.198657 0.101442
0.39913 0.203586 0.105364
0.416632 0.208225 0.108995
0.433005 0.212512 0.112398
0.448386 0.216739 0.115908
0.462943 0.220829 0.119341
0.476158 0.224628 0.122469
0.488396 0.227893 0.125093
0.499855 0.230686 0.127382
0.510811 0.233158 0.12932
0.521279 0.235492 0.13106
0.531395 0.237736 0.132662
0.541314 0.239841 0.133974
0.550927 0.241718 0.135134
0.560082 0.243244 0.136019
0.568978 0.244633 0.136919
0.577676 0.245914 0.137728
0.586175 0.24712 0.138445
0.594354 0.248386 0.139284
0.602365 0.249805 0.140124
0.610178 0.251225 0.140963
0.617838 0.252766 0.141924
0.625422 0.25449 0.143008
0.632853 0.256291 0.144091
0.64007 0.258 0.145174
0.647135 0.259617 0.146212
0.654047 0.261204 0.147234
0.660914 0.262791 0.148241
0.667689 0.264408 0.149264
0.674388 0.266056 0.150286
0.680995 0.267781 0.151293
0.687541 0.269566 0.152377
0.693996 0.271397 0.153445
0.700313 0.273198 0.154482
0.706538 0.274952 0.155459
0.712612 0.276646 0.15642
0.718578 0.278264 0.157275
0.72433 0.279698 0.158007
0.7299 0.280964 0.158587
0.735225 0.28191 0.158953
0.740276 0.282475 0.159045
0.744991 0.282521 0.158755
0.749355 0.282032 0.158145
0.753292 0.28101 0.157244
0.757015 0.279606 0.156115
0.760342 0.277928 0.154864
0.763439 0.276097 0.153536
0.76643 0.274403 0.152255
0.769451 0.27303 0.151186
0.772427 0.272297 0.150454
0.774945 0.271946 0.14995
0.0793164 0.1467 0.052903
0.0943618 0.146746 0.0502022
0.121721 0.152392 0.0535592
0.153552 0.159213 0.0604868
0.183413 0.164813 0.0678874
0.208499 0.169268 0.0737926
0.22977 0.173953 0.0785534
0.248447 0.178195 0.0810864
0.266117 0.181689 0.0824445
0.28484 0.186221 0.085008
0.305013 0.191562 0.0884108
0.325917 0.198062 0.0933089
0.347341 0.204852 0.0985428
0.367361 0.211185 0.103624
0.387198 0.217166 0.108461
0.405127 0.222263 0.112764
0.422293 0.226932 0.116579
0.438178 0.231327 0.12015
0.453346 0.235615 0.123674
0.467811 0.239673 0.126925
0.480888 0.24329 0.129809
0.493034 0.24622 0.132158
0.504555 0.248646 0.134157
0.51545 0.250629 0.135714
0.525704 0.252415 0.137087
0.535576 0.254185 0.138323
0.545235 0.25597 0.139452
0.554681 0.257664 0.14049
0.563882 0.259236 0.141344
0.572763 0.260639 0.142153
0.581521 0.26186 0.142824
0.590097 0.263035 0.143435
0.598337 0.264134 0.143984
0.606424 0.265064 0.144472
0.614206 0.265858 0.14493
0.621836 0.266728 0.145403
0.629358 0.267857 0.146105
0.636713 0.269062 0.146853
0.643885 0.270314 0.147662
0.650919 0.271626 0.148531
0.657847 0.273014 0.149401
0.664683 0.274434 0.150301
0.671397 0.275792 0.151171
0.678004 0.277226 0.152041
0.684535 0.278721 0.152926
0.69102 0.280293 0.153841
0.697398 0.28191 0.154772
0.7037 0.283543 0.155734
0.709911 0.285222 0.156664
0.716045 0.286931 0.15761
0.722133 0.288579 0.158526
0.728069 0.290227 0.15938
0.733928 0.291798 0.160159
0.739605 0.293278 0.160861
0.745144 0.29456 0.161425
0.750423 0.295521 0.1617
0.755474 0.296086 0.161715
0.760113 0.296025 0.161349
0.764446 0.295521 0.160723
0.768322 0.294499 0.159838
0.771756 0.293034 0.158679
0.774929 0.291356 0.157458
0.777996 0.289738 0.156268
0.78085 0.288701 0.155428
0.783215 0.288151 0.154772
0.0878614 0.16849 0.0603647
0.10251 0.168032 0.0575113
0.131121 0.174182 0.061326
0.164492 0.181811 0.0689097
0.195956 0.187655 0.0765393
0.221622 0.191333 0.082002
0.242054 0.19411 0.08542
0.259113 0.196811 0.0872969
0.275975 0.199634 0.0881666
0.293034 0.203067 0.0899367
0.311925 0.207691 0.0927291
0.332235 0.213581 0.0970932
0.353475 0.220172 0.102205
0.374334 0.226902 0.107729
0.394507 0.233082 0.11284
0.41239 0.238453 0.117449
0.429328 0.243259 0.121553
0.445151 0.247715 0.125383
0.460121 0.252049 0.129
0.47422 0.256214 0.132326
0.487205 0.260151 0.135409
0.49926 0.263432 0.138033
0.51046 0.265904 0.140154
0.520836 0.267887 0.141802
0.530724 0.269551 0.14313
0.540337 0.271122 0.144305
0.549752 0.272633 0.145296
0.558968 0.274006 0.146105
0.568017 0.27538 0.146777
0.576791 0.276539 0.147311
0.585565 0.277836 0.147906
0.594308 0.279286 0.148562
0.602777 0.280598 0.149187
0.610986 0.281636 0.14966
0.618875 0.282429 0.150042
0.626535 0.283055 0.150362
0.634073 0.283574 0.150652
0.641413 0.284123 0.150973
0.648615 0.28481 0.1514
0.655695 0.285725 0.15198
0.662669 0.28687 0.152728
0.669566 0.28809 0.153475
0.67628 0.289235 0.154147
0.682826 0.290394 0.154849
0.689357 0.291646 0.15555
0.695796 0.292988 0.156313
0.70219 0.294377 0.157092
0.708476 0.295872 0.157931
0.714702 0.297368 0.158755
0.720913 0.298924 0.159594
0.727031 0.300511 0.160433
0.733059 0.302083 0.161227
0.738979 0.303639 0.162005
0.744823 0.305211 0.162753
0.750591 0.306706 0.163424
0.756161 0.308019 0.163943
0.761578 0.309087 0.164248
0.76672 0.309819 0.16434
0.771588 0.310124 0.164141
0.776165 0.310094 0.163729
0.780392 0.309651 0.163073
0.784176 0.308675 0.162142
0.787518 0.307256 0.161074
0.790463 0.306096 0.160174
0.792828 0.305592 0.159594
0.0937972 0.187243 0.0646677
0.107897 0.186053 0.0616617
0.135576 0.191379 0.0647898
0.169787 0.199222 0.0725261
0.202777 0.205692 0.0807355
0.22977 0.209506 0.0863661
0.251179 0.211887 0.0895247
0.269047 0.213886 0.0910964
0.285374 0.216358 0.0927138
0.301686 0.219303 0.094377
0.319539 0.223255 0.0967117
0.338766 0.228443 0.100496
0.359213 0.234455 0.105226
0.379721 0.240787 0.110536
0.399802 0.246769 0.115557
0.418326 0.252445 0.120516
0.435431 0.257221 0.124788
0.451286 0.261631 0.128756
0.466209 0.265949 0.132387
0.480354 0.27013 0.135805
0.493568 0.274266 0.139055
0.50602 0.278004 0.141909
0.517418 0.280903 0.144198
0.528084 0.283238 0.146075
0.538125 0.285054 0.147631
0.547692 0.286625 0.148821
0.557 0.28809 0.149798
0.56611 0.289479 0.150561
0.575051 0.290791 0.15111
0.583795 0.291981 0.151598
0.592447 0.293217 0.152087
0.601022 0.294469 0.15259
0.609354 0.295781 0.153124
0.617609 0.297063 0.153643
0.625666 0.298283 0.154208
0.633509 0.299351 0.154711
0.641062 0.300084 0.155047
0.648295 0.300587 0.155383
0.655375 0.301106 0.155749
0.662318 0.301717 0.156176
0.669123 0.302373 0.15668
0.675822 0.303105 0.157168
0.682383 0.303929 0.157687
0.688838 0.304799 0.158206
0.695186 0.305776 0.15877
0.701503 0.306844 0.159365
0.707729 0.307988 0.160006
0.713893 0.309209 0.160662
0.720027 0.310491 0.161334
0.726085 0.311879 0.162066
0.732128 0.313268 0.162768
0.738033 0.314702 0.163485
0.743908 0.316152 0.164187
0.749706 0.317632 0.164874
0.755428 0.319112 0.165545
0.761044 0.320485 0.16611
0.766552 0.321736 0.166567
0.771847 0.322805 0.166857
0.776928 0.323568 0.166918
0.781811 0.324071 0.166842
0.786374 0.324239 0.166522
0.790524 0.323995 0.165942
0.794461 0.323461 0.165225
0.79794 0.322972 0.164553
0.800549 0.322774 0.16405
0.0992142 0.205158 0.0684062
0.112718 0.203189 0.064744
0.139315 0.20766 0.067155
0.173007 0.215122 0.0744488
0.206638 0.221836 0.0827649
0.235126 0.226169 0.0890211
0.258335 0.22887 0.0929122
0.278157 0.2309 0.0950942
0.294743 0.232822 0.0963607
0.310262 0.23505 0.0981613
0.327108 0.2383 0.100328
0.345541 0.242863 0.103761
0.365332 0.248341 0.108171
0.385306 0.254337 0.113207
0.405035 0.260166 0.118105
0.423545 0.265644 0.123018
0.441001 0.270588 0.127504
0.457145 0.275135 0.131731
0.472236 0.279484 0.135561
0.486427 0.283604 0.139101
0.499733 0.287694 0.142382
0.512291 0.291539 0.145327
0.523796 0.294743 0.147753
0.5346 0.297337 0.149737
0.544747 0.299458 0.151431
0.554391 0.301198 0.152728
0.563714 0.302708 0.153719
0.572885 0.304158 0.154498
0.581918 0.305608 0.155138
0.590707 0.306874 0.155642
0.599374 0.308125 0.156085
0.607828 0.309377 0.156512
0.616083 0.310628 0.156939
0.624262 0.31194 0.157427
0.632303 0.31339 0.158022
0.640192 0.314733 0.158541
0.647868 0.315862 0.159075
0.655283 0.316808 0.159533
0.66244 0.317632 0.160037
0.669383 0.318257 0.160418
0.676112 0.318639 0.160784
0.682704 0.319005 0.161135
0.689189 0.3196 0.161547
0.695521 0.320195 0.161944
0.701778 0.320912 0.162387
0.707942 0.321721 0.16286
0.714015 0.322621 0.163348
0.719997 0.323598 0.163851
0.725917 0.32462 0.16437
0.731792 0.325765 0.16495
0.737652 0.326925 0.165499
0.743435 0.328176 0.16614
0.749203 0.329488 0.166751
0.754849 0.330831 0.167376
0.760494 0.332158 0.167956
0.766003 0.333471 0.168505
0.771481 0.334722 0.168948
0.776806 0.335943 0.16936
0.78201 0.336965 0.169635
0.78706 0.337819 0.169726
0.791775 0.338399 0.169665
0.79617 0.338674 0.16936
0.800351 0.33872 0.168917
0.803998 0.338567 0.168368
0.806668 0.338521 0.16791
0.104723 0.221912 0.0722515
0.117861 0.219562 0.0681163
0.143832 0.223545 0.0698863
0.176898 0.230488 0.076585
0.210575 0.237079 0.0847028
0.240101 0.241825 0.091371
0.264683 0.245075 0.0959945
0.285985 0.24741 0.0987869
0.303044 0.248798 0.0997024
0.318654 0.250523 0.101381
0.334981 0.253223 0.103731
0.352697 0.257084 0.107073
0.371756 0.261906 0.11107
0.391226 0.26746 0.11577
0.410544 0.273121 0.12047
0.428794 0.27863 0.125383
0.446403 0.283787 0.130114
0.462593 0.288365 0.134478
0.477852 0.292638 0.138491
0.492348 0.296773 0.142199
0.505882 0.300801 0.145602
0.518334 0.304494 0.148562
0.529854 0.307713 0.150988
0.540673 0.31046 0.153033
0.550942 0.31281 0.154772
0.560739 0.314809 0.156191
0.570214 0.316503 0.157305
0.579446 0.317998 0.158145
0.58854 0.319539 0.158862
0.597406 0.320958 0.15938
0.606119 0.322347 0.159869
0.614633 0.32372 0.160311
0.622904 0.325063 0.160739
0.630991 0.326421 0.161212
0.638956 0.32784 0.1617
0.646754 0.329244 0.162219
0.654459 0.330632 0.162783
0.661997 0.331991 0.163409
0.669306 0.333196 0.163989
0.676326 0.334066 0.164446
0.683101 0.3346 0.164828
0.689754 0.335073 0.165209
0.696239 0.335637 0.165591
0.702556 0.33611 0.165911
0.708782 0.33666 0.166293
0.7149 0.337255 0.166659
0.720867 0.337942 0.167041
0.72668 0.338735 0.167452
0.732448 0.339544 0.167849
0.73817 0.340459 0.168307
0.743832 0.341421 0.16875
0.749462 0.342473 0.169253
0.755047 0.343572 0.169757
0.76054 0.344717 0.170245
0.766018 0.345861 0.170748
0.771435 0.347021 0.171206
0.776806 0.348165 0.171603
0.78201 0.34934 0.172
0.787198 0.350408 0.172305
0.792264 0.351415 0.172549
0.797101 0.352255 0.172625
0.801617 0.35288 0.172534
0.805905 0.353262 0.172274
0.809628 0.353368 0.171847
0.812238 0.353429 0.17142
0.110277 0.23798 0.0762493
0.123659 0.235615 0.0718242
0.149416 0.239384 0.0733806
0.18175 0.245731 0.0794842
0.214984 0.251911 0.0870375
0.244694 0.256718 0.0936751
0.270069 0.260304 0.0986343
0.292134 0.263127 0.102113
0.310124 0.264332 0.103197
0.326833 0.265721 0.104646
0.343221 0.267979 0.107103
0.360189 0.271061 0.110292
0.378225 0.275074 0.113909
0.397116 0.280156 0.118273
0.416266 0.28571 0.122972
0.43418 0.291173 0.12784
0.45185 0.296574 0.132662
0.468086 0.301305 0.137179
0.483436 0.305562 0.141253
0.498054 0.309651 0.145174
0.511727 0.313619 0.148669
0.524269 0.317128 0.151644
0.535882 0.320333 0.154131
0.546853 0.323186 0.156237
0.557168 0.325673 0.158053
0.567071 0.327871 0.159533
0.576699 0.329747 0.160739
0.585992 0.331395 0.1617
0.595071 0.332967 0.162387
0.603952 0.334493 0.162997
0.612711 0.336019 0.163516
0.621302 0.337545 0.164004
0.629618 0.338994 0.164477
0.637766 0.340414 0.164889
0.645624 0.341833 0.165362
0.653346 0.343236 0.16582
0.661051 0.344778 0.166445
0.668589 0.346365 0.167117
0.675975 0.347829 0.167742
0.683116 0.349035 0.168307
0.690013 0.34992 0.16875
0.696773 0.350698 0.169223
0.703334 0.3514 0.16965
0.709728 0.351919 0.170001
0.715984 0.352392 0.170352
0.722103 0.352865 0.170672
0.728008 0.353429 0.170993
0.73373 0.354101 0.171328
0.739376 0.354803 0.171618
0.744961 0.35555 0.172015
0.75053 0.356344 0.172366
0.755978 0.357244 0.172732
0.761425 0.358144 0.173129
0.766751 0.359091 0.17351
0.772091 0.360067 0.173922
0.777371 0.361089 0.174289
0.782589 0.362081 0.174609
0.787717 0.363088 0.174914
0.792782 0.36408 0.175158
0.797787 0.365072 0.175387
0.802594 0.365972 0.17554
0.807157 0.366751 0.175509
0.811475 0.367346 0.175372
0.815198 0.367666 0.175067
0.817792 0.367788 0.174655
0.116075 0.253376 0.0805524
0.130053 0.251194 0.076112
0.155947 0.254917 0.0775464
0.187793 0.260807 0.0830701
0.220295 0.266529 0.0900587
0.249577 0.271214 0.0963912
0.274891 0.274937 0.101427
0.297429 0.278019 0.10518
0.316701 0.279469 0.10692
0.334417 0.280919 0.108507
0.351354 0.282689 0.110491
0.367941 0.284993 0.113252
0.384985 0.288182 0.116625
0.403067 0.292653 0.120775
0.422126 0.298054 0.125399
0.439796 0.303349 0.130175
0.457389 0.308858 0.135073
0.473732 0.313848 0.139773
0.489128 0.318303 0.144076
0.503685 0.322393 0.148058
0.517342 0.326238 0.151614
0.530053 0.329656 0.154711
0.542 0.332891 0.157336
0.553216 0.335866 0.159594
0.563729 0.338476 0.161456
0.573724 0.340795 0.162982
0.583368 0.342824 0.164233
0.592737 0.344625 0.165255
0.601755 0.346197 0.166003
0.610636 0.347753 0.166583
0.61941 0.349325 0.167117
0.628 0.350912 0.16762
0.636362 0.352468 0.168093
0.64448 0.353979 0.168582
0.652384 0.355459 0.169039
0.660105 0.356909 0.169528
0.667781 0.358572 0.170153
0.675319 0.360235 0.170779
0.682673 0.361852 0.17145
0.689891 0.363287 0.17203
0.69688 0.364492 0.172595
0.703731 0.365576 0.173159
0.710399 0.366506 0.173648
0.716884 0.367178 0.174044
0.723201 0.367697 0.17438
0.729335 0.368185 0.174716
0.735271 0.368734 0.17499
0.740963 0.369375 0.175296
0.746548 0.369985 0.175586
0.752087 0.370672 0.175875
0.757534 0.371389 0.176181
0.762905 0.372137 0.176486
0.768231 0.372946 0.176806
0.773449 0.373785 0.177127
0.778683 0.374624 0.177417
0.78381 0.375509 0.177707
0.788937 0.376364 0.17792
0.793912 0.377249 0.178149
0.798856 0.378103 0.178347
0.803754 0.378988 0.178485
0.808454 0.379797 0.178546
0.812985 0.380545 0.178515
0.817227 0.381186 0.178408
0.820935 0.381613 0.178134
0.823438 0.381765 0.177707
0.121965 0.268116 0.0850996
0.136446 0.266056 0.0805219
0.16286 0.269886 0.0820172
0.194842 0.275608 0.0874037
0.227161 0.281102 0.0940108
0.256123 0.285649 0.100175
0.281209 0.289311 0.10515
0.303426 0.292393 0.108934
0.323629 0.294347 0.11133
0.341985 0.296056 0.113161
0.359274 0.297429 0.114611
0.376165 0.299123 0.116594
0.392813 0.301762 0.119707
0.409781 0.30547 0.123827
0.428122 0.310277 0.128115
0.445762 0.315465 0.132891
0.463111 0.320668 0.137575
0.479362 0.32578 0.142336
0.494896 0.330617 0.146822
0.509544 0.335012 0.150912
0.52314 0.338888 0.154543
0.535973 0.34226 0.157717
0.548089 0.34551 0.16054
0.559594 0.348623 0.162966
0.570413 0.351431 0.165026
0.58056 0.353902 0.166629
0.59028 0.356039 0.167926
0.599695 0.357961 0.168994
0.608759 0.35964 0.169757
0.617609 0.36112 0.170306
0.626291 0.362661 0.170825
0.634852 0.364233 0.171313
0.643122 0.365805 0.171771
0.65127 0.367346 0.172229
0.65919 0.368902 0.172763
0.666896 0.370398 0.173251
0.674586 0.372091 0.173816
0.682094 0.373816 0.174502
0.689464 0.375509 0.175113
0.696681 0.377096 0.175738
0.703746 0.378531 0.176379
0.710689 0.379873 0.176944
0.717403 0.381033 0.177508
0.72398 0.381872 0.177935
0.730358 0.382483 0.178332
0.736538 0.383078 0.178668
