_SYSTEM/luts/NORMAL -1_0 SKIN V2.cube
TITLE "Generated by Resolve"
LUT_3D_SIZE 9
0.0181125 0.00643931 0
0.22298 0.0725109 0.0383612
0.379202 0.125231 0.0774853
0.505821 0.175631 0.115969
0.592737 0.20589 0.13785
0.650187 0.221759 0.148425
0.69073 0.222583 0.147265
0.719539 0.215106 0.140948
0.751141 0.219745 0.143679
0.0937972 0.187243 0.0646677
0.285374 0.216358 0.0927138
0.435431 0.257221 0.124788
0.538125 0.285054 0.147631
0.609354 0.295781 0.153124
0.669123 0.302373 0.15668
0.720027 0.310491 0.161334
0.766552 0.321736 0.166567
0.800549 0.322774 0.16405
0.140688 0.30811 0.10074
0.344961 0.337545 0.126482
0.482567 0.357519 0.145586
0.589944 0.389838 0.175097
0.665461 0.40705 0.183963
0.724956 0.419089 0.187747
0.775051 0.428153 0.190677
0.815702 0.43418 0.191409
0.847288 0.437415 0.188998
0.191363 0.395422 0.146975
0.394858 0.433234 0.163714
0.536187 0.463767 0.183169
0.640589 0.483894 0.196582
0.715175 0.502983 0.208255
0.776379 0.518669 0.213535
0.824353 0.529122 0.214954
0.862577 0.53753 0.213291
0.88957 0.540215 0.206714
0.23064 0.469291 0.180697
0.43534 0.512642 0.188022
0.57969 0.552865 0.211536
0.682048 0.568597 0.217212
0.754147 0.580331 0.221592
0.810956 0.591653 0.22385
0.854704 0.599741 0.221592
0.888319 0.604974 0.215763
0.911849 0.60676 0.206409
0.258122 0.539315 0.204318
0.471351 0.58291 0.20589
0.613458 0.625254 0.226581
0.714549 0.642695 0.234836
0.783291 0.648402 0.22977
0.836744 0.651942 0.224384
0.876463 0.655375 0.218952
0.906172 0.658228 0.210849
0.92781 0.659678 0.200763
0.280949 0.603113 0.22295
0.506325 0.646342 0.220035
0.641459 0.686275 0.235157
0.736614 0.700069 0.24155
0.80444 0.705409 0.234455
0.856428 0.706096 0.222431
0.893568 0.706188 0.213046
0.920607 0.706844 0.203571
0.940459 0.707759 0.193652
0.298131 0.660655 0.236149
0.535515 0.704021 0.228412
0.661204 0.735409 0.235462
0.754116 0.748333 0.241566
0.822019 0.754681 0.236179
0.871672 0.755062 0.22211
0.9066 0.754589 0.209857
0.932143 0.754314 0.199161
0.950591 0.754314 0.189319
0.307927 0.70721 0.241001
0.55169 0.74963 0.226169
0.674952 0.77557 0.228855
0.766522 0.78703 0.233448
0.834501 0.79295 0.228794
0.88304 0.794476 0.216892
0.916487 0.794995 0.205997
0.940932 0.795453 0.196277
0.95819 0.795895 0.186633
0.0514229 0.093843 0.17322
0.217533 0.111467 0.170748
0.377325 0.149355 0.171389
0.49012 0.1888 0.19559
0.563561 0.212253 0.209476
0.620005 0.232074 0.220615
0.66601 0.240421 0.226596
0.695689 0.230533 0.214984
0.726162 0.233036 0.216526
0.105699 0.232746 0.222065
0.212055 0.225315 0.199878
0.395422 0.245212 0.195834
0.516503 0.26949 0.206577
0.591546 0.286305 0.21503
0.656489 0.298924 0.22063
0.710552 0.310689 0.226459
0.760143 0.322515 0.233249
0.800351 0.329488 0.23621
0.157733 0.358038 0.272084
0.255238 0.346365 0.231266
0.430274 0.356939 0.21976
0.561257 0.38233 0.236957
0.640772 0.397879 0.246555
0.706447 0.409766 0.250492
0.7635 0.419928 0.254627
0.809705 0.427848 0.257221
0.846418 0.431571 0.256199
0.208118 0.45066 0.311391
0.316564 0.458869 0.272755
0.474342 0.473533 0.252552
0.604776 0.486107 0.254765
0.686732 0.501381 0.269688
0.753048 0.516274 0.275746
0.807599 0.526055 0.277333
0.853086 0.534707 0.277394
0.886961 0.538201 0.272862
0.242924 0.525307 0.337392
0.361913 0.544244 0.305211
0.515923 0.566812 0.286152
0.643214 0.581979 0.282185
0.726894 0.589303 0.284794
0.788388 0.597696 0.286641
0.839567 0.605219 0.284504
0.880796 0.610788 0.280644
0.911055 0.61355 0.273808
0.266911 0.595239 0.359701
0.399344 0.621546 0.330022
0.553094 0.645853 0.309087
0.673762 0.659281 0.304601
0.756298 0.66453 0.297765
0.817639 0.666117 0.291173
0.864942 0.668147 0.286122
0.902007 0.670481 0.279377
0.92929 0.671626 0.270512
0.28571 0.657984 0.378042
0.431174 0.688823 0.344839
0.584024 0.713664 0.322606
0.698009 0.722118 0.316411
0.778256 0.726452 0.307164
0.840375 0.726925 0.295308
0.885267 0.726085 0.285786
0.919005 0.725902 0.277104
0.943282 0.725917 0.267369
0.30074 0.715663 0.39086
0.458808 0.748394 0.352316
0.608637 0.770306 0.329046
0.719203 0.77792 0.32372
0.797711 0.781735 0.316304
0.857908 0.781872 0.302007
0.90132 0.781628 0.289799
0.933394 0.781521 0.279561
0.955459 0.780591 0.269291
0.307958 0.762585 0.393423
0.474159 0.795926 0.347082
0.623133 0.81474 0.323629
0.734005 0.822843 0.320363
0.811704 0.826856 0.315084
0.870832 0.828 0.303746
0.912688 0.828061 0.291264
0.943725 0.829511 0.282078
0.963912 0.828931 0.271626
0.0632944 0.130953 0.276188
0.205768 0.153124 0.306783
0.380316 0.18349 0.285634
0.494194 0.216861 0.280171
0.556512 0.22858 0.276326
0.616159 0.240085 0.279225
0.657298 0.249989 0.28542
0.693172 0.249256 0.285725
0.720623 0.248692 0.282048
0.113176 0.265431 0.323171
0.203021 0.269123 0.321309
0.354864 0.258076 0.292042
0.496544 0.275731 0.281254
0.579492 0.296696 0.286748
0.647562 0.311589 0.292836
0.699962 0.32549 0.297307
0.746319 0.339895 0.303609
0.786313 0.349233 0.30663
0.169467 0.374426 0.36141
0.248386 0.37734 0.361196
0.399954 0.399039 0.369894
0.560037 0.396323 0.339132
0.646693 0.409354 0.339834
0.714611 0.424292 0.347265
0.770809 0.432807 0.34995
0.816251 0.441474 0.351385
0.852094 0.446036 0.348577
0.216434 0.470314 0.405722
0.30518 0.489677 0.404395
0.4392 0.511666 0.395926
0.597604 0.510002 0.366293
0.691386 0.5178 0.371115
0.759854 0.531273 0.377615
0.815991 0.538079 0.378683
0.860456 0.542641 0.376394
0.893675 0.544167 0.370794
0.252003 0.55172 0.439017
0.353719 0.579049 0.435325
0.481285 0.599374 0.414359
0.618921 0.60087 0.385687
0.72076 0.605188 0.382956
0.787961 0.612238 0.388495
0.843091 0.61944 0.387594
0.885649 0.623713 0.382788
0.917021 0.625376 0.375143
0.277272 0.623163 0.465843
0.391592 0.655253 0.459068
0.519677 0.675975 0.431983
0.648585 0.68011 0.40885
0.743984 0.680873 0.395209
0.81326 0.682475 0.391989
0.864576 0.683711 0.388479
0.904295 0.6851 0.382086
0.93341 0.686061 0.374533
0.293919 0.684535 0.486763
0.421714 0.722911 0.476677
0.549325 0.73843 0.442527
0.675868 0.744396 0.423484
0.76524 0.744778 0.41033
0.833616 0.74435 0.398383
0.882933 0.742336 0.388922
0.919829 0.741405 0.382467
0.946365 0.741054 0.375021
0.30573 0.740978 0.50193
0.444678 0.782132 0.482444
0.57467 0.796262 0.450095
0.697688 0.803143 0.430732
0.782788 0.803082 0.420813
0.849592 0.802655 0.409476
0.898207 0.800717 0.39556
0.933593 0.799298 0.387121
0.958175 0.797742 0.379812
0.30837 0.786191 0.506798
0.456535 0.82948 0.477699
0.590768 0.844343 0.447929
0.711788 0.851728 0.430228
0.794949 0.851301 0.422278
0.860365 0.850324 0.414054
0.908934 0.849287 0.401602
0.943648 0.849226 0.393484
0.966445 0.84799 0.385595
0.0766766 0.156512 0.354009
0.195254 0.175738 0.381353
0.370504 0.208118 0.382605
0.493385 0.237461 0.359396
0.570169 0.253529 0.350256
0.625376 0.264591 0.34902
0.670817 0.275746 0.35172
0.71342 0.283909 0.35903
0.743358 0.285512 0.359762
0.12076 0.285924 0.39144
0.213596 0.300557 0.402808
0.333043 0.292805 0.389288
0.476081 0.290288 0.359869
0.570886 0.305089 0.349722
0.635157 0.318273 0.348577
0.687755 0.332464 0.352041
0.734295 0.347326 0.358068
0.773053 0.358129 0.361059
0.186725 0.395636 0.427375
0.266468 0.406714 0.442176
0.374182 0.423926 0.457313
0.524605 0.405005 0.425711
0.637964 0.417243 0.415915
0.710552 0.43772 0.420859
0.767269 0.451591 0.426062
0.813169 0.46183 0.428061
0.847608 0.467414 0.425254
0.227344 0.480751 0.46656
0.312459 0.505348 0.490333
0.427146 0.539178 0.520409
0.589044 0.55964 0.523812
0.700374 0.537026 0.478065
0.76318 0.541756 0.472511
0.821515 0.550652 0.473014
0.866133 0.55555 0.470985
0.898863 0.557733 0.46685
0.25478 0.562432 0.506355
0.355444 0.5991 0.532113
0.467155 0.626474 0.542031
0.607294 0.650401 0.536156
0.730571 0.636454 0.499931
0.791089 0.627115 0.4925
0.847105 0.632258 0.489113
0.890242 0.635019 0.48484
0.921996 0.63563 0.478904
0.279637 0.636606 0.540795
0.39234 0.678325 0.562112
0.5066 0.702708 0.557671
0.622995 0.70631 0.531716
0.730892 0.704173 0.505409
0.809171 0.699062 0.498222
0.863798 0.69894 0.494041
0.90547 0.70013 0.488701
0.93547 0.700664 0.48275
0.297719 0.699779 0.567636
0.419928 0.745205 0.581964
0.536294 0.764584 0.564721
0.64918 0.770382 0.537392
0.746105 0.766125 0.517235
0.82443 0.762478 0.504143
0.879591 0.75967 0.495796
0.918669 0.757382 0.490013
0.947341 0.756695 0.484962
0.309682 0.757122 0.587533
0.440406 0.803616 0.590127
0.55906 0.821866 0.56669
0.670161 0.828367 0.539101
0.763317 0.824872 0.522667
0.837018 0.820844 0.510872
0.892134 0.818173 0.498497
0.93135 0.816144 0.49305
0.958144 0.813962 0.489464
0.309209 0.800626 0.594507
0.447181 0.848127 0.587015
0.56936 0.866804 0.561379
0.682536 0.874113 0.536187
0.775067 0.872511 0.521798
0.845716 0.867643 0.511589
0.900236 0.865629 0.502327
0.939712 0.864881 0.497688
0.965789 0.863005 0.494148
0.0836957 0.171191 0.409674
0.177646 0.180606 0.425772
0.347585 0.216999 0.445808
0.483574 0.244556 0.430793
0.571908 0.2663 0.413108
0.636576 0.280369 0.409308
0.68452 0.291615 0.412116
0.724285 0.301106 0.417151
0.756054 0.306294 0.420111
0.103502 0.257176 0.42211
0.21294 0.306645 0.454612
0.326589 0.323125 0.45481
0.463859 0.313252 0.43711
0.567147 0.3196 0.417197
0.639719 0.33167 0.409842
0.694087 0.345281 0.410468
0.742412 0.360372 0.416266
0.781888 0.371206 0.41828
0.197101 0.411566 0.478004
0.280385 0.429511 0.499825
0.379065 0.44567 0.523415
0.507103 0.431022 0.515328
0.625864 0.42742 0.489632
0.706584 0.442634 0.482673
0.763561 0.454765 0.48217
0.810315 0.465003 0.482139
0.84596 0.471412 0.478767
0.241108 0.493843 0.516213
0.327184 0.519051 0.547356
0.429099 0.548394 0.575402
0.55288 0.572244 0.598321
0.676692 0.547356 0.559945
0.755642 0.547127 0.540124
0.820432 0.559442 0.54136
0.86685 0.566155 0.540475
0.90016 0.568399 0.536324
0.261646 0.569192 0.555871
0.363058 0.606821 0.594034
0.470817 0.638468 0.621103
0.59353 0.674678 0.654749
0.731167 0.678126 0.642084
0.806317 0.646265 0.589502
0.846967 0.639719 0.572351
0.892241 0.641505 0.566522
0.92459 0.641199 0.560586
0.279393 0.641932 0.592981
0.394491 0.689662 0.633005
0.502571 0.71754 0.648249
0.607263 0.731472 0.646662
0.73373 0.753658 0.643305
0.832197 0.7364 0.610346
0.864897 0.711727 0.58706
0.90483 0.70898 0.577356
0.936019 0.707546 0.569512
0.297063 0.706676 0.623789
0.417853 0.756069 0.655695
0.530434 0.779904 0.657984
0.630335 0.787579 0.64007
0.728344 0.787854 0.620722
0.819852 0.788434 0.604074
0.875654 0.776028 0.592599
0.91606 0.770581 0.584298
0.947204 0.768643 0.577279
0.310079 0.764584 0.646723
0.436957 0.814572 0.666606
0.549508 0.834592 0.657984
0.649149 0.842908 0.635401
0.742855 0.841886 0.615946
0.821622 0.836042 0.601221
0.884306 0.833539 0.59205
0.928389 0.831189 0.585824
0.957397 0.827665 0.579904
0.309453 0.808423 0.65742
0.441093 0.85745 0.666285
0.555535 0.877775 0.652155
0.659388 0.887648 0.627787
0.75314 0.888029 0.608881
0.832395 0.882887 0.596475
0.893004 0.879667 0.588846
0.936614 0.879103 0.585
0.964233 0.876539 0.581186
0.0843061 0.179522 0.442466
0.152453 0.172946 0.43827
0.29633 0.203159 0.469566
0.461051 0.243748 0.488182
0.565896 0.268421 0.476081
0.638315 0.287053 0.46215
0.687617 0.298009 0.459342
0.729458 0.308385 0.464469
0.760739 0.314885 0.467262
0.0836042 0.224903 0.424094
0.149859 0.231113 0.448127
0.306523 0.302205 0.504295
0.452995 0.330816 0.507317
0.562097 0.336477 0.489891
0.642847 0.346578 0.477333
0.699504 0.359716 0.471427
0.749264 0.374731 0.474052
0.789227 0.385443 0.474434
0.19292 0.406226 0.520333
0.286702 0.442313 0.549203
0.387854 0.467842 0.580026
0.498009 0.457404 0.583642
0.617441 0.448066 0.567498
0.704952 0.453101 0.548669
0.767239 0.463935 0.542306
0.814725 0.472892 0.538216
0.850324 0.477989 0.531624
0.251606 0.507515 0.56112
0.337545 0.533471 0.593164
0.439857 0.565454 0.629999
0.539071 0.578027 0.645579
0.657084 0.56289 0.635142
0.747829 0.555352 0.608194
0.815732 0.562173 0.598932
0.865583 0.569055 0.595224
0.899657 0.570672 0.588922
0.273899 0.577783 0.599786
0.375692 0.615228 0.64155
0.483528 0.646601 0.674479
0.580377 0.668482 0.693263
0.691997 0.682429 0.709651
0.788434 0.656168 0.668391
0.843336 0.646235 0.639033
0.892546 0.64831 0.632212
0.926345 0.648005 0.626307
0.287236 0.646494 0.636912
0.402792 0.694377 0.684245
0.508965 0.720729 0.709041
0.603861 0.736034 0.720302
0.718059 0.771893 0.756405
0.840879 0.780957 0.753307
0.883192 0.73547 0.686763
0.903517 0.717128 0.655848
0.937285 0.714473 0.646448
0.298146 0.71046 0.669566
0.417624 0.761074 0.711528
0.527993 0.785992 0.728756
0.621988 0.798489 0.729427
0.712688 0.811093 0.73106
0.838926 0.844907 0.744778
0.909697 0.826261 0.712032
0.91664 0.784115 0.670817
0.945937 0.779004 0.659251
0.309651 0.767773 0.693858
0.432776 0.819593 0.726024
0.54461 0.840742 0.733364
0.635904 0.852506 0.726864
0.722759 0.852949 0.708812
0.812055 0.854459 0.696773
0.888258 0.860914 0.689555
0.925582 0.846632 0.67512
0.954681 0.84007 0.664439
0.309331 0.811917 0.707378
0.436118 0.862074 0.729351
0.547494 0.882673 0.730556
0.642115 0.895155 0.717235
0.73315 0.897246 0.696529
0.82089 0.894804 0.682063
0.885313 0.891524 0.674647
0.931807 0.891768 0.670359
0.962112 0.889815 0.663401
0.147585 0.288777 0.576654
0.16434 0.19205 0.465599
0.229587 0.179278 0.458152
0.380972 0.204135 0.487511
0.528649 0.248539 0.516732
0.629084 0.279728 0.515267
0.689708 0.300374 0.510109
0.733181 0.314015 0.50985
0.764782 0.321569 0.510948
0.0791791 0.220905 0.427543
0.129793 0.214679 0.438972
0.22623 0.240833 0.487419
0.403326 0.289036 0.542382
0.543267 0.326711 0.559869
0.638972 0.352163 0.547417
0.703365 0.371786 0.535286
0.755138 0.38616 0.532494
0.796735 0.39704 0.532403
0.138308 0.316564 0.498207
0.215473 0.357061 0.542947
0.369314 0.446143 0.617609
0.495552 0.474342 0.641596
0.610666 0.471427 0.638605
0.70071 0.469749 0.621195
0.769482 0.477623 0.608484
0.819486 0.485496 0.600534
0.855253 0.489189 0.591485
0.250431 0.511742 0.602914
0.343252 0.545602 0.638331
0.450019 0.582071 0.681239
0.547417 0.594064 0.70251
0.64863 0.582971 0.705882
0.742351 0.571313 0.686122
0.813092 0.570535 0.665629
0.865766 0.574105 0.653269
0.900008 0.574395 0.643366
0.283085 0.587228 0.640574
0.386175 0.625727 0.684459
0.492882 0.657893 0.721538
0.582895 0.67631 0.739116
0.66714 0.678752 0.747265
0.765576 0.661204 0.730785
0.836271 0.653284 0.706615
0.889204 0.651774 0.695903
0.926665 0.650843 0.687938
0.299672 0.650965 0.676173
0.415961 0.698222 0.72636
0.522683 0.724224 0.757214
0.612573 0.740337 0.77052
0.693767 0.755764 0.783322
0.794995 0.768856 0.80647
0.870542 0.747509 0.768948
0.902266 0.726497 0.728496
0.938186 0.72192 0.717281
0.308507 0.712459 0.708537
0.428229 0.761975 0.756039
0.536721 0.786465 0.782864
0.625223 0.800397 0.793622
0.706172 0.810666 0.800565
0.823835 0.855451 0.849577
0.92781 0.875059 0.862638
0.936446 0.81384 0.776318
0.945052 0.790738 0.742336
0.312383 0.769116 0.734051
0.43183 0.820706 0.774884
0.542397 0.842588 0.794079
0.631907 0.855512 0.802045
0.712154 0.861006 0.800015
0.801984 0.875929 0.806043
0.921859 0.919432 0.842466
0.959365 0.899138 0.802136
0.954208 0.854994 0.755779
0.310399 0.81207 0.748821
0.432517 0.863798 0.782773
0.543206 0.884337 0.795819
0.63566 0.897932 0.799481
0.717418 0.904204 0.792325
0.804623 0.90309 0.775265
0.880018 0.904753 0.772793
0.937331 0.914595 0.771878
0.959228 0.902892 0.756878
0.162402 0.318349 0.625208
0.280629 0.314931 0.632792
0.30045 0.256931 0.542977
0.298009 0.171481 0.465843
0.418235 0.191623 0.495338
0.55555 0.235035 0.524865
0.653742 0.27039 0.542138
0.721736 0.298695 0.551507
0.763073 0.315877 0.553231
0.160815 0.354009 0.565225
0.188937 0.293309 0.519722
0.196185 0.226917 0.478279
0.299413 0.231189 0.51133
0.45861 0.275441 0.564813
0.595331 0.321859 0.593393
0.689525 0.357458 0.593912
0.755367 0.385351 0.590112
0.800885 0.403464 0.585458
0.11809 0.281987 0.490455
0.170169 0.292515 0.51603
0.279332 0.352972 0.583673
0.422858 0.400992 0.641108
0.571801 0.441444 0.681819
0.688182 0.471031 0.691035
0.767514 0.487221 0.679011
0.823835 0.496666 0.665888
0.859953 0.498161 0.653056
0.203403 0.442649 0.602579
0.293492 0.490608 0.649363
0.438865 0.573663 0.722988
0.556512 0.609049 0.760357
0.647013 0.60177 0.769818
0.735714 0.589166 0.761242
0.809796 0.583276 0.739849
0.866148 0.583841 0.723323
0.901793 0.581918 0.708553
0.286534 0.595361 0.679728
0.39292 0.634913 0.726162
0.499245 0.66862 0.768963
0.589715 0.686107 0.792233
0.666636 0.686839 0.803815
0.752895 0.673274 0.801846
0.829816 0.661646 0.783459
0.887449 0.657511 0.767132
0.926635 0.654978 0.756436
0.308263 0.656901 0.713649
0.425467 0.702617 0.76672
0.530037 0.729625 0.801709
0.61857 0.74728 0.819028
0.688579 0.756771 0.827451
0.760891 0.754192 0.831678
0.843214 0.740963 0.820829
0.896696 0.731075 0.800137
0.93727 0.72697 0.790814
0.321645 0.71426 0.744549
0.444266 0.761654 0.797284
0.550179 0.786435 0.828016
0.638117 0.801022 0.842664
0.709895 0.811353 0.847242
0.783459 0.82472 0.859434
0.878187 0.844694 0.892515
0.928603 0.826688 0.862211
0.944854 0.804089 0.823209
0.324849 0.768811 0.770565
0.44509 0.818479 0.818311
0.551522 0.842023 0.844816
0.639689 0.854826 0.859678
0.716396 0.863188 0.864622
0.794491 0.871931 0.867247
0.906767 0.922026 0.925338
0.97174 0.937179 0.940993
0.97174 0.888426 0.872648
0.317983 0.811765 0.787259
0.437324 0.862135 0.829541
0.544808 0.884108 0.850782
0.636027 0.897658 0.864485
0.714153 0.906508 0.870008
0.794064 0.909987 0.865522
0.87332 0.922957 0.871702
0.964446 0.962524 0.909514
0.982742 0.952285 0.886046
0.174517 0.320912 0.680629
0.293736 0.322683 0.681788
0.385122 0.329351 0.661097
0.368414 0.242267 0.556039
0.352087 0.169772 0.487495
0.44329 0.183307 0.504463
0.587762 0.23566 0.548257
0.679728 0.270817 0.57116
0.745769 0.300145 0.585672
0.194736 0.403464 0.635508
0.263951 0.396902 0.64686
0.28043 0.327626 0.594186
0.264347 0.224735 0.514061
0.356893 0.228473 0.538552
0.49247 0.264317 0.579095
0.619516 0.307256 0.606622
0.72015 0.349981 0.625483
0.792264 0.388663 0.633127
0.127352 0.300191 0.516823
0.173404 0.298833 0.533288
0.231556 0.30515 0.567422
0.342428 0.33315 0.618296
0.47306 0.367102 0.65977
0.618814 0.415885 0.702235
0.734936 0.459709 0.723323
0.815396 0.490089 0.721569
0.860899 0.502052 0.708095
0.170443 0.391394 0.596185
0.237964 0.416236 0.630335
0.346792 0.468605 0.690654
0.501335 0.541405 0.767865
0.628489 0.584482 0.810605
0.728054 0.599908 0.821576
0.80499 0.595956 0.807309
0.864607 0.592172 0.787152
0.903288 0.588617 0.76968
0.272251 0.583597 0.707485
0.379126 0.625483 0.758709
0.497032 0.671046 0.810117
0.594659 0.693568 0.840726
0.671107 0.694667 0.855711
0.748547 0.684184 0.859251
0.822644 0.671595 0.851347
0.884459 0.662745 0.833982
0.926772 0.659113 0.820951
0.310704 0.662501 0.745602
0.430426 0.706737 0.802365
0.533028 0.734585 0.840192
0.621073 0.753262 0.862608
0.691035 0.761517 0.873579
0.758572 0.757382 0.87837
0.83125 0.744595 0.875502
0.893355 0.733379 0.864836
0.936812 0.728908 0.856138
0.32726 0.717311 0.775616
0.451667 0.762768 0.832013
0.555291 0.787961 0.864027
0.642817 0.804562 0.882704
0.712398 0.815579 0.888487
0.775158 0.822461 0.892668
0.839521 0.820401 0.895872
0.902617 0.812757 0.891646
0.942336 0.806622 0.881254
0.332738 0.768261 0.799176
0.457618 0.816175 0.85211
0.560372 0.839933 0.880827
0.649119 0.853651 0.89897
0.725292 0.863416 0.905043
0.795331 0.871138 0.903761
0.858534 0.881865 0.913817
0.939864 0.907866 0.952316
0.965789 0.891997 0.93167
0.325109 0.810025 0.814832
0.447166 0.858915 0.863371
0.552514 0.882353 0.888777
0.64509 0.89575 0.905653
0.722667 0.904952 0.913741
0.798657 0.910353 0.91284
0.862913 0.916762 0.913268
0.957824 0.963882 0.969207
0.992798 0.977523 0.981506
