_SYSTEM/luts/NORMAL -1_0 BASE + SKIN.cube
TITLE "Generated by Resolve"
LUT_3D_SIZE 9
0.00433356 0.0031281 0.00383001
0.340719 0.0548714 0.0388647
0.542672 0.0836042 0.052491
0.678798 0.122438 0.0684062
0.752453 0.157748 0.0896315
0.796841 0.176043 0.103731
0.83563 0.173007 0.101305
0.868132 0.157641 0.0935683
0.896391 0.161578 0.0944839
0.0362554 0.294301 0.0578622
0.377508 0.241016 0.0724193
0.504112 0.236744 0.0789807
0.614481 0.256123 0.0970321
0.686717 0.265538 0.10724
0.749599 0.270527 0.11194
0.802411 0.277623 0.114763
0.849699 0.288655 0.116075
0.886595 0.285969 0.110948
0.0225834 0.414084 0.0539254
0.408011 0.362829 0.0535897
0.54931 0.344366 0.081651
0.647883 0.368109 0.10312
0.722591 0.386481 0.115312
0.78085 0.400076 0.123568
0.831601 0.40972 0.128664
0.873106 0.416098 0.130907
0.903731 0.419852 0.130739
0.0652476 0.467247 0.104875
0.424765 0.435996 0.0773175
0.561944 0.434256 0.0986038
0.666041 0.442588 0.111345
0.744396 0.467124 0.126848
0.807553 0.489006 0.136873
0.858274 0.503792 0.141421
0.899489 0.515663 0.141863
0.927474 0.521233 0.138231
0.11696 0.50927 0.152926
0.435142 0.500374 0.0946365
0.569238 0.505501 0.111055
0.670024 0.507454 0.123522
0.753658 0.521096 0.134707
0.819043 0.54078 0.143786
0.870176 0.557 0.14641
0.90985 0.567758 0.142931
0.93756 0.573281 0.135485
0.134615 0.557275 0.168093
0.446921 0.559136 0.101396
0.576959 0.566567 0.117723
0.678599 0.575097 0.136217
0.75668 0.578576 0.143297
0.824033 0.585901 0.144533
0.878691 0.597848 0.145052
0.918227 0.606943 0.139513
0.946441 0.612299 0.129885
0.141299 0.600656 0.171008
0.458488 0.610147 0.104005
0.58677 0.618647 0.120165
0.686061 0.626566 0.13666
0.766339 0.633295 0.146593
0.831693 0.635782 0.146426
0.887266 0.640665 0.142336
0.926513 0.645609 0.134798
0.956481 0.651041 0.12575
0.145235 0.63975 0.170657
0.46595 0.657267 0.103517
0.592905 0.665034 0.117922
0.693156 0.673075 0.133059
0.77702 0.68249 0.145068
0.842542 0.687816 0.147631
0.895277 0.690013 0.142687
0.934539 0.690669 0.134707
0.964813 0.693034 0.125307
0.145754 0.674037 0.16614
0.466545 0.698756 0.0990616
0.596887 0.707103 0.113161
0.699687 0.714656 0.126604
0.784802 0.723751 0.138033
0.851087 0.73051 0.142901
0.90222 0.734112 0.142809
0.940658 0.734707 0.136355
0.968978 0.736004 0.125994
0.0288396 0.1093 0.390524
0.380011 0.0813764 0.297383
0.555566 0.11368 0.231128
0.65565 0.148836 0.221927
0.698528 0.187015 0.229587
0.73022 0.208453 0.235294
0.778866 0.20734 0.227863
0.817792 0.184207 0.198093
0.851408 0.184802 0.195621
0.0644999 0.317418 0.314473
0.263478 0.2813 0.25832
0.462135 0.231357 0.180621
0.587549 0.242847 0.177432
0.665827 0.256291 0.182147
0.730602 0.267445 0.184909
0.788586 0.276051 0.185946
0.842695 0.283803 0.186801
0.88716 0.286244 0.184161
0.0536507 0.440711 0.322713
0.239063 0.394125 0.22092
0.460121 0.356893 0.184848
0.596948 0.366781 0.187304
0.689143 0.381857 0.194018
0.756786 0.393606 0.200855
0.816159 0.402258 0.206119
0.865125 0.407691 0.207416
0.903273 0.409064 0.20589
0.0833448 0.510216 0.342306
0.259297 0.482292 0.237018
0.447303 0.460594 0.187518
0.587228 0.446983 0.177432
0.693049 0.467506 0.1906
0.771756 0.490929 0.201984
0.834913 0.506279 0.209415
0.887129 0.518502 0.213092
0.924346 0.525002 0.212589
0.116655 0.558511 0.343343
0.27602 0.551461 0.247547
0.450065 0.540398 0.201221
0.586648 0.533578 0.188693
0.686885 0.527871 0.186648
0.771939 0.542855 0.193591
0.839506 0.561532 0.200488
0.894209 0.575982 0.202777
0.934218 0.585428 0.200961
0.12639 0.609155 0.339513
0.291325 0.615137 0.253681
0.459037 0.611093 0.212879
0.588785 0.605783 0.19791
0.693492 0.605402 0.197391
0.77612 0.601373 0.192966
0.846937 0.608927 0.195087
0.903624 0.620844 0.196246
0.945541 0.629267 0.191653
0.129809 0.65185 0.333089
0.303044 0.666148 0.251041
0.471641 0.669245 0.217411
0.601221 0.665599 0.205051
0.707225 0.667903 0.205646
0.792432 0.667689 0.203693
0.860899 0.667048 0.198779
0.916762 0.670665 0.194247
0.958312 0.676112 0.187182
0.131273 0.690959 0.323507
0.315801 0.712489 0.243366
0.487098 0.721965 0.218112
0.61796 0.720851 0.210086
0.724483 0.724514 0.212543
0.808454 0.727184 0.212711
0.875914 0.728099 0.208194
0.929946 0.728344 0.200366
0.970138 0.727703 0.190127
0.129915 0.724956 0.310369
0.324865 0.754452 0.233005
0.499687 0.767971 0.213901
0.633234 0.768887 0.209766
0.737011 0.771389 0.21265
0.820722 0.775708 0.216541
0.886107 0.777569 0.213596
0.939254 0.77969 0.208392
0.975998 0.778958 0.19794
0.0108034 0.139971 0.565682
0.296468 0.111818 0.55639
0.543923 0.137179 0.407477
0.632013 0.177981 0.330999
0.676493 0.212909 0.308263
0.723507 0.224674 0.297856
0.769818 0.226535 0.288731
0.81622 0.207034 0.271946
0.846189 0.194598 0.245762
0.0307469 0.332952 0.468925
0.205371 0.308843 0.428214
0.422446 0.271473 0.355444
0.543435 0.260716 0.285939
0.633448 0.269963 0.269917
0.702846 0.281041 0.26537
0.756817 0.292149 0.262699
0.807218 0.302266 0.261051
0.855741 0.308232 0.257694
0.0724651 0.435294 0.432242
0.212863 0.407111 0.393469
0.39234 0.414191 0.386435
0.580896 0.375311 0.315709
0.682521 0.386221 0.312428
0.75581 0.397757 0.315465
0.813901 0.404196 0.315175
0.861799 0.410712 0.311864
0.900847 0.413443 0.30457
0.106096 0.511528 0.44155
0.230396 0.504219 0.390234
0.377325 0.503761 0.353567
0.556451 0.474922 0.300237
0.691859 0.494347 0.321798
0.784237 0.519356 0.336217
0.846967 0.527733 0.34197
0.894636 0.532067 0.340749
0.928893 0.532891 0.334676
0.130449 0.575113 0.448875
0.248539 0.579767 0.392096
0.386191 0.583124 0.344213
0.5411 0.560693 0.300114
0.663294 0.548821 0.286763
0.766796 0.566644 0.304891
0.843793 0.587777 0.317922
0.899901 0.600977 0.322133
0.938521 0.608301 0.320714
0.138476 0.629389 0.448493
0.262547 0.644068 0.392599
0.401526 0.649821 0.343893
0.548394 0.634714 0.301732
0.666835 0.628504 0.289204
0.759884 0.621897 0.280995
0.840497 0.62974 0.289097
0.902235 0.642252 0.296376
0.946792 0.651987 0.297887
0.140352 0.672663 0.443976
0.277958 0.699626 0.385412
0.422782 0.708003 0.343816
0.566979 0.698482 0.308461
0.680751 0.693065 0.296269
0.775753 0.691981 0.289754
0.849378 0.687816 0.281865
0.912154 0.691539 0.283299
0.9579 0.697322 0.283467
0.13901 0.71104 0.435401
0.29514 0.750698 0.373037
0.442634 0.761975 0.338186
0.587213 0.757427 0.311894
0.698528 0.752529 0.301518
0.791348 0.752651 0.299565
0.865202 0.751827 0.294606
0.924514 0.750759 0.288365
0.968978 0.749508 0.282032
0.134859 0.744625 0.423758
0.307012 0.793973 0.358038
0.45658 0.808255 0.326986
0.603891 0.808331 0.308995
0.715297 0.804746 0.304616
0.802228 0.801053 0.304692
0.876188 0.802762 0.305074
0.934234 0.803464 0.300496
0.973953 0.801831 0.290852
0 0.160357 0.712551
0.248493 0.136751 0.689509
0.498177 0.15491 0.579248
0.595315 0.202518 0.445869
0.641016 0.234623 0.376287
0.707225 0.23769 0.353765
0.763119 0.238209 0.336538
0.812985 0.228565 0.326009
0.852247 0.220172 0.315206
0.00770581 0.346746 0.585794
0.194629 0.324865 0.55433
0.354467 0.30277 0.492744
0.504555 0.28069 0.404395
0.605768 0.278386 0.345617
0.682063 0.284199 0.319997
0.740505 0.294102 0.311986
0.791211 0.305104 0.30898
0.835569 0.314015 0.305486
0.0812085 0.447013 0.516289
0.218433 0.424292 0.492805
0.33341 0.433951 0.49337
0.510491 0.399313 0.441352
0.63534 0.377981 0.391272
0.728222 0.39089 0.38381
0.792477 0.404471 0.383307
0.84419 0.414359 0.379263
0.885603 0.421302 0.372076
0.125246 0.507912 0.502281
0.231724 0.508934 0.496101
0.347341 0.522957 0.501839
0.51519 0.538521 0.506249
0.687602 0.508125 0.447532
0.774533 0.519951 0.44773
0.842695 0.528054 0.446174
0.891218 0.529976 0.439368
0.927275 0.53051 0.431769
0.13727 0.573831 0.516487
0.24387 0.591592 0.505516
0.358557 0.604883 0.488365
0.500374 0.61294 0.465507
0.653269 0.585809 0.409949
0.769162 0.595743 0.439612
0.857466 0.619867 0.458167
0.908583 0.626856 0.46006
0.941711 0.629114 0.456977
0.146822 0.634882 0.527077
0.260105 0.663859 0.509209
0.374731 0.676936 0.477775
0.507698 0.674372 0.441901
0.633921 0.656809 0.41001
0.744091 0.64506 0.391546
0.839231 0.65568 0.408408
0.90518 0.670588 0.424109
0.947341 0.680232 0.431312
0.15082 0.682383 0.530297
0.274861 0.722667 0.504097
0.397498 0.736263 0.470192
0.525017 0.737011 0.431327
0.650324 0.723918 0.405554
0.755245 0.714488 0.390524
0.838407 0.709606 0.380652
0.906188 0.7131 0.389441
0.955077 0.721447 0.40206
0.14757 0.722789 0.526772
0.289647 0.774716 0.49427
0.416175 0.7906 0.461204
0.54847 0.79469 0.42771
0.671382 0.78497 0.404715
0.768444 0.775494 0.394095
0.848249 0.772641 0.388418
0.913542 0.770306 0.384833
0.963684 0.769497 0.387182
0.141527 0.756878 0.518669
0.298436 0.818219 0.480262
0.426657 0.836957 0.450248
0.561669 0.843168 0.42179
0.68545 0.837247 0.405112
0.778454 0.827451 0.398581
0.856809 0.82385 0.397406
0.922728 0.822751 0.395697
0.970916 0.819684 0.391058
0 0.175479 0.799725
0.203159 0.149798 0.777646
0.436057 0.169558 0.689311
0.557504 0.208087 0.563973
0.622156 0.243717 0.465156
0.690639 0.248859 0.421347
0.751247 0.248203 0.401297
0.799985 0.247547 0.386267
0.843732 0.24094 0.373159
0.000442512 0.311192 0.683864
0.184436 0.327688 0.649195
0.321172 0.328374 0.573098
0.462791 0.308629 0.520378
0.580728 0.296681 0.445609
0.66273 0.297047 0.394125
0.730068 0.30193 0.366491
0.78764 0.310109 0.356802
0.83743 0.316991 0.347524
0.0845808 0.455558 0.589456
0.223697 0.440986 0.569284
0.329366 0.441917 0.578836
0.462623 0.419989 0.565225
0.609628 0.391638 0.501457
0.702907 0.387381 0.454948
0.772457 0.391424 0.432319
0.830014 0.399344 0.419745
0.877165 0.407355 0.408652
0.141161 0.512444 0.555962
0.242313 0.513085 0.569436
0.346578 0.526772 0.576165
0.458091 0.550683 0.593713
0.616632 0.513878 0.541878
0.722896 0.492058 0.49688
0.815625 0.500557 0.490562
0.879164 0.50988 0.487724
0.92369 0.51487 0.481773
0.147631 0.571633 0.566964
0.25005 0.590814 0.584054
0.359457 0.609445 0.591943
0.476631 0.636378 0.609766
0.647105 0.648478 0.607416
0.785962 0.618021 0.557107
0.847822 0.620203 0.550484
0.906615 0.626368 0.548867
0.942687 0.624048 0.539071
0.150744 0.632639 0.581888
0.261295 0.6692 0.596445
0.370413 0.689494 0.595514
0.48629 0.699138 0.58085
0.620478 0.709041 0.561074
0.757626 0.687892 0.512215
0.837293 0.680491 0.533471
0.90956 0.696895 0.551537
0.947234 0.701381 0.552789
0.155383 0.682429 0.592187
0.276081 0.733227 0.598901
0.389624 0.752316 0.589029
0.49926 0.760967 0.56083
0.622156 0.753887 0.536095
0.732036 0.739315 0.511498
0.820829 0.730266 0.494301
0.900664 0.73611 0.50721
0.952712 0.74548 0.522301
0.154498 0.726375 0.59646
0.291142 0.788846 0.595529
0.40647 0.808164 0.578943
0.518105 0.818402 0.546395
0.635615 0.815198 0.519615
0.740398 0.798383 0.498604
0.830594 0.792645 0.490471
0.903746 0.789166 0.483421
0.958877 0.789197 0.490196
0.150134 0.762966 0.594736
0.29691 0.831861 0.585382
0.413718 0.856046 0.568551
0.531106 0.86627 0.536202
0.645029 0.86511 0.508278
0.751293 0.85124 0.489799
0.838087 0.842618 0.485725
0.91017 0.840391 0.485481
0.962814 0.835721 0.483726
0 0.184375 0.815305
0.144366 0.149508 0.760708
0.337621 0.16408 0.72546
0.50518 0.205493 0.652735
0.606928 0.235752 0.570794
0.680491 0.255055 0.498955
0.739269 0.256489 0.463661
0.789059 0.256153 0.449775
0.832105 0.255863 0.438849
0.00358587 0.238758 0.682597
0.117037 0.217182 0.711131
0.296544 0.27158 0.684047
0.427619 0.322988 0.618921
0.554192 0.315801 0.553979
0.644785 0.310979 0.490929
0.71725 0.314488 0.442695
0.781552 0.318013 0.415198
0.837461 0.321752 0.393912
0.0838026 0.432776 0.664042
0.221317 0.444694 0.645197
0.325368 0.456916 0.651545
0.437354 0.438178 0.645502
0.577829 0.411627 0.61529
0.686046 0.400504 0.552468
0.762234 0.399664 0.508843
0.8224 0.398962 0.476402
0.873823 0.400931 0.450004
0.149004 0.522911 0.60798
0.244327 0.521691 0.624933
0.345922 0.536828 0.648081
0.446357 0.545892 0.655558
0.574411 0.530144 0.646769
0.704295 0.498589 0.594995
0.79263 0.487007 0.556268
0.864683 0.487343 0.534936
0.918105 0.493126 0.519173
0.158999 0.575143 0.61561
0.259617 0.591745 0.642145
0.369406 0.610468 0.663203
0.469978 0.629099 0.666468
0.590021 0.656535 0.689784
0.731106 0.614313 0.637125
0.807828 0.597101 0.594003
0.887892 0.598657 0.585657
0.943084 0.601297 0.578958
0.158511 0.629816 0.62742
0.268696 0.667674 0.65832
0.376013 0.687938 0.677729
0.479805 0.703487 0.679561
0.59791 0.732097 0.705776
0.764797 0.75642 0.723369
0.864103 0.711238 0.655253
0.899962 0.699184 0.633524
0.946685 0.703059 0.632319
0.158343 0.680079 0.640986
0.277363 0.7346 0.670405
0.38822 0.757015 0.683772
0.489082 0.771878 0.679026
0.597635 0.773953 0.669047
0.731945 0.795422 0.654047
0.849363 0.785306 0.620523
0.891356 0.755047 0.620264
0.948455 0.767071 0.635035
0.159319 0.72546 0.649943
0.291264 0.793454 0.674189
0.402594 0.815793 0.679683
0.502251 0.829633 0.666499
0.606638 0.831556 0.641657
0.721523 0.819165 0.617563
0.812085 0.809995 0.604608
0.886397 0.804318 0.590768
0.949844 0.806409 0.593606
0.156329 0.764096 0.654063
0.296193 0.837522 0.670008
0.406058 0.864286 0.672816
0.508659 0.876143 0.65008
0.611566 0.881605 0.62005
0.727092 0.870954 0.593896
0.820279 0.858244 0.583215
0.896956 0.855024 0.57908
0.953033 0.850065 0.56994
0 0.374121 1
0.159442 0.174029 0.708461
0.227451 0.151873 0.666194
0.364416 0.170443 0.656703
0.547646 0.206485 0.651545
0.666896 0.238178 0.592889
0.734157 0.257404 0.535531
0.78265 0.263416 0.507012
0.824811 0.263905 0.494041
0.0113375 0.235828 0.622171
0.102617 0.209796 0.635615
0.169131 0.208789 0.663874
0.358709 0.247822 0.705791
0.519783 0.282689 0.682582
0.630655 0.308659 0.60795
0.705669 0.326528 0.532662
0.774777 0.329366 0.491859
0.835676 0.33164 0.464134
0.0644388 0.267597 0.667643
0.131289 0.271138 0.715221
0.297475 0.405264 0.742046
0.423224 0.456092 0.711269
0.548348 0.436576 0.697536
0.66601 0.418036 0.650782
0.752056 0.412863 0.596506
0.81799 0.409644 0.552575
0.872297 0.406821 0.515023
0.138857 0.518563 0.670344
0.243671 0.529458 0.679454
0.345083 0.54873 0.712047
0.448615 0.551431 0.729946
0.56553 0.540322 0.73315
0.686992 0.512795 0.705089
0.781476 0.496406 0.65037
0.857343 0.491722 0.612497
0.913863 0.488289 0.578088
0.164218 0.581674 0.661387
0.267353 0.598688 0.69279
0.370962 0.617411 0.721981
0.470924 0.633738 0.734234
0.565942 0.647929 0.73225
0.687221 0.621729 0.716747
0.792142 0.597803 0.674052
0.872068 0.585168 0.647623
0.939895 0.579614 0.628443
0.1682 0.629664 0.669505
0.283116 0.667979 0.710872
0.389349 0.689097 0.740841
0.491676 0.70248 0.749874
0.586816 0.716808 0.744884
0.70399 0.743816 0.78233
0.82472 0.713664 0.743618
0.872999 0.686641 0.68423
0.941054 0.679988 0.672175
0.167376 0.678187 0.682902
0.287388 0.732403 0.725933
0.394736 0.756939 0.753399
0.493843 0.770077 0.762234
0.588815 0.778805 0.760204
0.710933 0.814878 0.798428
0.887938 0.864973 0.841184
0.92932 0.795621 0.747799
0.941711 0.771572 0.71603
0.163943 0.723873 0.694835
0.290593 0.79205 0.736294
0.399695 0.81767 0.757198
0.49897 0.829938 0.763653
0.587991 0.837858 0.759258
0.693523 0.835325 0.743496
0.83856 0.869276 0.746777
0.933928 0.867826 0.720226
0.940795 0.824247 0.703105
0.160739 0.762234 0.701228
0.295216 0.838148 0.738354
0.401938 0.866468 0.755199
0.502113 0.878157 0.752712
0.589426 0.887892 0.741024
0.700374 0.882994 0.710903
0.810147 0.871183 0.692683
0.884871 0.867445 0.685634
0.941588 0.862623 0.670695
0 0.393927 1
0.282597 0.318975 0.97557
0.42211 0.305974 0.804105
0.262364 0.153536 0.592691
0.348074 0.157733 0.63679
0.55201 0.187533 0.634134
0.686244 0.21619 0.610132
0.769879 0.241093 0.578149
0.820951 0.257664 0.552422
0.0411841 0.4663 0.805798
0.170687 0.351186 0.700664
0.153201 0.20621 0.59057
0.20441 0.202716 0.64448
0.375051 0.225101 0.684215
0.557229 0.26479 0.69691
0.685313 0.30045 0.641688
0.767895 0.324559 0.578912
0.830976 0.340078 0.535821
0.0679179 0.262409 0.619028
0.122362 0.254704 0.63714
0.16994 0.258976 0.676356
0.306233 0.28957 0.747219
0.489693 0.343603 0.778607
0.635477 0.391775 0.753323
0.739116 0.424643 0.685115
0.81149 0.419608 0.637263
0.869764 0.415915 0.595972
0.0981003 0.389364 0.727153
0.182376 0.440024 0.748775
0.318563 0.525292 0.780484
0.44744 0.562966 0.793103
0.554788 0.551156 0.79913
0.665888 0.531334 0.7897
0.7682 0.510277 0.742931
0.849363 0.502663 0.696803
0.910658 0.49575 0.654749
0.164508 0.588418 0.702632
0.272435 0.605478 0.738613
0.371267 0.625635 0.774105
0.471138 0.638636 0.798016
0.567681 0.64538 0.807675
0.670832 0.632166 0.807218
0.778836 0.60473 0.780591
0.865827 0.59028 0.741283
0.935454 0.581216 0.71107
0.173724 0.63331 0.710414
0.29189 0.670222 0.759518
0.394049 0.692592 0.79292
0.495521 0.705638 0.810895
0.585351 0.721111 0.812146
0.667353 0.727962 0.803296
0.777005 0.705806 0.792584
0.862882 0.686763 0.762371
0.936645 0.67187 0.740764
0.177005 0.677821 0.721706
0.303746 0.730327 0.775525
0.407568 0.756725 0.809461
0.508247 0.767483 0.826505
0.599207 0.777813 0.826123
0.688197 0.786343 0.816251
0.813916 0.822843 0.873121
0.914336 0.804669 0.849683
0.931579 0.764096 0.769284
0.173785 0.722301 0.733639
0.300801 0.787655 0.78793
0.405478 0.817197 0.818494
0.507866 0.827192 0.834501
0.593179 0.835035 0.839445
0.689769 0.839841 0.832242
0.820157 0.883864 0.875639
0.96376 0.940414 0.932342
0.97026 0.863722 0.830427
0.165454 0.760449 0.741131
0.296239 0.834836 0.795026
0.400122 0.864698 0.819944
0.502693 0.874891 0.830014
0.586389 0.88452 0.835752
0.680858 0.888304 0.829129
0.781979 0.88426 0.802365
0.91783 0.923186 0.822614
0.969085 0.918578 0.79118
0 0.407309 1
0.289036 0.334539 0.986343
0.421241 0.321172 0.831678
0.508934 0.306874 0.775845
0.30396 0.151507 0.590463
0.352132 0.150576 0.62298
0.564172 0.180606 0.633509
0.695048 0.206119 0.62002
0.792828 0.234562 0.606516
0.062211 0.476127 0.827375
0.207248 0.427665 0.811551
0.29633 0.418006 0.807965
0.203861 0.215198 0.609064
0.250156 0.20087 0.643488
0.379522 0.212329 0.677867
0.562722 0.241657 0.675959
0.70074 0.270695 0.648356
0.814786 0.313649 0.616144
0.0690929 0.259342 0.577142
0.119219 0.253666 0.608621
0.165057 0.256291 0.6477
0.216983 0.256092 0.683955
0.326665 0.266682 0.708782
0.495903 0.299763 0.755657
0.668528 0.344701 0.762783
0.789334 0.386404 0.725902
0.864042 0.417044 0.677104
0.0814984 0.300389 0.694728
0.138186 0.30045 0.715526
0.190661 0.313176 0.759899
0.343191 0.385077 0.832547
0.516869 0.489921 0.858366
0.652995 0.54699 0.852003
0.75346 0.527443 0.824765
0.839857 0.514549 0.78024
0.906355 0.50634 0.739635
0.142123 0.556771 0.758129
0.246937 0.578805 0.79234
0.356207 0.61883 0.829541
0.471443 0.645045 0.855756
0.567636 0.647959 0.873533
0.663005 0.637858 0.879896
0.757397 0.617075 0.87126
0.852415 0.597177 0.834607
0.92784 0.587076 0.798245
0.175219 0.63856 0.748974
0.298772 0.673182 0.803586
0.399039 0.697612 0.840864
0.494316 0.711711 0.8654
0.58497 0.723415 0.878859
0.667887 0.725475 0.878874
0.756649 0.711055 0.877958
0.854383 0.686687 0.861814
0.935195 0.673198 0.835874
0.182055 0.679896 0.757961
0.314076 0.729839 0.822309
0.415732 0.757107 0.858549
0.513313 0.769696 0.880568
0.603555 0.779706 0.888563
0.684779 0.78854 0.880858
0.761105 0.79234 0.873411
0.852247 0.779583 0.870115
0.92961 0.765072 0.849638
0.182101 0.720714 0.766491
0.318074 0.782666 0.834058
0.418784 0.813077 0.869001
0.518547 0.823621 0.889128
0.609873 0.831357 0.903136
0.698878 0.838224 0.894347
0.779049 0.843671 0.877729
0.902296 0.886656 0.946319
0.968078 0.866316 0.92639
0.173968 0.75787 0.772366
0.309026 0.82948 0.841871
0.410239 0.86067 0.872801
0.514778 0.871107 0.88777
0.603723 0.878325 0.899367
0.688991 0.883574 0.90219
0.780224 0.886687 0.887114
0.895323 0.933516 0.933913
0.99733 0.98175 0.976913
