_SYSTEM/luts/NORMAL -1_0 BASE.cube
TITLE "Generated by Resolve"
LUT_3D_SIZE 9
0.00433356 0.0031281 0.00383001
0.373571 0.0604105 0.0430304
0.583947 0.0871748 0.0541543
0.725963 0.124208 0.0629892
0.804089 0.1626 0.0808576
0.841672 0.179065 0.0964523
0.875196 0.171206 0.0916762
0.90161 0.150698 0.0821241
0.930449 0.152728 0.0797742
0.0362554 0.294301 0.0578622
0.399558 0.257343 0.0760815
0.543297 0.260563 0.0610971
0.648997 0.27306 0.0772106
0.714031 0.273625 0.0915541
0.772229 0.269642 0.0950027
0.823163 0.271534 0.0958724
0.867323 0.27953 0.0937057
0.907698 0.262181 0.0814527
0.0225834 0.414084 0.0539254
0.408011 0.362829 0.0535897
0.55555 0.346502 0.0793164
0.645518 0.357229 0.0961166
0.716594 0.368734 0.104494
0.776135 0.376287 0.108568
0.827665 0.37821 0.108812
0.872938 0.374975 0.106035
0.910445 0.370916 0.100008
0.0652476 0.467247 0.104875
0.424765 0.435996 0.0773175
0.561944 0.434256 0.0986038
0.657588 0.430793 0.108141
0.729183 0.439475 0.119326
0.789471 0.450141 0.125734
0.840299 0.455955 0.125032
0.887144 0.461021 0.121874
0.923949 0.459174 0.113039
0.11696 0.50927 0.152926
0.435142 0.500374 0.0946365
0.569238 0.505501 0.111055
0.669596 0.50695 0.123384
0.745708 0.508354 0.131334
0.806134 0.514366 0.137316
0.857221 0.521675 0.138018
0.900206 0.526299 0.132143
0.934218 0.52636 0.120989
0.134615 0.557275 0.168093
0.446921 0.559136 0.101396
0.576959 0.566567 0.117723
0.678599 0.575097 0.136217
0.756466 0.578286 0.143221
0.819684 0.578073 0.142718
0.872663 0.581201 0.14139
0.913725 0.584451 0.134096
0.945266 0.586053 0.121859
0.141299 0.600656 0.171008
0.458488 0.610147 0.104005
0.58677 0.618647 0.120165
0.686061 0.626566 0.13666
0.766339 0.633295 0.146593
0.831601 0.635645 0.146395
0.885801 0.636484 0.141436
0.925017 0.63679 0.132631
0.956619 0.639139 0.122194
0.145235 0.63975 0.170657
0.46595 0.657267 0.103517
0.592905 0.665034 0.117922
0.693156 0.673075 0.133059
0.77702 0.68249 0.145068
0.842542 0.687816 0.147631
0.895277 0.690028 0.142687
0.934386 0.68957 0.134417
0.964965 0.690059 0.124361
0.145754 0.674037 0.16614
0.466545 0.698756 0.0990616
0.596887 0.707103 0.113161
0.699687 0.714656 0.126604
0.784802 0.723751 0.138033
0.851087 0.73051 0.142901
0.90222 0.734112 0.142809
0.940658 0.734722 0.136355
0.968978 0.736004 0.125994
0.0288396 0.1093 0.390524
0.380011 0.0813764 0.297383
0.555566 0.11368 0.231128
0.656077 0.148898 0.222126
0.702678 0.188312 0.23125
0.73579 0.210407 0.237675
0.786313 0.208286 0.228428
0.82739 0.182986 0.1953
0.862806 0.182925 0.191485
0.0644999 0.317418 0.314473
0.263478 0.2813 0.25832
0.476493 0.246204 0.19263
0.590753 0.252811 0.178515
0.669795 0.260075 0.173404
0.738201 0.265187 0.16817
0.801282 0.267582 0.163394
0.857191 0.269429 0.158297
0.906279 0.264683 0.148226
0.0536507 0.440711 0.322713
0.239063 0.394125 0.22092
0.459342 0.3579 0.186206
0.576608 0.352804 0.180423
0.670741 0.357336 0.170855
0.745022 0.361501 0.167163
0.806058 0.362036 0.165087
0.860136 0.359579 0.161715
0.908614 0.355627 0.156222
0.0833448 0.510216 0.342306
0.259297 0.482292 0.237018
0.447303 0.460594 0.187518
0.583597 0.444205 0.176364
0.670832 0.441978 0.178119
0.742779 0.448249 0.177798
0.805463 0.453025 0.174197
0.863493 0.456321 0.170062
0.915175 0.453956 0.162249
0.116655 0.558511 0.343343
0.27602 0.551461 0.247547
0.450065 0.540398 0.201221
0.586648 0.533578 0.188693
0.68484 0.525826 0.185672
0.758251 0.523674 0.183871
0.820081 0.527596 0.183078
0.876539 0.531807 0.178805
0.926925 0.533074 0.170275
0.12639 0.609155 0.339513
0.291325 0.615137 0.253681
0.459037 0.611093 0.212879
0.588785 0.605783 0.19791
0.693492 0.605402 0.197391
0.775494 0.600641 0.192584
0.840787 0.598596 0.189624
0.896544 0.601083 0.185687
0.943465 0.602701 0.175906
0.129809 0.65185 0.333089
0.303044 0.666148 0.251041
0.471641 0.669245 0.217411
0.601221 0.665599 0.205051
0.707225 0.667903 0.205646
0.792432 0.667689 0.203693
0.860685 0.666697 0.198596
0.915389 0.665736 0.191516
0.958572 0.666575 0.181262
0.131273 0.690959 0.323507
0.315801 0.712489 0.243366
0.487098 0.721965 0.218112
0.61796 0.720851 0.210086
0.724483 0.724514 0.212543
0.808454 0.727184 0.212711
0.875914 0.728099 0.208194
0.929946 0.728344 0.200366
0.970275 0.72636 0.189227
0.129915 0.724956 0.310369
0.324865 0.754452 0.233005
0.499687 0.767971 0.213901
0.633234 0.768887 0.209766
0.737011 0.771389 0.21265
0.820722 0.775708 0.216541
0.886107 0.777569 0.213596
0.939254 0.77969 0.208392
0.975998 0.778958 0.19794
0.0108034 0.139971 0.565682
0.296468 0.111818 0.55639
0.543923 0.137179 0.407477
0.632013 0.177981 0.330999
0.676493 0.212909 0.308263
0.723735 0.224781 0.297856
0.771572 0.226932 0.288212
0.818677 0.206851 0.270588
0.851774 0.193011 0.240864
0.0307469 0.332952 0.468925
0.205371 0.308843 0.428214
0.422446 0.271473 0.355444
0.543038 0.261418 0.286168
0.632502 0.270344 0.26566
0.701823 0.279057 0.25243
0.757961 0.285832 0.242206
0.811414 0.290181 0.233448
0.867933 0.291691 0.224781
0.0724651 0.435294 0.432242
0.212863 0.407111 0.393469
0.39234 0.414191 0.386435
0.561654 0.365988 0.304265
0.659998 0.362234 0.283833
0.738643 0.367376 0.275624
0.798993 0.371313 0.268864
0.850797 0.372198 0.259022
0.898161 0.369406 0.24564
0.106096 0.511528 0.44155
0.230396 0.504219 0.390234
0.377325 0.503761 0.353567
0.555367 0.474342 0.299657
0.652781 0.458656 0.291005
0.738979 0.460029 0.279637
0.80763 0.462074 0.271443
0.867323 0.462165 0.262562
0.91957 0.458167 0.251423
0.130449 0.575113 0.448875
0.248539 0.579767 0.392096
0.386191 0.583124 0.344213
0.5411 0.560693 0.300114
0.662364 0.548058 0.28603
0.74435 0.540215 0.280674
0.813123 0.542168 0.274922
0.875135 0.545876 0.266667
0.929351 0.546075 0.254627
0.138476 0.629389 0.448493
0.262547 0.644068 0.392599
0.401526 0.649821 0.343893
0.548394 0.634714 0.301732
0.666835 0.628504 0.289204
0.759686 0.621714 0.280797
0.831739 0.617273 0.276204
0.891203 0.617014 0.269749
0.943511 0.618326 0.259922
0.140352 0.672663 0.443976
0.277958 0.699626 0.385412
0.422782 0.708003 0.343816
0.566979 0.698482 0.308461
0.680751 0.693065 0.296269
0.775753 0.691981 0.289754
0.849302 0.687724 0.281758
0.910079 0.685924 0.276616
0.957946 0.685054 0.268147
0.13901 0.71104 0.435401
0.29514 0.750698 0.373037
0.442634 0.761975 0.338186
0.587213 0.757427 0.311894
0.698528 0.752529 0.301518
0.791348 0.752651 0.299565
0.865202 0.751827 0.294606
0.924514 0.750759 0.288365
0.969131 0.747662 0.279576
0.134859 0.744625 0.423758
0.307012 0.793973 0.358038
0.45658 0.808255 0.326986
0.603891 0.808331 0.308995
0.715297 0.804746 0.304616
0.802228 0.801053 0.304692
0.876188 0.802762 0.305074
0.934234 0.803464 0.300496
0.973953 0.801831 0.290852
0 0.160357 0.712551
0.248493 0.136751 0.689509
0.498177 0.15491 0.579248
0.595315 0.202518 0.445869
0.641016 0.234623 0.376287
0.707225 0.23769 0.353765
0.763119 0.238209 0.336538
0.812985 0.228565 0.326009
0.852415 0.220066 0.314977
0.00770581 0.346746 0.585794
0.194629 0.324865 0.55433
0.354467 0.30277 0.492744
0.504555 0.28069 0.404395
0.605768 0.278386 0.345617
0.682261 0.283452 0.317143
0.742779 0.290547 0.301869
0.795941 0.297642 0.290776
0.844511 0.302434 0.279362
0.0812085 0.447013 0.516289
0.218433 0.424292 0.492805
0.33341 0.433951 0.49337
0.510491 0.399313 0.441352
0.631617 0.37554 0.388083
0.720439 0.378531 0.369482
0.785702 0.384604 0.358938
0.839246 0.386801 0.343908
0.886732 0.38616 0.324544
0.125246 0.507912 0.502281
0.231724 0.508934 0.496101
0.347341 0.522957 0.501839
0.51519 0.538521 0.506249
0.653346 0.480797 0.416098
0.733272 0.468025 0.387945
0.81059 0.467536 0.373861
0.871962 0.468605 0.364355
0.923201 0.466484 0.351873
0.13727 0.573831 0.516487
0.24387 0.591592 0.505516
0.358557 0.604883 0.488365
0.500374 0.61294 0.465507
0.653269 0.585809 0.409949
0.733501 0.56112 0.396948
0.813107 0.556832 0.379065
0.880507 0.557488 0.367819
0.937133 0.557107 0.356817
0.146822 0.634882 0.527077
0.260105 0.663859 0.509209
0.374731 0.676936 0.477775
0.507698 0.674372 0.441901
0.633921 0.656809 0.41001
0.74406 0.645029 0.391501
0.824155 0.636515 0.38088
0.888563 0.634485 0.371893
0.944625 0.635538 0.362921
0.15082 0.682383 0.530297
0.274861 0.722667 0.504097
0.397498 0.736263 0.470192
0.525017 0.737011 0.431327
0.650324 0.723918 0.405554
0.755245 0.714488 0.390524
0.838376 0.709575 0.380591
0.902495 0.705013 0.375708
0.954726 0.7037 0.371771
0.14757 0.722789 0.526772
0.289647 0.774716 0.49427
0.416175 0.7906 0.461204
0.54847 0.79469 0.42771
0.671382 0.78497 0.404715
0.768444 0.775494 0.394095
0.848249 0.772641 0.388418
0.913542 0.770306 0.384833
0.963745 0.766217 0.381338
0.141527 0.756878 0.518669
0.298436 0.818219 0.480262
0.426657 0.836957 0.450248
0.561669 0.843168 0.42179
0.68545 0.837247 0.405112
0.778454 0.827451 0.398581
0.856809 0.82385 0.397406
0.922728 0.822751 0.395697
0.970916 0.819684 0.391058
0 0.175463 0.799725
0.203159 0.149798 0.777646
0.436057 0.169558 0.689311
0.557504 0.208087 0.563973
0.622156 0.243717 0.465156
0.690639 0.248859 0.421347
0.751247 0.248203 0.401297
0.799985 0.247547 0.386267
0.843732 0.24094 0.373159
0.000442512 0.311192 0.683864
0.184436 0.327688 0.649195
0.321172 0.328374 0.573098
0.462791 0.308629 0.520378
0.580728 0.296681 0.445609
0.66273 0.297047 0.394125
0.730053 0.301869 0.366308
0.78793 0.308339 0.352438
0.839719 0.311589 0.335103
0.0845808 0.455558 0.589456
0.223697 0.440986 0.569284
0.329366 0.441917 0.578836
0.462623 0.419989 0.565225
0.609628 0.391638 0.501457
0.702907 0.387381 0.454948
0.77145 0.389487 0.429908
0.827527 0.390677 0.408347
0.876173 0.389899 0.384314
0.141161 0.512444 0.555962
0.242313 0.513085 0.569436
0.346578 0.526772 0.576165
0.458091 0.550683 0.593713
0.616632 0.513878 0.541878
0.715801 0.485222 0.489616
0.802991 0.479194 0.467582
0.870192 0.480293 0.454505
0.921904 0.479271 0.439399
0.147631 0.571633 0.566964
0.25005 0.590814 0.584054
0.359457 0.609445 0.591943
0.476631 0.636378 0.609766
0.647105 0.648478 0.607416
0.752895 0.586618 0.517372
0.807416 0.568185 0.486244
0.882811 0.564981 0.467567
0.942275 0.563119 0.453712
0.150744 0.632639 0.581888
0.261295 0.6692 0.596445
0.370413 0.689494 0.595514
0.48629 0.699138 0.58085
0.620478 0.709041 0.561074
0.757565 0.687846 0.512139
0.8112 0.655589 0.496986
0.883467 0.648188 0.477806
0.94493 0.644602 0.462242
0.155383 0.682429 0.592187
0.276081 0.733227 0.598901
0.389624 0.752316 0.589029
0.49926 0.760967 0.56083
0.622156 0.753887 0.536095
0.732036 0.739315 0.511498
0.820829 0.730266 0.494301
0.893156 0.723278 0.483421
0.951629 0.718776 0.472663
0.154498 0.726375 0.59646
0.291142 0.788846 0.595529
0.40647 0.808164 0.578943
0.518105 0.818402 0.546395
0.635615 0.815198 0.519615
0.740398 0.798383 0.498604
0.830594 0.792645 0.490471
0.903746 0.789166 0.483421
0.958648 0.783475 0.479118
0.150134 0.762966 0.594736
0.29691 0.831861 0.585382
0.413718 0.856046 0.568551
0.531106 0.86627 0.536202
0.645029 0.86511 0.508278
0.751293 0.85124 0.489799
0.838087 0.842618 0.485725
0.91017 0.840391 0.485481
0.962814 0.835721 0.483726
0 0.18436 0.815305
0.144366 0.149508 0.760708
0.337621 0.16408 0.72546
0.50518 0.205493 0.652735
0.606928 0.235752 0.570794
0.680491 0.255055 0.498955
0.739269 0.256489 0.463661
0.789059 0.256153 0.449775
0.832105 0.255863 0.438849
0.00358587 0.238758 0.682597
0.117037 0.217182 0.711131
0.296544 0.27158 0.684047
0.427619 0.322988 0.618921
0.554192 0.315801 0.553979
0.644785 0.310979 0.490929
0.71725 0.314488 0.442695
0.781552 0.318013 0.415198
0.837568 0.321355 0.393072
0.0838026 0.432776 0.664042
0.221317 0.444694 0.645197
0.325368 0.456916 0.651545
0.437354 0.438178 0.645502
0.577829 0.411627 0.61529
0.686046 0.400504 0.552468
0.762234 0.399664 0.508843
0.8224 0.398962 0.476402
0.873396 0.39791 0.445731
0.149004 0.522911 0.60798
0.244327 0.521691 0.624933
0.345922 0.536828 0.648081
0.446357 0.545892 0.655558
0.574411 0.530144 0.646769
0.704295 0.498589 0.594995
0.79263 0.487007 0.556268
0.864195 0.486015 0.533669
0.917342 0.48452 0.509667
0.158999 0.575143 0.61561
0.259617 0.591745 0.642145
0.369406 0.610468 0.663203
0.469978 0.629099 0.666468
0.590021 0.656535 0.689784
0.731106 0.614313 0.637125
0.798627 0.588144 0.583886
0.877684 0.577844 0.562051
0.942901 0.572641 0.54432
0.158511 0.629816 0.62742
0.268696 0.667674 0.65832
0.376013 0.687938 0.677729
0.479805 0.703487 0.679561
0.59791 0.732097 0.705776
0.764797 0.75642 0.723369
0.842084 0.688441 0.622461
0.873442 0.6607 0.58204
0.942794 0.652033 0.55964
0.158343 0.680079 0.640986
0.277363 0.7346 0.670405
0.38822 0.757015 0.683772
0.489082 0.771878 0.679026
0.597635 0.773953 0.669047
0.731945 0.795422 0.654047
0.849348 0.785306 0.620508
0.87538 0.737835 0.592813
0.942153 0.729671 0.571893
0.159319 0.72546 0.649943
0.291264 0.793454 0.674189
0.402594 0.815793 0.679683
0.502251 0.829633 0.666499
0.606638 0.831556 0.641657
0.721523 0.819165 0.617563
0.812085 0.809995 0.604608
0.886397 0.804318 0.590768
0.947997 0.796078 0.574487
0.156329 0.764096 0.654063
0.296193 0.837522 0.670008
0.406058 0.864286 0.672816
0.508659 0.876143 0.65008
0.611566 0.881605 0.62005
0.727092 0.870954 0.593896
0.820279 0.858244 0.583215
0.896956 0.855024 0.57908
0.953033 0.850065 0.56994
0 0.374105 1
0.159442 0.174029 0.708461
0.227451 0.151873 0.666194
0.364416 0.170443 0.656703
0.547646 0.206485 0.651545
0.666896 0.238178 0.592889
0.734157 0.257404 0.535531
0.78265 0.263416 0.507012
0.824811 0.263905 0.494041
0.0113375 0.235828 0.622171
0.102617 0.209796 0.635615
0.169131 0.208789 0.663874
0.358709 0.247822 0.705791
0.519783 0.282689 0.682582
0.630655 0.308659 0.60795
0.705669 0.326528 0.532662
0.774777 0.329366 0.491859
0.835676 0.33164 0.464134
0.0644388 0.267597 0.667643
0.131289 0.271138 0.715221
0.297475 0.405264 0.742046
0.423224 0.456092 0.711269
0.548348 0.436576 0.697536
0.66601 0.418036 0.650782
0.752056 0.412863 0.596506
0.81799 0.409644 0.552575
0.872297 0.406821 0.515023
0.138857 0.518563 0.670344
0.243671 0.529458 0.679454
0.345083 0.54873 0.712047
0.448615 0.551431 0.729946
0.56553 0.540322 0.73315
0.686992 0.512795 0.705089
0.781476 0.496406 0.65037
0.857343 0.491722 0.612497
0.913863 0.488289 0.578088
0.164218 0.581674 0.661387
0.267353 0.598688 0.69279
0.370962 0.617411 0.721981
0.470924 0.633738 0.734234
0.565942 0.647929 0.73225
0.687221 0.621729 0.716747
0.792142 0.597803 0.674052
0.872068 0.585168 0.647623
0.939864 0.578897 0.627695
0.1682 0.629664 0.669505
0.283116 0.667979 0.710872
0.389349 0.689097 0.740841
0.491676 0.70248 0.749874
0.586816 0.716808 0.744884
0.70399 0.743816 0.78233
0.82472 0.713664 0.743618
0.867094 0.680308 0.675929
0.938704 0.665095 0.653132
0.167376 0.678187 0.682902
0.287388 0.732403 0.725933
0.394736 0.756939 0.753399
0.493843 0.770077 0.762234
0.588815 0.778805 0.760204
0.710933 0.814878 0.798428
0.887373 0.86479 0.840726
0.923674 0.782406 0.7252
0.932464 0.741238 0.671046
0.163943 0.723873 0.694835
0.290593 0.79205 0.736294
0.399695 0.81767 0.757198
0.49897 0.829938 0.763653
0.587991 0.837858 0.759258
0.693523 0.835325 0.743496
0.83856 0.869276 0.746777
0.933715 0.867521 0.719478
0.934401 0.808499 0.677226
0.160739 0.762234 0.701228
0.295216 0.838148 0.738354
0.401938 0.866468 0.755199
0.502113 0.878157 0.752712
0.589426 0.887892 0.741024
0.700374 0.882994 0.710903
0.810147 0.871183 0.692683
0.884871 0.867445 0.685634
0.941543 0.862501 0.670436
0 0.393912 1
0.282597 0.318975 0.97557
0.42211 0.305974 0.804105
0.262364 0.153536 0.592691
0.348074 0.157733 0.63679
0.55201 0.187533 0.634134
0.686244 0.21619 0.610132
0.769879 0.241093 0.578149
0.820951 0.257664 0.552422
0.0411841 0.466285 0.805798
0.170687 0.351186 0.700664
0.153201 0.20621 0.59057
0.20441 0.202716 0.64448
0.375051 0.225101 0.684215
0.557229 0.26479 0.69691
0.685313 0.30045 0.641688
0.767895 0.324559 0.578912
0.830976 0.340078 0.535821
0.0679179 0.262409 0.619028
0.122362 0.254704 0.63714
0.16994 0.258976 0.676356
0.306233 0.28957 0.747219
0.489693 0.343603 0.778607
0.635477 0.391775 0.753323
0.739116 0.424643 0.685115
0.81149 0.419608 0.637263
0.869764 0.415915 0.595972
0.0981003 0.389364 0.727153
0.182376 0.440024 0.748775
0.318563 0.525292 0.780484
0.44744 0.562966 0.793103
0.554788 0.551156 0.79913
0.665888 0.531334 0.7897
0.7682 0.510277 0.742931
0.849363 0.502663 0.696803
0.910658 0.49575 0.654749
0.164508 0.588418 0.702632
0.272435 0.605478 0.738613
0.371267 0.625635 0.774105
0.471138 0.638636 0.798016
0.567681 0.64538 0.807675
0.670832 0.632166 0.807218
0.778836 0.60473 0.780591
0.865827 0.59028 0.741283
0.935454 0.581216 0.71107
0.173724 0.63331 0.710414
0.29189 0.670222 0.759518
0.394049 0.692592 0.79292
0.495521 0.705638 0.810895
0.585351 0.721111 0.812146
0.667353 0.727962 0.803296
0.777005 0.705806 0.792584
0.862882 0.686763 0.762371
0.936645 0.67187 0.740764
0.177005 0.677821 0.721706
0.303746 0.730327 0.775525
0.407568 0.756725 0.809461
0.508247 0.767483 0.826505
0.599207 0.777813 0.826123
0.688197 0.786343 0.816251
0.813916 0.822843 0.873121
0.914336 0.804669 0.849683
0.930312 0.760708 0.764218
0.173785 0.722301 0.733639
0.300801 0.787655 0.78793
0.405478 0.817197 0.818494
0.507866 0.827192 0.834501
0.593179 0.835035 0.839445
0.689769 0.839841 0.832242
0.820157 0.883864 0.875639
0.963684 0.940444 0.932143
0.970245 0.85362 0.812467
0.165454 0.760449 0.741131
0.296239 0.834836 0.795026
0.400122 0.864698 0.819944
0.502693 0.874891 0.830014
0.586389 0.88452 0.835752
0.680858 0.888304 0.829129
0.781979 0.88426 0.802365
0.91783 0.923186 0.822614
0.969085 0.918563 0.791135
0 0.407294 1
0.289036 0.334539 0.986343
0.421241 0.321172 0.831678
0.508934 0.306874 0.775845
0.30396 0.151507 0.590463
0.352132 0.150576 0.62298
0.564172 0.180606 0.633509
0.695048 0.206119 0.62002
0.792828 0.234562 0.606516
0.062211 0.476112 0.827375
0.207248 0.427665 0.811551
0.29633 0.418006 0.807965
0.203861 0.215198 0.609064
0.250156 0.20087 0.643488
0.379522 0.212329 0.677867
0.562722 0.241657 0.675959
0.70074 0.270695 0.648356
0.814786 0.313649 0.616144
0.0690929 0.259342 0.577142
0.119219 0.253666 0.608621
0.165057 0.256291 0.6477
0.216983 0.256092 0.683955
0.326665 0.266682 0.708782
0.495903 0.299763 0.755657
0.668528 0.344701 0.762783
0.789334 0.386404 0.725902
0.864042 0.417044 0.677104
0.0814984 0.300389 0.694728
0.138186 0.30045 0.715526
0.190661 0.313176 0.759899
0.343191 0.385077 0.832547
0.516869 0.489921 0.858366
0.652995 0.54699 0.852003
0.75346 0.527443 0.824765
0.839857 0.514549 0.78024
0.906355 0.50634 0.739635
0.142123 0.556771 0.758129
0.246937 0.578805 0.79234
0.356207 0.61883 0.829541
0.471443 0.645045 0.855756
0.567636 0.647959 0.873533
0.663005 0.637858 0.879896
0.757397 0.617075 0.87126
0.852415 0.597177 0.834607
0.92784 0.587076 0.798245
0.175219 0.63856 0.748974
0.298772 0.673182 0.803586
0.399039 0.697612 0.840864
0.494316 0.711711 0.8654
0.58497 0.723415 0.878859
0.667887 0.725475 0.878874
0.756649 0.711055 0.877958
0.854383 0.686687 0.861814
0.935195 0.673198 0.835874
0.182055 0.679896 0.757961
0.314076 0.729839 0.822309
0.415732 0.757107 0.858549
0.513313 0.769696 0.880568
0.603555 0.779706 0.888563
0.684779 0.78854 0.880858
0.761105 0.79234 0.873411
0.852247 0.779583 0.870115
0.92961 0.765072 0.849638
0.182101 0.720714 0.766491
0.318074 0.782666 0.834058
0.418784 0.813077 0.869001
0.518547 0.823621 0.889128
0.609873 0.831357 0.903136
0.698878 0.838224 0.894347
0.779049 0.843671 0.877729
0.902296 0.886656 0.946319
0.968078 0.866316 0.92639
0.173968 0.75787 0.772366
0.309026 0.82948 0.841871
0.410239 0.86067 0.872801
0.514778 0.871107 0.88777
0.603723 0.878325 0.899367
0.688991 0.883574 0.90219
0.780224 0.886687 0.887114
0.895323 0.933516 0.933913
0.997375 0.981765 0.976883
