_SYSTEM/luts/NORMAL -1_0 BASE.cube
TITLE "Generated by Resolve"
LUT_3D_SIZE 65
0.00433356 0.0031281 0.00383001
0.0785534 0.0350958 0.00621042
0.166293 0.0284428 0.0100862
0.217884 0.0272679 0.018265
0.253346 0.0368963 0.0277409
0.286473 0.0441444 0.0327764
0.316442 0.0503548 0.0372473
0.345113 0.0552682 0.040238
0.373571 0.0604105 0.0430304
0.401312 0.0643931 0.045182
0.429007 0.0677195 0.0471656
0.456535 0.0700694 0.0488441
0.484154 0.0728771 0.0504463
0.510872 0.0767376 0.0519875
0.536522 0.0803845 0.0529183
0.561105 0.0839704 0.0536965
0.583947 0.0871748 0.0541543
0.605951 0.0906691 0.0547494
0.626688 0.0944381 0.0555123
0.64567 0.0985275 0.0563668
0.664103 0.103639 0.0575418
0.681239 0.108751 0.0587015
0.697276 0.113939 0.0600748
0.712291 0.119203 0.0615091
0.725963 0.124208 0.0629892
0.738994 0.129686 0.0646982
0.75111 0.134844 0.0665599
0.762158 0.140154 0.0686046
0.772229 0.145373 0.0708476
0.781384 0.150164 0.0731212
0.789715 0.154772 0.0755322
0.797269 0.158724 0.0780652
0.804089 0.1626 0.0808576
0.810132 0.165957 0.0834211
0.815686 0.168719 0.0858625
0.820737 0.171435 0.0882277
0.825315 0.173709 0.0903487
0.829633 0.175463 0.0922408
0.833661 0.176989 0.093843
0.837674 0.178393 0.0953384
0.841672 0.179065 0.0964523
0.845594 0.179309 0.0970321
0.849805 0.179446 0.0973983
0.853971 0.178927 0.0970779
0.858503 0.177996 0.0962081
0.863142 0.176715 0.0951553
0.867506 0.175174 0.0941634
0.871473 0.173449 0.093019
0.875196 0.171206 0.0916762
0.878599 0.168475 0.0902113
0.882017 0.165591 0.0887922
0.884978 0.162417 0.0872663
0.887968 0.159335 0.0858778
0.891234 0.156069 0.0845502
0.894362 0.152544 0.083238
0.897719 0.150347 0.0823072
0.90161 0.150698 0.0821241
0.905501 0.151034 0.0819104
0.909316 0.151278 0.081651
0.912978 0.151476 0.0813764
0.916503 0.151675 0.0810407
0.920012 0.15198 0.080766
0.923491 0.15227 0.0804608
0.92694 0.152483 0.0801099
0.930449 0.152728 0.0797742
0.0100557 0.0395666 0.0119173
0.0545968 0.037583 0.0104219
0.113268 0.0420844 0.0139925
0.161379 0.0497597 0.0274662
0.204623 0.060914 0.0430915
0.251209 0.0665599 0.0473335
0.295598 0.0683604 0.0472725
0.334127 0.0693217 0.0463417
0.366857 0.0739452 0.0483101
0.398062 0.0804761 0.0510719
0.428031 0.0870527 0.0532998
0.45684 0.0927443 0.054963
0.4851 0.0979171 0.056672
0.512001 0.101366 0.0575875
0.537575 0.103761 0.0581674
0.561807 0.106203 0.0585489
0.584756 0.109102 0.0589609
0.605982 0.111879 0.0590066
0.625299 0.114549 0.0590524
0.643824 0.118181 0.0593118
0.66125 0.121767 0.0596933
0.677501 0.125811 0.0604562
0.692912 0.130053 0.0614786
0.707362 0.134295 0.0626383
0.720851 0.138903 0.0642252
0.733303 0.143206 0.0658732
0.7449 0.148089 0.0678264
0.755535 0.152636 0.0699016
0.764858 0.156939 0.0719158
0.77351 0.16112 0.0742657
0.78114 0.165011 0.0766461
0.78822 0.169039 0.0792248
0.794614 0.172747 0.0817578
0.800198 0.176089 0.0841077
0.805447 0.179461 0.0863966
0.810162 0.182376 0.0885023
0.814603 0.184985 0.090486
0.818738 0.18732 0.092195
0.822843 0.189303 0.0936446
0.826947 0.190829 0.0948501
0.831098 0.19202 0.095613
0.835538 0.193103 0.0961471
0.840299 0.193301 0.0962387
0.845487 0.193317 0.0959182
0.850629 0.193103 0.0952621
0.855604 0.192523 0.0943923
0.860441 0.191501 0.0932021
0.864942 0.189944 0.091783
0.869322 0.188235 0.0904707
0.873289 0.185901 0.0889143
0.876951 0.182956 0.0872053
0.880613 0.179889 0.0856336
0.884184 0.176425 0.084062
0.887709 0.172961 0.0826123
0.891051 0.169345 0.081178
0.894377 0.16527 0.0797284
0.89778 0.161395 0.0784314
0.901686 0.160586 0.0779431
0.905516 0.1608 0.0776837
0.909422 0.161044 0.0773938
0.913161 0.161242 0.0770886
0.916747 0.161334 0.0767224
0.920546 0.161654 0.0764019
0.924117 0.16199 0.076051
0.927657 0.162203 0.0756542
0.0121157 0.071397 0.0223392
0.0423133 0.0749828 0.0220798
0.0988937 0.0652323 0.0175937
0.155718 0.0721752 0.0286564
0.196506 0.0822614 0.0506752
0.235492 0.0916457 0.0618601
0.282353 0.0969863 0.0610819
0.323064 0.0991379 0.0574807
0.359503 0.100053 0.053315
0.392416 0.103578 0.0537118
0.42298 0.108537 0.0555734
0.453147 0.113848 0.0574502
0.48101 0.118349 0.0584726
0.507927 0.122545 0.0594644
0.532967 0.125521 0.059968
0.55613 0.127581 0.0600137
0.578317 0.129809 0.0601816
0.598764 0.132113 0.0602731
0.618143 0.134951 0.0605936
0.636103 0.137774 0.0609445
0.65333 0.141207 0.0616007
0.669413 0.144945 0.0624857
0.684016 0.148257 0.0633555
0.697887 0.151568 0.0644694
0.710674 0.154864 0.0657206
0.722408 0.158175 0.0671855
0.733104 0.161501 0.0689097
0.742916 0.164691 0.0707561
0.752026 0.168231 0.0729686
0.760388 0.171557 0.0754864
0.768017 0.175204 0.0781567
0.775051 0.178607 0.0808118
0.781399 0.182071 0.0834211
0.787091 0.185428 0.0858167
0.792233 0.188449 0.0879835
0.796811 0.191333 0.0898604
0.801175 0.193988 0.0915389
0.805478 0.196521 0.0930343
0.809766 0.198764 0.094255
0.814069 0.200626 0.0949416
0.818753 0.202457 0.0953536
0.823682 0.203601 0.0953994
0.829084 0.204791 0.0952621
0.834516 0.205966 0.0950637
0.839857 0.206622 0.0948043
0.845289 0.207279 0.0945907
0.850416 0.207477 0.0937972
0.855436 0.207294 0.0925917
0.860243 0.20618 0.0910048
0.864836 0.204669 0.0894636
0.869261 0.202792 0.0878462
0.873442 0.200244 0.0861219
0.87744 0.19707 0.0843671
0.881422 0.19353 0.0826429
0.885405 0.1897 0.0810101
0.889204 0.18584 0.0794842
0.892851 0.181323 0.0778821
0.8963 0.176699 0.0763256
0.900084 0.173754 0.0752728
0.904234 0.173754 0.0749523
0.908156 0.173861 0.0745861
0.912032 0.173907 0.0742046
0.915953 0.173983 0.0738384
0.919814 0.173922 0.0734417
0.923613 0.17409 0.0730602
0.0123293 0.108644 0.0314641
0.0395056 0.113832 0.0340581
0.0854658 0.112551 0.0285344
0.158526 0.10692 0.0370794
0.205585 0.11664 0.0577554
0.248905 0.126726 0.0706493
0.290257 0.13257 0.0746929
0.327565 0.134463 0.0697032
0.360327 0.134524 0.0631571
0.389548 0.133196 0.0561379
0.419242 0.136538 0.0567636
0.447135 0.139635 0.0571145
0.474144 0.142947 0.0576638
0.499672 0.145937 0.0581369
0.523552 0.147997 0.0583658
0.546395 0.150164 0.0587015
0.56759 0.152468 0.0590066
0.587777 0.155032 0.059556
0.606271 0.157336 0.0601663
0.623743 0.160067 0.0609903
0.640055 0.162814 0.0618906
0.655375 0.165362 0.0629892
0.669612 0.167987 0.0642405
0.682643 0.170184 0.0655222
0.694881 0.172671 0.0671092
0.706249 0.175174 0.0688945
0.716487 0.177432 0.0707408
0.725994 0.17995 0.0727703
0.734615 0.182269 0.0749828
0.742687 0.184741 0.0775616
0.750088 0.18732 0.0802472
0.756756 0.189517 0.0827192
0.762875 0.191989 0.0850996
0.76849 0.194186 0.0873274
0.7738 0.196536 0.0894026
0.778683 0.198962 0.0912184
0.783566 0.201175 0.0923476
0.788434 0.203403 0.0932479
0.793317 0.205478 0.093904
0.798566 0.207584 0.094377
0.804044 0.209384 0.0944839
0.80975 0.211032 0.0943465
0.815457 0.212726 0.0942092
0.820935 0.214038 0.0939345
0.826444 0.215427 0.0936446
0.831815 0.216632 0.0933089
0.837171 0.217838 0.0929885
0.842451 0.218692 0.0926375
0.84773 0.219577 0.0922866
0.852811 0.219913 0.0912184
0.85771 0.218936 0.0894026
0.862486 0.217548 0.087602
0.866987 0.215518 0.0856947
0.871412 0.213062 0.0838331
0.875883 0.209598 0.0819867
0.880079 0.205722 0.0801709
0.884398 0.201816 0.0785382
0.888533 0.197635 0.076936
0.892332 0.192874 0.0753033
0.896101 0.188296 0.0737926
0.900282 0.187549 0.0732586
0.904585 0.187579 0.0729076
0.908629 0.187503 0.0724804
0.912764 0.187488 0.0720989
0.916869 0.187442 0.0717021
0.0240024 0.156619 0.0430915
0.047364 0.160266 0.048188
0.0817578 0.161898 0.041886
0.164645 0.160143 0.0479591
0.224384 0.157794 0.0662547
0.266117 0.164355 0.0758373
0.305791 0.173205 0.0823224
0.338155 0.176776 0.0797131
0.36524 0.174884 0.0707713
0.390738 0.17142 0.0617227
0.416419 0.17052 0.057496
0.443397 0.172961 0.0571756
0.468956 0.175265 0.0569314
0.493385 0.177295 0.0568399
0.516472 0.178851 0.0569162
0.538018 0.179904 0.0570535
0.558358 0.18114 0.0574502
0.577096 0.182361 0.0579538
0.594324 0.183383 0.0585641
0.610636 0.184619 0.0593881
0.62591 0.18616 0.0604715
0.640497 0.188067 0.0619364
0.653864 0.189883 0.0635386
0.666651 0.191959 0.0654459
0.678492 0.193957 0.0674601
0.689372 0.195743 0.0695811
0.699413 0.197772 0.0719005
0.708522 0.19942 0.0742046
0.716976 0.201038 0.0767834
0.724788 0.202609 0.0794842
0.731914 0.203937 0.082063
0.738674 0.205371 0.084596
0.744732 0.206714 0.0868696
0.750683 0.208011 0.088838
0.756329 0.209232 0.090074
0.761959 0.210529 0.0912032
0.767666 0.211765 0.092195
0.773236 0.213214 0.092958
0.779202 0.214679 0.0935683
0.785351 0.215976 0.0938582
0.791608 0.217472 0.0939498
0.797772 0.218967 0.0940414
0.803708 0.220356 0.0940108
0.809552 0.222019 0.0938888
0.815305 0.223484 0.0937514
0.820966 0.225101 0.0935683
0.826551 0.22678 0.0932937
0.831983 0.228244 0.0929732
0.837461 0.229816 0.0926833
0.842741 0.23093 0.0923171
0.848051 0.232151 0.0919661
0.853254 0.232883 0.0911421
0.858305 0.232136 0.0893263
0.863249 0.230808 0.08748
0.867979 0.228687 0.0855268
0.872694 0.226017 0.0835737
0.877211 0.222217 0.0815747
0.881544 0.218448 0.0797742
0.885847 0.214374 0.0780194
0.890074 0.210147 0.0763714
0.893996 0.205158 0.0746777
0.897993 0.202365 0.0735637
0.902251 0.202472 0.0731365
0.906508 0.202579 0.0727092
0.910643 0.202396 0.0722362
0.0401465 0.205188 0.0603494
0.0639353 0.206958 0.0624857
0.0986343 0.207294 0.0551766
0.170306 0.207279 0.0552529
0.243885 0.199786 0.0720684
0.284031 0.197162 0.0795148
0.318303 0.199863 0.0832685
0.348959 0.203952 0.0840467
0.371679 0.203235 0.0755322
0.393225 0.200092 0.0658885
0.416144 0.19794 0.0588998
0.442817 0.201053 0.0585641
0.467704 0.203525 0.0580606
0.491447 0.206302 0.0579385
0.513237 0.20737 0.0575875
0.533639 0.208133 0.0574197
0.552728 0.208652 0.057496
0.570459 0.208957 0.0578164
0.586969 0.209247 0.0584573
0.602274 0.209613 0.0593423
0.616983 0.210254 0.0606394
0.63061 0.211063 0.062211
0.643534 0.212146 0.0641489
0.655711 0.213199 0.066331
0.666773 0.213993 0.0685283
0.677165 0.215106 0.0708629
0.686702 0.216037 0.0733043
0.695689 0.217334 0.0758984
0.704036 0.218585 0.0787213
0.71162 0.219608 0.0814527
0.718883 0.220661 0.0840772
0.725444 0.221515 0.0863508
0.732097 0.222187 0.0878157
0.738506 0.22295 0.089128
0.744762 0.223499 0.0902571
0.751141 0.224155 0.0912947
0.757412 0.224826 0.0921187
0.76405 0.225528 0.0927901
0.770718 0.2262 0.0931411
0.777432 0.227054 0.0933852
0.784146 0.227863 0.0936446
0.790494 0.228962 0.0937667
0.796811 0.230198 0.0938888
0.803021 0.231235 0.0939651
0.809003 0.232761 0.093904
0.814984 0.234318 0.0938735
0.820783 0.235615 0.0937667
0.82652 0.237293 0.0935836
0.832074 0.238804 0.0933394
0.837659 0.240436 0.0931106
0.843076 0.24184 0.0927596
0.848386 0.243214 0.0923476
0.853666 0.244617 0.0919509
0.858824 0.245289 0.0911269
0.863966 0.244343 0.08925
0.868971 0.242573 0.0872358
0.873854 0.239979 0.0851453
0.878553 0.236789 0.0831311
0.883024 0.232776 0.0811017
0.887602 0.229053 0.0793317
0.891859 0.224674 0.0775006
0.895979 0.22002 0.0758373
0.899992 0.215427 0.0742809
0.904234 0.21561 0.0738537
0.908507 0.215869 0.0734417
0.0435645 0.242634 0.0650797
0.0688792 0.240726 0.0666819
0.106264 0.240269 0.0586404
0.172854 0.238697 0.0547494
0.251118 0.230915 0.0686351
0.297246 0.22414 0.078294
0.330175 0.222217 0.0819562
0.359152 0.22443 0.0832074
0.38088 0.22504 0.0781567
0.398993 0.22295 0.0691081
0.416968 0.219226 0.0599374
0.44152 0.221149 0.058793
0.465537 0.223484 0.0582437
0.48809 0.225483 0.057847
0.509407 0.227237 0.0577249
0.529442 0.228672 0.057847
0.548012 0.229755 0.0581064
0.565423 0.230915 0.0587472
0.581521 0.231861 0.0596017
0.596826 0.233021 0.060853
0.610819 0.233753 0.062211
0.623926 0.234394 0.0638895
0.636179 0.235035 0.0658579
0.647608 0.235355 0.0680247
0.658274 0.235813 0.0704204
0.668177 0.236225 0.0729839
0.677485 0.236728 0.0756847
0.686168 0.237324 0.0784772
0.694102 0.237797 0.0813153
0.70161 0.238392 0.0840772
0.708705 0.238499 0.0857404
0.715846 0.238727 0.0872511
0.722667 0.239002 0.0885939
0.729442 0.238987 0.0897993
0.736233 0.2392 0.0908217
0.742977 0.239185 0.0915999
0.750042 0.239353 0.0922255
0.757107 0.239445 0.0925612
0.764248 0.239628 0.0928817
0.771252 0.240116 0.0931563
0.778012 0.240513 0.0933852
0.784756 0.241032 0.0936141
0.791211 0.24184 0.0937819
0.79765 0.242756 0.0939803
0.804044 0.243687 0.0941634
0.810147 0.244923 0.0941787
0.816266 0.24622 0.0942245
0.822217 0.247318 0.0941939
0.828 0.248951 0.0940719
0.833738 0.250507 0.0939193
0.839323 0.251804 0.0936904
0.844755 0.253239 0.0933547
0.85005 0.25449 0.0929427
0.85539 0.255879 0.0925765
0.860639 0.257084 0.0921492
0.865873 0.257679 0.0912947
0.871168 0.256291 0.0892958
0.876249 0.253819 0.0871443
0.881178 0.25066 0.0850538
0.885908 0.246937 0.0830243
0.890547 0.24271 0.0810254
0.895048 0.238773 0.0792859
0.899184 0.233326 0.0773327
0.903319 0.228824 0.0757
0.9075 0.227604 0.0749065
0.0404364 0.270359 0.0622263
0.0637827 0.266453 0.0613565
0.106584 0.265019 0.0543069
0.177493 0.264073 0.0514229
0.258198 0.256306 0.0635233
0.30869 0.248356 0.0747387
0.343252 0.243351 0.0797894
0.370199 0.242649 0.0812085
0.391394 0.243061 0.0786603
0.405646 0.240909 0.0703899
0.419928 0.237339 0.0614023
0.441947 0.237842 0.0590524
0.465049 0.239673 0.0586252
0.487221 0.241917 0.0585946
0.507912 0.243626 0.0587015
0.527199 0.245136 0.0589609
0.545327 0.246632 0.0595407
0.562158 0.247913 0.0603494
0.578058 0.249454 0.0615396
0.592935 0.251026 0.0630655
0.606485 0.252247 0.0646677
0.619394 0.253544 0.0666209
0.63122 0.254475 0.0687114
0.642527 0.255497 0.0710918
0.65275 0.255955 0.0735027
0.662531 0.25658 0.0762188
0.671519 0.257069 0.0790265
0.679866 0.257206 0.0818494
0.687663 0.257267 0.0841688
0.695262 0.256794 0.085771
0.702632 0.256703 0.0872511
0.709911 0.256489 0.0886397
0.716884 0.256184 0.0897993
0.724025 0.256016 0.090837
0.731106 0.255634 0.0916457
0.738384 0.25539 0.0922255
0.745846 0.255039 0.092607
0.753017 0.254627 0.0928969
0.76022 0.254475 0.0932631
0.767193 0.2542 0.0935225
0.774182 0.254505 0.0938277
0.780941 0.25449 0.0940566
0.787625 0.254932 0.094316
0.794217 0.255604 0.0945602
0.800641 0.255985 0.0947585
0.806973 0.256916 0.0948806
0.813077 0.257755 0.0949111
0.819165 0.258625 0.0949416
0.82504 0.259815 0.0948501
0.830716 0.260914 0.0946365
0.836423 0.262135 0.0944381
0.841932 0.263218 0.0941482
0.84741 0.264561 0.093843
0.852842 0.265782 0.0935225
0.858213 0.266987 0.0932021
0.863523 0.268238 0.0928359
0.868711 0.269306 0.0924086
0.874022 0.269856 0.0916457
0.879316 0.267659 0.0895247
0.884428 0.264836 0.0874342
0.889494 0.260792 0.0851453
0.894301 0.257008 0.0831922
0.898833 0.252644 0.0812695
0.903166 0.24741 0.0792554
0.90753 0.242588 0.0775006
0.0362554 0.294301 0.0578622
0.0586862 0.289113 0.0548257
0.098024 0.28542 0.0455329
0.181262 0.285542 0.0462654
0.262715 0.276814 0.0565652
0.316182 0.267811 0.0685435
0.352667 0.260945 0.0749981
0.378866 0.257954 0.0770886
0.399558 0.257343 0.0760815
0.411719 0.255512 0.0695048
0.424063 0.253193 0.0620737
0.443885 0.253117 0.0593881
0.466255 0.254673 0.0593729
0.487373 0.256291 0.0595254
0.507103 0.257588 0.0597543
0.525948 0.259144 0.0603189
0.543297 0.260563 0.0610971
0.559976 0.262257 0.0623026
0.57554 0.264042 0.0637675
0.590082 0.265736 0.0655528
0.603784 0.267704 0.0676585
0.616312 0.269322 0.0698405
0.628077 0.270878 0.0722057
0.639017 0.272145 0.0746471
0.648997 0.27306 0.0772106
0.658473 0.274067 0.0800031
0.66714 0.274601 0.0826734
0.6757 0.274815 0.0844587
0.683665 0.274525 0.0860761
0.691539 0.274464 0.0876936
0.699168 0.274342 0.0891585
0.706554 0.273899 0.090425
0.714031 0.273625 0.0915541
0.721386 0.273136 0.0923629
0.729 0.272801 0.093019
0.736553 0.272374 0.0934157
0.743877 0.271672 0.0937514
0.751202 0.271183 0.0941176
0.758236 0.270481 0.0944076
0.765301 0.270024 0.094728
0.772229 0.269642 0.0950027
0.779034 0.269444 0.0952773
0.785748 0.269413 0.0955367
0.792279 0.269429 0.0957198
0.79881 0.269566 0.0959487
0.805051 0.26981 0.0960098
0.811185 0.270436 0.0960098
0.817319 0.270954 0.096025
0.823163 0.271534 0.0958724
0.828885 0.272511 0.0956741
0.834562 0.273198 0.0954452
0.840177 0.27422 0.095201
0.845685 0.275349 0.0949264
0.851148 0.276295 0.0946212
0.856641 0.277363 0.0943618
0.861936 0.27837 0.0940108
0.867323 0.27953 0.0937057
0.872618 0.280552 0.0933547
0.877821 0.281483 0.0929122
0.882933 0.282032 0.0922255
0.888289 0.279103 0.0899214
0.893523 0.275898 0.0877852
0.898344 0.271519 0.0855268
0.903044 0.267079 0.0834669
0.907698 0.262181 0.0814527
0.0314183 0.314794 0.0522621
0.0514839 0.307607 0.0467231
0.0889448 0.302647 0.0365454
0.167681 0.300206 0.0351415
0.260655 0.293324 0.0474098
0.320546 0.284337 0.0611429
0.359716 0.277256 0.0694285
0.387091 0.273381 0.0729839
0.404669 0.270939 0.0717784
0.416632 0.269291 0.0672923
0.427543 0.267445 0.061387
0.446342 0.267124 0.0594644
0.467994 0.268147 0.0598764
0.488212 0.269184 0.0603494
0.507546 0.270481 0.0610666
0.525704 0.271733 0.0619211
0.542809 0.273335 0.0631113
0.558892 0.275044 0.0645304
0.574136 0.276921 0.066331
0.588525 0.278981 0.0684977
0.601862 0.280919 0.0707713
0.614313 0.282872 0.073228
0.625895 0.284733 0.0758221
0.636576 0.286168 0.0784924
0.646448 0.287739 0.0813153
0.65565 0.288426 0.0831311
0.664607 0.289036 0.0849012
0.673136 0.289433 0.0865797
0.681407 0.289784 0.0882277
0.689479 0.290059 0.0897841
0.697276 0.289891 0.0911421
0.70518 0.289891 0.0923934
0.712932 0.289616 0.0933242
0.720821 0.289403 0.0939956
0.728725 0.289204 0.0945602
0.73611 0.288518 0.0949111
0.743496 0.288212 0.0953231
0.750637 0.287419 0.0956283
0.757717 0.286931 0.0959335
0.764752 0.286366 0.0962387
0.771542 0.285573 0.0964675
0.778317 0.285008 0.0967422
0.784924 0.284398 0.0969558
0.791485 0.284169 0.0971695
0.797848 0.283711 0.0973068
0.804166 0.283772 0.0973831
0.8103 0.283925 0.0973678
0.816327 0.283864 0.0973068
0.822263 0.284306 0.0972
0.827985 0.284764 0.0969711
0.833722 0.285267 0.096788
0.839353 0.285969 0.0965591
0.844862 0.286793 0.0962539
0.850401 0.287694 0.0959793
0.855817 0.288426 0.0956588
0.861265 0.289448 0.0953536
0.866636 0.290257 0.0950332
0.871962 0.291096 0.0946975
0.87718 0.291875 0.0942397
0.882216 0.292409 0.0936751
0.887327 0.293126 0.0931563
0.892287 0.293629 0.0925917
0.897444 0.290639 0.090425
0.902525 0.286702 0.0881361
0.90753 0.282383 0.0859846
0.0271305 0.332509 0.0486152
0.0453193 0.324498 0.0395514
0.0792706 0.318669 0.0288701
0.152483 0.314885 0.0261082
0.24509 0.307332 0.0363165
0.311208 0.29926 0.0507362
0.357214 0.292622 0.061326
0.386038 0.287724 0.0658122
0.404685 0.284474 0.0660258
0.417792 0.282368 0.0634775
0.428626 0.280766 0.0591897
0.449393 0.28043 0.0594339
0.470451 0.280919 0.0603647
0.490471 0.281804 0.0614633
0.509133 0.282765 0.0625772
0.527047 0.284123 0.0640269
0.543633 0.285527 0.0655375
0.559182 0.287053 0.067277
0.573968 0.288914 0.0693065
0.587869 0.290944 0.0717174
0.601068 0.293111 0.0742962
0.61323 0.295109 0.0769055
0.62443 0.296895 0.0796521
0.635035 0.298497 0.0820935
0.644724 0.299474 0.0837873
0.654169 0.300572 0.0855573
0.663157 0.301442 0.0872358
0.671763 0.302052 0.0887922
0.680171 0.302693 0.0903487
0.688441 0.30312 0.0917525
0.696727 0.303639 0.09308
0.704921 0.303929 0.0941634
0.71313 0.304204 0.0949416
0.721218 0.30425 0.0955825
0.728985 0.304097 0.0961013
0.736461 0.303838 0.0965286
0.743664 0.30338 0.0968643
0.750881 0.302937 0.0971847
0.757931 0.30248 0.0974746
0.764782 0.301732 0.0977035
0.771725 0.301137 0.098024
0.778378 0.300313 0.0982528
0.785046 0.299825 0.0985122
0.79144 0.299092 0.0986496
0.797864 0.298528 0.0988327
0.804105 0.298192 0.0988937
0.810132 0.29778 0.0988479
0.81622 0.297383 0.0988479
0.822034 0.297353 0.0986648
0.827817 0.29752 0.0984817
0.833555 0.297612 0.0982986
0.839155 0.298009 0.098024
0.84477 0.298741 0.0977798
0.850248 0.299107 0.0974594
0.855741 0.299794 0.0971695
0.861173 0.300587 0.0968338
0.866529 0.301106 0.0964675
0.871885 0.301747 0.0961166
0.876997 0.302205 0.0955978
0.882155 0.30277 0.0950942
0.887175 0.303166 0.0945602
0.892119 0.303593 0.0939956
0.896971 0.303975 0.09337
0.901686 0.304112 0.0926986
0.906844 0.302281 0.0911727
0.024918 0.349584 0.0479591
0.0445869 0.34139 0.0379187
0.0790417 0.335195 0.0257572
0.140887 0.330251 0.0200961
0.225254 0.321813 0.0269627
0.293126 0.313878 0.040177
0.341894 0.30724 0.0509957
0.375418 0.302403 0.057145
0.398291 0.298741 0.0593576
0.414237 0.296269 0.0586709
0.431556 0.294652 0.0582132
0.452934 0.293584 0.0595407
0.473518 0.293431 0.0609598
0.493187 0.293965 0.0625925
0.51162 0.294728 0.0643168
0.529046 0.295872 0.0662547
0.544976 0.296971 0.0680858
0.56022 0.298512 0.0702525
0.574517 0.30013 0.0725414
0.588098 0.302174 0.0751812
0.60087 0.304265 0.0779431
0.612604 0.306111 0.0805524
0.623529 0.307744 0.0824598
0.633921 0.309056 0.0843366
0.643839 0.310491 0.086183
0.653422 0.311925 0.0879988
0.662318 0.312871 0.0895399
0.671229 0.313985 0.0910658
0.679789 0.314733 0.0924849
0.688411 0.315724 0.0937972
0.696818 0.316365 0.0948348
0.705394 0.317143 0.0957046
0.713634 0.317571 0.0964218
0.721538 0.317723 0.0970016
0.729335 0.317952 0.0975509
0.736736 0.317693 0.0979629
0.744121 0.317693 0.0983749
0.751324 0.317357 0.0987259
0.758343 0.316899 0.0990311
0.765347 0.316533 0.0993668
0.772152 0.315862 0.0996414
0.778927 0.315358 0.0999466
0.785489 0.314809 0.100145
0.791852 0.314 0.100252
0.798276 0.313481 0.10042
0.804349 0.312703 0.100389
0.810468 0.312078 0.10042
0.816403 0.311269 0.100359
0.822248 0.310994 0.100206
0.828061 0.310735 0.100053
0.833783 0.310246 0.099855
0.839475 0.310704 0.0996262
0.845029 0.310857 0.0993515
0.850599 0.311086 0.0991073
0.856077 0.311513 0.0987716
0.861418 0.311894 0.0983749
0.866835 0.312337 0.0980087
0.872099 0.312581 0.0975814
0.877272 0.313115 0.0970932
0.882353 0.313466 0.0965744
0.887404 0.313787 0.0960403
0.892317 0.314183 0.0954604
0.897139 0.314321 0.0948196
0.901961 0.314595 0.0942092
0.906752 0.314733 0.0935683
0.022797 0.364996 0.0474403
0.0436408 0.356344 0.0366674
0.0796216 0.349813 0.0236057
0.140749 0.344442 0.0169528
0.219608 0.336156 0.021973
0.279393 0.328649 0.0327153
0.325093 0.322728 0.0424964
0.360464 0.317952 0.0491798
0.389044 0.313909 0.0532998
0.413901 0.310658 0.0560922
0.436027 0.30808 0.0580758
0.457282 0.30634 0.059968
0.477241 0.305287 0.0617227
0.496254 0.305303 0.0638285
0.514458 0.305882 0.0661631
0.531502 0.306676 0.0685588
0.547387 0.307912 0.0710002
0.562173 0.309224 0.0735027
0.576181 0.31078 0.0761425
0.589166 0.312566 0.0788739
0.600824 0.314076 0.0806592
0.612207 0.315831 0.0826123
0.622873 0.317418 0.084535
0.633494 0.319188 0.0866102
0.643458 0.320821 0.0885176
0.653101 0.322377 0.0903182
0.662242 0.32372 0.0918746
0.671183 0.32488 0.0932631
0.680018 0.326055 0.0945907
0.688869 0.327153 0.0956893
0.697444 0.327855 0.0964828
0.705974 0.32874 0.0972763
0.713985 0.329122 0.0978561
0.721996 0.329778 0.0984817
0.729656 0.330053 0.09897
0.737285 0.330449 0.0994888
0.744762 0.330724 0.0999619
0.751904 0.330465 0.100313
0.759045 0.330449 0.100694
0.765896 0.330022 0.100969
0.772747 0.329671 0.101274
0.779477 0.329458 0.101549
0.785885 0.328695 0.101625
0.79237 0.328161 0.101762
0.798657 0.327535 0.101808
0.804883 0.326863 0.101854
0.810956 0.32604 0.101839
0.817044 0.325475 0.101854
0.822965 0.325017 0.101762
0.828717 0.324285 0.101625
0.834562 0.323903 0.101534
0.840146 0.323659 0.101274
0.845777 0.323537 0.101061
0.851423 0.323476 0.100862
0.856748 0.323507 0.100404
0.862165 0.323812 0.100023
0.867445 0.323735 0.0995956
0.872709 0.324071 0.0991379
0.877836 0.324468 0.0986191
0.882872 0.324529 0.0980697
0.887907 0.324804 0.0975204
0.892729 0.32488 0.0968795
0.89752 0.325154 0.0962387
0.902312 0.325216 0.0955978
0.906981 0.325246 0.0949111
0.021088 0.378653 0.0475013
0.0429541 0.369711 0.0360723
0.0800641 0.362722 0.0223087
0.141253 0.357244 0.0148165
0.220066 0.349355 0.0190127
0.281956 0.342153 0.0298161
0.328939 0.336309 0.0400702
0.364599 0.331487 0.047425
0.393851 0.327474 0.05243
0.418814 0.323903 0.0558785
0.441032 0.321004 0.0585184
0.461891 0.318654 0.0608225
0.481605 0.316976 0.063035
0.500328 0.316396 0.0655985
0.517952 0.316304 0.0682536
0.534661 0.316869 0.0710613
0.550317 0.317891 0.073991
0.564736 0.319005 0.0768749
