_SYSTEM/luts/NORMAL -1_0 BASE + SKIN.cube
TITLE "Generated by Resolve"
LUT_3D_SIZE 5
0.00433356 0.0031281 0.00383001
0.542672 0.0836042 0.052491
0.752453 0.157748 0.0896315
0.83563 0.173007 0.101305
0.896391 0.161578 0.0944839
0.0225834 0.414084 0.0539254
0.54931 0.344366 0.081651
0.722591 0.386481 0.115312
0.831601 0.40972 0.128664
0.903731 0.419852 0.130739
0.11696 0.50927 0.152926
0.569238 0.505501 0.111055
0.753658 0.521096 0.134707
0.870176 0.557 0.14641
0.93756 0.573281 0.135485
0.141299 0.600656 0.171008
0.58677 0.618647 0.120165
0.766339 0.633295 0.146593
0.887266 0.640665 0.142336
0.956481 0.651041 0.12575
0.145754 0.674037 0.16614
0.596887 0.707103 0.113161
0.784802 0.723751 0.138033
0.90222 0.734112 0.142809
0.968978 0.736004 0.125994
0.0108034 0.139971 0.565682
0.543923 0.137179 0.407477
0.676493 0.212909 0.308263
0.769818 0.226535 0.288731
0.846189 0.194598 0.245762
0.0724651 0.435294 0.432242
0.39234 0.414191 0.386435
0.682521 0.386221 0.312428
0.813901 0.404196 0.315175
0.900847 0.413443 0.30457
0.130449 0.575113 0.448875
0.386191 0.583124 0.344213
0.663294 0.548821 0.286763
0.843793 0.587777 0.317922
0.938521 0.608301 0.320714
0.140352 0.672663 0.443976
0.422782 0.708003 0.343816
0.680751 0.693065 0.296269
0.849378 0.687816 0.281865
0.9579 0.697322 0.283467
0.134859 0.744625 0.423758
0.45658 0.808255 0.326986
0.715297 0.804746 0.304616
0.876188 0.802762 0.305074
0.973953 0.801831 0.290852
0 0.175479 0.799725
0.436057 0.169558 0.689311
0.622156 0.243717 0.465156
0.751247 0.248203 0.401297
0.843732 0.24094 0.373159
0.0845808 0.455558 0.589456
0.329366 0.441917 0.578836
0.609628 0.391638 0.501457
0.772457 0.391424 0.432319
0.877165 0.407355 0.408652
0.147631 0.571633 0.566964
0.359457 0.609445 0.591943
0.647105 0.648478 0.607416
0.847822 0.620203 0.550484
0.942687 0.624048 0.539071
0.155383 0.682429 0.592187
0.389624 0.752316 0.589029
0.622156 0.753887 0.536095
0.820829 0.730266 0.494301
0.952712 0.74548 0.522301
0.150134 0.762966 0.594736
0.413718 0.856046 0.568551
0.645029 0.86511 0.508278
0.838087 0.842618 0.485725
0.962814 0.835721 0.483726
0 0.374121 1
0.227451 0.151873 0.666194
0.547646 0.206485 0.651545
0.734157 0.257404 0.535531
0.824811 0.263905 0.494041
0.0644388 0.267597 0.667643
0.297475 0.405264 0.742046
0.548348 0.436576 0.697536
0.752056 0.412863 0.596506
0.872297 0.406821 0.515023
0.164218 0.581674 0.661387
0.370962 0.617411 0.721981
0.565942 0.647929 0.73225
0.792142 0.597803 0.674052
0.939895 0.579614 0.628443
0.167376 0.678187 0.682902
0.394736 0.756939 0.753399
0.588815 0.778805 0.760204
0.887938 0.864973 0.841184
0.941711 0.771572 0.71603
0.160739 0.762234 0.701228
0.401938 0.866468 0.755199
0.589426 0.887892 0.741024
0.810147 0.871183 0.692683
0.941588 0.862623 0.670695
0 0.407309 1
0.421241 0.321172 0.831678
0.30396 0.151507 0.590463
0.564172 0.180606 0.633509
0.792828 0.234562 0.606516
0.0690929 0.259342 0.577142
0.165057 0.256291 0.6477
0.326665 0.266682 0.708782
0.668528 0.344701 0.762783
0.864042 0.417044 0.677104
0.142123 0.556771 0.758129
0.356207 0.61883 0.829541
0.567636 0.647959 0.873533
0.757397 0.617075 0.87126
0.92784 0.587076 0.798245
0.182055 0.679896 0.757961
0.415732 0.757107 0.858549
0.603555 0.779706 0.888563
0.761105 0.79234 0.873411
0.92961 0.765072 0.849638
0.173968 0.75787 0.772366
0.410239 0.86067 0.872801
0.603723 0.878325 0.899367
0.780224 0.886687 0.887114
0.99733 0.98175 0.976913
