_SYSTEM/luts/NORMAL -1_0 BASE + SKIN.cube
TITLE "Generated by Resolve"
LUT_3D_SIZE 65
0.00433356 0.0031281 0.00383001
0.0771038 0.0337224 0.00613413
0.154971 0.0265354 0.00999466
0.204379 0.0265812 0.0177462
0.236576 0.0352483 0.0261692
0.264836 0.0415808 0.0305486
0.290898 0.0467079 0.034287
0.31577 0.0509346 0.0368353
0.340719 0.0548714 0.0388647
0.366644 0.0585336 0.0406348
0.393423 0.0619669 0.0424506
0.420844 0.0650339 0.0443885
0.447654 0.0684367 0.0464027
0.472877 0.0723888 0.0483864
0.497108 0.0762951 0.049897
0.520562 0.0800336 0.0512856
0.542672 0.0836042 0.052491
0.564141 0.08748 0.0538338
0.584451 0.0917372 0.055375
0.602975 0.0964065 0.0571145
0.62034 0.101839 0.0592813
0.636484 0.107286 0.0615396
0.651698 0.112749 0.063859
0.665782 0.117815 0.0661326
0.678798 0.122438 0.0684062
0.690898 0.127031 0.0708171
0.70222 0.131304 0.0733043
0.712489 0.135622 0.0759442
0.721736 0.140185 0.0786755
0.730175 0.144717 0.0814679
0.738003 0.149248 0.0842145
0.745495 0.153552 0.0869154
0.752453 0.157748 0.0896315
0.758892 0.161532 0.0921492
0.765011 0.164828 0.0944381
0.770611 0.167849 0.0965896
0.776135 0.170031 0.098436
0.781521 0.171817 0.100053
0.786664 0.173465 0.101457
0.79173 0.17496 0.102739
0.796841 0.176043 0.103731
0.801862 0.176791 0.104433
0.806928 0.177356 0.104891
0.811917 0.177478 0.104921
0.816968 0.177203 0.104555
0.821988 0.176623 0.103975
0.826841 0.175738 0.103273
0.831342 0.174578 0.102388
0.83563 0.173007 0.101305
0.83975 0.171023 0.100099
0.843854 0.168841 0.0988937
0.8477 0.1664 0.0975967
0.85153 0.163928 0.0963607
0.855573 0.161334 0.0951705
0.859739 0.158755 0.0940719
0.863951 0.15729 0.0934768
0.868132 0.157641 0.0935683
0.872358 0.158145 0.0937209
0.876448 0.158663 0.0938582
0.880323 0.159152 0.0939803
0.883955 0.159655 0.0940719
0.887434 0.160204 0.0941939
0.890684 0.160723 0.0943008
0.89369 0.161166 0.0943923
0.896391 0.161578 0.0944839
0.0100557 0.0395666 0.0119173
0.0545052 0.0374914 0.0103914
0.108919 0.0396735 0.0132448
0.153704 0.0463264 0.0252689
0.194568 0.0565499 0.0391699
0.234867 0.0610971 0.0424201
0.271962 0.0622416 0.041886
0.303838 0.0630961 0.0410773
0.33228 0.0665446 0.0423896
0.359518 0.071519 0.0442664
0.386084 0.0767681 0.0460212
0.412695 0.0819715 0.0477607
0.439231 0.0871138 0.0497444
0.465171 0.09131 0.0515145
0.490074 0.0948196 0.0530861
0.514031 0.0980087 0.0545357
0.536858 0.101411 0.0560311
0.558053 0.104906 0.0573587
0.577646 0.108614 0.0588235
0.595773 0.112963 0.0604868
0.612757 0.117403 0.0623026
0.628458 0.122103 0.0643626
0.64332 0.126848 0.0665141
0.657221 0.131121 0.0686809
0.670161 0.135241 0.0709697
0.682185 0.13901 0.0732738
0.693095 0.142855 0.0757153
0.703151 0.146609 0.0782177
0.712047 0.150561 0.0806897
0.720317 0.154696 0.0833295
0.727977 0.158892 0.085893
0.735149 0.16321 0.0884718
0.741878 0.16733 0.0909133
0.748089 0.171099 0.0931716
0.753933 0.174624 0.0952773
0.759518 0.177722 0.0971847
0.765118 0.180041 0.0988479
0.770535 0.182223 0.100343
0.77586 0.184253 0.101701
0.78114 0.186007 0.102876
0.786328 0.187564 0.103807
0.791608 0.188968 0.10457
0.797116 0.189853 0.104997
0.802701 0.190539 0.105165
0.808164 0.190982 0.105089
0.813504 0.191104 0.104814
0.818662 0.190845 0.104265
0.823621 0.190143 0.103471
0.828428 0.189181 0.102571
0.832975 0.187686 0.101411
0.837385 0.185687 0.100084
0.841733 0.183444 0.0987564
0.846082 0.18088 0.0973831
0.850355 0.17821 0.0960403
0.854582 0.175418 0.0946975
0.858915 0.172488 0.0933852
0.863355 0.169833 0.0922866
0.867613 0.169162 0.0919203
0.871672 0.169345 0.0919051
0.8757 0.169726 0.0919661
0.879545 0.170184 0.0920424
0.883192 0.170611 0.0920882
0.886656 0.17113 0.092195
0.889723 0.171618 0.0922713
0.892332 0.171984 0.0923171
0.0121157 0.071397 0.0223392
0.0423133 0.0749828 0.0220798
0.0981918 0.0646525 0.0174105
0.146426 0.066743 0.0262455
0.18471 0.0754864 0.0449836
0.220768 0.0833753 0.0542763
0.257572 0.0856031 0.0520485
0.288075 0.0855116 0.0482643
0.316564 0.0852369 0.0450904
0.34493 0.0881208 0.0453956
0.372793 0.0924239 0.0468757
0.400565 0.0975357 0.0487984
0.427497 0.102846 0.0507515
0.453513 0.107805 0.0527504
0.478462 0.111757 0.0544594
0.502693 0.115053 0.0561074
0.525948 0.118212 0.0578622
0.547189 0.121569 0.0595865
0.566812 0.125368 0.0614176
0.584894 0.129351 0.0632792
0.601587 0.133639 0.0653086
0.616907 0.138033 0.0674449
0.631251 0.142199 0.0695354
0.644846 0.145739 0.0716106
0.65745 0.148913 0.0736553
0.669078 0.151858 0.0757458
0.679759 0.154681 0.0778821
0.689632 0.15758 0.0800793
0.698543 0.160952 0.082475
0.706905 0.164523 0.0849012
0.714672 0.16846 0.0874037
0.722087 0.172412 0.0897993
0.729 0.176318 0.0920882
0.735454 0.179995 0.0941939
0.741604 0.183337 0.0961013
0.747417 0.186343 0.0978103
0.75317 0.188724 0.0993057
0.758816 0.191089 0.100649
0.764309 0.193317 0.101869
0.769665 0.195361 0.102876
0.775067 0.197314 0.103731
0.780652 0.198978 0.104372
0.786374 0.200565 0.104891
0.792035 0.20206 0.105303
0.797742 0.203265 0.105638
0.803449 0.204364 0.105913
0.808881 0.205112 0.105852
0.81416 0.205524 0.105516
0.819364 0.205371 0.10486
0.82443 0.204822 0.104036
0.829328 0.203845 0.102998
0.834104 0.202319 0.101778
0.838819 0.200305 0.10042
0.843488 0.19791 0.0990005
0.848157 0.195178 0.0975509
0.852705 0.192325 0.0961166
0.857282 0.189151 0.094667
0.86183 0.18613 0.0932784
0.866239 0.184054 0.0922866
0.870298 0.183734 0.0920119
0.874281 0.183795 0.0918898
0.878218 0.184039 0.0918746
0.881895 0.18439 0.0918898
0.885298 0.184634 0.0919203
0.887984 0.184924 0.0919509
0.0123293 0.108644 0.0314641
0.0395056 0.113832 0.0340581
0.0854658 0.112551 0.0285344
0.155947 0.10486 0.0361944
0.193027 0.107179 0.0516518
0.226703 0.111391 0.0600137
0.257755 0.112963 0.0612345
0.282826 0.111101 0.0563363
0.307027 0.108446 0.0514534
0.330877 0.108171 0.0488594
0.357488 0.11136 0.0495766
0.384146 0.115526 0.0508736
0.41091 0.120394 0.0526131
0.437858 0.125216 0.0544137
0.464042 0.129076 0.0559854
0.489128 0.132586 0.0576944
0.512612 0.13576 0.0595407
0.53434 0.139101 0.0615396
0.554284 0.142596 0.0636454
0.572274 0.146365 0.0658427
0.58851 0.150301 0.0680858
0.603525 0.154131 0.0703288
0.617563 0.157717 0.0725719
0.630823 0.160678 0.0747082
0.643183 0.163424 0.0767987
0.654719 0.165942 0.0788739
0.6654 0.168231 0.0808881
0.675288 0.170611 0.0829328
0.684306 0.173098 0.0850538
0.692744 0.175845 0.0872206
0.700755 0.178973 0.0894179
0.7084 0.182132 0.0915084
0.715557 0.185336 0.0935073
0.722423 0.188373 0.0953689
0.728969 0.191333 0.0970932
0.73521 0.19408 0.0986343
0.741329 0.196384 0.099855
0.747326 0.198718 0.100938
0.75314 0.200916 0.101946
0.758938 0.203067 0.102861
0.764797 0.205081 0.103624
0.770718 0.206989 0.104265
0.776638 0.208896 0.104875
0.782498 0.210651 0.105364
0.788342 0.212406 0.105852
0.794141 0.214023 0.106279
0.799863 0.215534 0.106645
0.805554 0.216815 0.106874
0.811139 0.217945 0.106981
0.816526 0.218677 0.106752
0.821836 0.218708 0.10605
0.826993 0.21828 0.105196
0.831983 0.217334 0.104112
0.836912 0.215869 0.102907
0.841901 0.213748 0.101503
0.846723 0.2112 0.100023
0.851545 0.208408 0.0985733
0.856229 0.205447 0.0970779
0.860822 0.202304 0.0955367
0.865278 0.19942 0.0941482
0.869352 0.198444 0.0935988
0.873381 0.198154 0.0933242
0.87715 0.198169 0.0932021
0.880659 0.198383 0.0931868
0.883421 0.198566 0.0932021
0.0240024 0.156619 0.0430915
0.047364 0.160266 0.048188
0.0817578 0.161898 0.041886
0.164645 0.160143 0.0479591
0.219364 0.153292 0.0638895
0.247974 0.149371 0.0681163
0.272892 0.147967 0.0697337
0.291417 0.143618 0.0653239
0.308812 0.136919 0.0588693
0.327596 0.133425 0.0555276
0.349264 0.133898 0.0554665
0.372534 0.136629 0.0568399
0.397055 0.140475 0.0585336
0.423896 0.144915 0.0600748
0.450965 0.148745 0.0612497
0.476616 0.152071 0.0624247
0.500435 0.155184 0.0638895
0.52256 0.158145 0.0655222
0.543038 0.161151 0.0673838
0.56144 0.16434 0.0694591
0.577707 0.167727 0.0716564
0.592508 0.170947 0.07393
0.606149 0.173861 0.0761578
0.618997 0.176516 0.0783703
0.630945 0.179065 0.0805219
0.642161 0.181476 0.0825971
0.652644 0.183749 0.084596
0.662501 0.185855 0.0865034
0.671656 0.187762 0.0884108
0.680278 0.189746 0.0902876
0.688579 0.191913 0.092134
0.69659 0.194125 0.0939193
0.704143 0.196368 0.095613
0.711376 0.198703 0.0971695
0.718212 0.201007 0.098497
0.724971 0.20322 0.0997177
0.73167 0.20531 0.100801
0.73817 0.207477 0.101808
0.744656 0.209506 0.102739
0.75108 0.211368 0.103548
0.757443 0.21323 0.10428
0.763745 0.215091 0.104967
0.76997 0.216907 0.105608
0.776043 0.21883 0.106203
0.782116 0.220706 0.106767
0.788128 0.222614 0.107317
0.794034 0.224521 0.107805
0.799893 0.226307 0.108232
0.805676 0.228031 0.108614
0.811383 0.229465 0.108827
0.816983 0.230732 0.108904
0.822385 0.231571 0.108736
0.82771 0.231754 0.108141
0.832959 0.231403 0.107347
0.838117 0.230411 0.10631
0.843153 0.22884 0.105074
0.848142 0.226551 0.103655
0.852934 0.223957 0.10219
0.857633 0.221103 0.100664
0.862089 0.218189 0.0991836
0.866377 0.215137 0.0976577
0.870436 0.213138 0.0966354
0.874144 0.21265 0.0962844
0.877531 0.212619 0.0961166
0.880156 0.212711 0.0960555
0.0401465 0.205188 0.0603494
0.0639353 0.206958 0.0624857
0.0986343 0.207294 0.0551766
0.170306 0.207279 0.0552529
0.243885 0.199786 0.0720684
0.274922 0.188937 0.0759899
0.294743 0.180591 0.0755779
0.31075 0.175036 0.0728008
0.324529 0.168597 0.0660868
0.339666 0.163272 0.0615549
0.35697 0.160937 0.0606546
0.376684 0.161883 0.0626078
0.398062 0.16437 0.0650339
0.421775 0.167803 0.0671397
0.446708 0.171252 0.0687266
0.47068 0.174044 0.0699931
0.493034 0.176944 0.0712902
0.514061 0.17966 0.0726177
0.534203 0.18233 0.0740978
0.552865 0.185077 0.0757916
0.569406 0.187869 0.0776532
0.584421 0.190265 0.0795453
0.598184 0.192386 0.0814221
0.611017 0.194354 0.083299
0.622751 0.196414 0.0852064
0.633646 0.19855 0.0871138
0.643946 0.200671 0.0889601
0.653666 0.202686 0.0907759
0.662867 0.204395 0.0925002
0.671626 0.205997 0.0941329
0.680201 0.207477 0.0956588
0.688502 0.20882 0.0970474
0.696468 0.210163 0.0982681
0.704097 0.211688 0.099443
0.711437 0.213199 0.100511
0.718715 0.214832 0.101518
0.725811 0.216617 0.102495
0.732845 0.218463 0.103395
0.739773 0.220172 0.104204
0.746578 0.22182 0.104952
0.753307 0.223407 0.105669
0.759854 0.22504 0.10634
0.766308 0.226734 0.107012
0.772702 0.228428 0.107591
0.778897 0.230259 0.108171
0.785077 0.232151 0.108721
0.791196 0.234012 0.109209
0.797177 0.23592 0.109697
0.803067 0.237751 0.110124
0.808911 0.239521 0.110491
0.814664 0.241184 0.11078
0.820279 0.242664 0.110979
0.825803 0.243961 0.111086
0.831235 0.244831 0.110933
0.836637 0.244999 0.110353
0.841917 0.244511 0.109499
0.847105 0.243336 0.108385
0.85211 0.241474 0.107103
0.857023 0.239063 0.105653
0.861601 0.236439 0.104234
0.865904 0.233539 0.102754
0.870085 0.230625 0.101305
0.874083 0.227985 0.0999619
0.877272 0.227497 0.0996109
0.879683 0.227558 0.0995499
0.0435645 0.242634 0.0650797
0.0688792 0.240726 0.0666819
0.106264 0.240269 0.0586404
0.172854 0.238697 0.0547494
0.251118 0.230915 0.0686351
0.29546 0.2224 0.0776989
0.316045 0.210117 0.0780499
0.331014 0.202579 0.0760967
0.34316 0.196796 0.0707866
0.356085 0.191455 0.0652934
0.370825 0.187076 0.0623178
0.38938 0.186496 0.0641031
0.409369 0.188113 0.067155
0.42945 0.190784 0.0703288
0.450446 0.194369 0.073518
0.470741 0.197345 0.076173
0.490471 0.200259 0.0782788
0.50901 0.203189 0.0802472
0.527214 0.206058 0.0821088
0.544839 0.208774 0.0838026
0.560845 0.211246 0.0853895
0.575631 0.213153 0.0869001
0.589792 0.214557 0.0883497
0.602945 0.215702 0.0897231
0.614862 0.216938 0.0911574
0.625803 0.218433 0.0927138
0.636088 0.220111 0.0943313
0.645838 0.22182 0.0959945
0.655116 0.223499 0.0975967
0.66392 0.225071 0.0990311
0.672694 0.226337 0.100175
0.681376 0.227497 0.101167
0.689799 0.228519 0.102068
0.69807 0.229374 0.102861
0.706111 0.230045 0.103578
0.71397 0.230793 0.104265
0.72163 0.231846 0.104982
0.729076 0.232975 0.105653
0.736416 0.234119 0.106279
0.743496 0.235401 0.10692
0.750362 0.236759 0.107561
0.757168 0.238148 0.108186
0.763775 0.239521 0.108782
0.770306 0.240986 0.109331
0.776745 0.242496 0.109834
0.783062 0.244114 0.110307
0.789303 0.245792 0.110765
0.795483 0.247456 0.111177
0.801556 0.24921 0.111604
0.807538 0.25098 0.111986
0.813489 0.252674 0.112306
0.819303 0.254368 0.112596
0.825071 0.255955 0.112795
0.830732 0.25745 0.112947
0.836316 0.258732 0.112993
0.84181 0.259586 0.112795
0.847288 0.259709 0.112154
0.852613 0.259022 0.111223
0.857832 0.257725 0.110094
0.86273 0.255802 0.108843
0.867277 0.25333 0.107454
0.87155 0.250721 0.106126
0.875639 0.247745 0.104692
0.879149 0.245594 0.103639
0.881453 0.244999 0.103319
0.0404364 0.270359 0.0622263
0.0637827 0.266453 0.0613565
0.106584 0.265019 0.0543069
0.177493 0.264073 0.0514229
0.258198 0.256306 0.0635233
0.30869 0.248356 0.0747387
0.33611 0.237049 0.0779736
0.350301 0.22707 0.0768749
0.361547 0.220722 0.0732128
0.372137 0.215671 0.0674907
0.384497 0.211002 0.0633249
0.401022 0.208881 0.0641642
0.419837 0.20914 0.0668803
0.439948 0.2112 0.0701152
0.460105 0.214084 0.0734874
0.478904 0.217044 0.0765545
0.496864 0.220005 0.079408
0.514153 0.222843 0.0820783
0.530816 0.225803 0.0844892
0.546456 0.228916 0.0866407
0.56112 0.231861 0.088716
0.574777 0.234241 0.0907301
0.58764 0.235798 0.0927291
0.599435 0.236988 0.0945602
0.610498 0.238025 0.0962844
0.621012 0.239139 0.0979782
0.631037 0.240375 0.0995804
0.640635 0.241596 0.101091
0.649775 0.242969 0.102434
0.658595 0.244175 0.103517
0.66743 0.245487 0.104509
0.676249 0.246952 0.105379
0.684916 0.248219 0.106157
0.693431 0.249119 0.106844
0.701778 0.249699 0.107454
0.710018 0.250065 0.107942
0.718227 0.250263 0.108339
0.726253 0.250492 0.10869
0.734096 0.250904 0.109041
0.741604 0.251591 0.109468
0.748791 0.252644 0.110002
0.755871 0.253742 0.110475
0.762737 0.25481 0.110918
0.769406 0.25594 0.11136
0.776043 0.257099 0.111727
0.782574 0.258427 0.112093
0.788998 0.259785 0.112444
0.795377 0.261219 0.112795
0.801633 0.262715 0.113115
0.807828 0.264271 0.113405
0.813962 0.265858 0.11368
0.819989 0.267414 0.113893
0.82594 0.268986 0.114107
0.83183 0.270542 0.11429
0.837659 0.272023 0.114412
0.843351 0.27332 0.114427
0.84892 0.274357 0.11429
0.854414 0.274968 0.11397
0.859861 0.274739 0.113176
0.865141 0.274052 0.112215
0.870176 0.27274 0.11104
0.874815 0.270909 0.109834
0.879088 0.268482 0.108629
0.882628 0.266194 0.107576
0.885084 0.264744 0.106859
0.0362554 0.294301 0.0578622
0.0586862 0.289113 0.0548257
0.098024 0.28542 0.0455329
0.181262 0.285542 0.0462654
0.262715 0.276814 0.0565652
0.316182 0.267811 0.0685435
0.350317 0.258915 0.0744335
0.366461 0.248112 0.0742809
0.377508 0.241016 0.0724193
0.386847 0.236561 0.067689
0.397879 0.232731 0.0635538
0.412695 0.229847 0.0637369
0.429908 0.228992 0.0663615
0.448493 0.229816 0.0695354
0.467536 0.231693 0.0728008
0.486427 0.234287 0.0759594
0.504112 0.236744 0.0789807
0.520821 0.239353 0.0818036
0.536721 0.242222 0.0843977
0.551766 0.245258 0.0867781
0.56611 0.248402 0.0890211
0.579477 0.251347 0.0910964
0.591882 0.253468 0.0930953
0.60354 0.255039 0.0950637
0.614481 0.256123 0.0970321
0.62475 0.257115 0.0988785
0.634424 0.258198 0.100542
0.643702 0.259342 0.102022
0.652583 0.260563 0.103334
0.661265 0.261723 0.104463
0.669841 0.262959 0.105501
0.67834 0.26424 0.106401
0.686717 0.265538 0.10724
0.695064 0.266804 0.107973
0.703273 0.267964 0.108644
0.711406 0.26891 0.109255
0.719417 0.269383 0.109819
0.727214 0.269581 0.110369
0.734905 0.26978 0.110918
0.742367 0.2701 0.111452
0.749599 0.270527 0.11194
0.756741 0.271015 0.112428
0.763638 0.271656 0.112856
0.770321 0.272389 0.113252
0.776913 0.273243 0.113603
0.783429 0.274189 0.113939
0.789807 0.275257 0.114244
0.79617 0.276387 0.114519
0.802411 0.277623 0.114763
0.808576 0.278965 0.115023
0.81471 0.280308 0.115236
0.820722 0.281712 0.11545
0.826642 0.283146 0.115648
0.832547 0.284596 0.115816
0.838407 0.286046 0.115969
0.844099 0.287388 0.11606
0.849699 0.288655 0.116075
0.855222 0.289677 0.115969
0.860594 0.290364 0.115709
0.865858 0.29073 0.115358
0.870939 0.290364 0.114549
0.875669 0.289525 0.113619
0.880247 0.288167 0.112535
0.884108 0.286885 0.111604
0.886595 0.285969 0.110948
0.0314183 0.314794 0.0522621
0.0514839 0.307607 0.0467231
0.0889448 0.302647 0.0365454
0.167681 0.300206 0.0351415
0.260655 0.293324 0.0474098
0.320546 0.284337 0.0611429
0.35964 0.277195 0.0694133
0.380529 0.268315 0.0715801
0.391302 0.260807 0.0695811
0.399985 0.256306 0.0662394
0.409583 0.252766 0.0626535
0.423545 0.249271 0.0629435
0.43978 0.247425 0.0656748
0.456825 0.247349 0.0688792
0.474571 0.248707 0.0721599
0.492699 0.250584 0.0753796
0.510216 0.252888 0.0785229
0.526909 0.255344 0.0814832
0.542657 0.258045 0.0842603
0.557427 0.260975 0.0868391
0.57145 0.263981 0.0892348
0.584497 0.267079 0.0914168
0.596445 0.269657 0.0934462
0.607752 0.271595 0.0954757
0.618524 0.273075 0.0974441
0.628672 0.27422 0.0992752
0.6383 0.275257 0.100938
0.647608 0.276356 0.102449
0.65655 0.277607 0.103792
0.665171 0.278767 0.104997
0.673609 0.279988 0.106081
0.68188 0.281224 0.107057
0.689998 0.28246 0.107942
0.69807 0.283803 0.108751
0.706035 0.285267 0.109483
0.713893 0.286625 0.11017
0.721706 0.287678 0.110842
0.729397 0.288457 0.111498
0.736904 0.289067 0.112123
0.744305 0.289418 0.112734
0.751568 0.289464 0.113313
0.758724 0.289494 0.113878
0.765652 0.289815 0.114366
0.77232 0.290196 0.114809
0.778881 0.290715 0.115206
0.785351 0.291356 0.115572
0.791653 0.292103 0.115877
0.797848 0.292943 0.116152
0.803937 0.293873 0.116381
0.809995 0.294942 0.116609
0.816022 0.29601 0.116823
0.821942 0.2972 0.117052
0.827802 0.298482 0.117266
0.833616 0.299779 0.117449
0.839384 0.301045 0.117617
0.845014 0.302342 0.117754
0.850568 0.303578 0.11783
0.856046 0.304738 0.117845
0.861433 0.305715 0.117769
0.866728 0.306462 0.117586
0.871672 0.306966 0.117311
0.876295 0.307179 0.116899
0.880842 0.306783 0.116182
0.884703 0.306127 0.11545
0.887007 0.30576 0.114992
0.0271305 0.332509 0.0486152
0.0453193 0.324498 0.0395514
0.0792706 0.318669 0.0288701
0.152483 0.314885 0.0261082
0.24509 0.307332 0.0363165
0.311208 0.29926 0.0507362
0.357214 0.292622 0.061326
0.385153 0.287007 0.0656596
0.399542 0.280308 0.0652476
0.409369 0.275257 0.0629892
0.418631 0.271702 0.0601968
0.433555 0.267323 0.062089
0.449271 0.264607 0.0649882
0.465461 0.263859 0.0683452
0.481926 0.264637 0.0717327
0.498955 0.266361 0.0751202
0.515862 0.268574 0.0783398
0.532128 0.270832 0.0814069
0.547784 0.27332 0.0842908
0.562692 0.276066 0.0870375
0.576791 0.278965 0.0895857
0.589532 0.281865 0.0918898
0.601068 0.284535 0.0939803
0.61207 0.286748 0.0959487
0.622568 0.288563 0.0977951
0.63267 0.290059 0.0995804
0.64242 0.291279 0.101244
0.651804 0.292378 0.10277
0.660822 0.29366 0.104173
0.669429 0.294942 0.105409
0.677867 0.296269 0.106554
0.686107 0.297612 0.107591
0.694133 0.298924 0.108537
0.702007 0.300282 0.109407
0.709697 0.301762 0.110216
0.717266 0.303243 0.110964
0.724865 0.304646 0.111711
0.732418 0.305989 0.112444
0.739803 0.307134 0.113146
0.747066 0.30782 0.113817
0.754269 0.308064 0.114488
0.761425 0.308217 0.115145
0.768338 0.308492 0.115724
0.775051 0.308705 0.116228
0.781674 0.30898 0.116716
0.788159 0.309331 0.117128
0.7944 0.309834 0.117479
0.800443 0.31046 0.117769
0.806409 0.311131 0.118029
0.812345 0.311925 0.118288
0.818219 0.312749 0.118502
0.824018 0.313726 0.11873
0.82974 0.314763 0.118944
0.835401 0.315801 0.119142
0.841047 0.316884 0.119326
0.846586 0.317998 0.119493
0.852033 0.319097 0.1196
0.857404 0.320195 0.119661
0.862715 0.321202 0.119677
0.867964 0.322133 0.119646
0.872908 0.322911 0.119524
0.877516 0.323491 0.11928
0.88191 0.323827 0.118975
0.885542 0.323949 0.1187
0.887556 0.324132 0.118578
0.024918 0.349584 0.0479591
0.0445869 0.34139 0.0379187
0.0790417 0.335195 0.0257572
0.140887 0.330251 0.0200961
0.225254 0.321813 0.0269627
0.293126 0.313878 0.040177
0.341894 0.30724 0.0509957
0.375418 0.302403 0.057145
0.398047 0.298497 0.0593271
0.412238 0.294194 0.0586099
0.426596 0.289601 0.0586709
0.442679 0.284428 0.0612497
0.458061 0.280919 0.0644083
0.473701 0.279438 0.0679332
0.489525 0.279698 0.0715801
0.505394 0.281147 0.0751354
0.521416 0.283314 0.0784924
0.537133 0.285649 0.0816815
0.552438 0.287984 0.0846876
0.567361 0.290593 0.0875563
0.581445 0.293355 0.0902113
0.594171 0.29601 0.0925612
0.605783 0.298619 0.0945449
0.616724 0.300984 0.0964523
0.62707 0.303075 0.0982681
0.63711 0.304875 0.100008
0.646845 0.306355 0.101671
0.656275 0.307637 0.103243
0.665278 0.308919 0.104662
0.673915 0.310323 0.105943
0.682368 0.311772 0.107103
0.690654 0.313252 0.108186
0.698665 0.314687 0.109178
0.706477 0.316121 0.110109
0.714031 0.317571 0.110994
0.721416 0.319036 0.111833
0.728832 0.320668 0.112657
0.736171 0.322316 0.113451
0.74342 0.323842 0.114214
0.750576 0.324987 0.114961
0.757671 0.325719 0.115694
0.764752 0.326284 0.116411
0.771664 0.326757 0.117067
0.778439 0.327001 0.117678
0.785122 0.327199 0.118227
0.791669 0.327382 0.11873
0.797879 0.327733 0.119173
0.803815 0.328237 0.119524
0.809689 0.328756 0.119814
0.815503 0.329366 0.120104
0.821256 0.329992 0.120348
0.826902 0.330785 0.120592
0.832471 0.331594 0.120821
0.83801 0.332418 0.121019
0.843519 0.333303 0.121218
0.848936 0.334249 0.121386
0.854261 0.33518 0.121477
0.85951 0.336095 0.121584
0.864713 0.337011 0.121645
0.869856 0.337926 0.121645
0.874739 0.338781 0.121614
0.879332 0.339513 0.121492
0.883619 0.340093 0.121324
0.887175 0.340459 0.121141
0.88896 0.340902 0.121218
0.022797 0.364996 0.0474403
0.0436408 0.356344 0.0366674
0.0796216 0.349813 0.0236057
0.140749 0.344442 0.0169528
0.219608 0.336156 0.021973
0.279393 0.328649 0.0327153
0.325093 0.322728 0.0424964
0.360464 0.317952 0.0491798
0.389044 0.313909 0.0532998
0.413794 0.310536 0.0560922
0.433799 0.305623 0.0582132
0.450996 0.300298 0.0608072
0.466224 0.29601 0.0640269
0.481224 0.293904 0.0678569
0.496742 0.293706 0.0717784
0.511894 0.294682 0.0755627
0.527291 0.296895 0.0791638
0.542367 0.299351 0.0825208
0.557244 0.301854 0.0856489
0.571664 0.304463 0.0885481
0.585351 0.307073 0.0909133
0.598276 0.309621 0.0931411
0.610254 0.312184 0.0951553
0.621454 0.314763 0.0971389
0.631922 0.317052 0.0989548
0.641917 0.319066 0.100694
0.65156 0.320806 0.102327
0.660929 0.322347 0.103899
0.669902 0.323705 0.105348
0.678569 0.325139 0.106645
0.687053 0.326619 0.107836
0.695323 0.328176 0.108965
0.703349 0.329702 0.110018
0.711131 0.331228 0.110994
0.718654 0.332769 0.11194
0.72604 0.334279 0.112856
0.733349 0.336034 0.113741
0.740551 0.337819 0.114595
0.747646 0.339544 0.115419
0.754696 0.341024 0.116213
0.761715 0.342184 0.116991
0.768719 0.343175 0.117754
0.775601 0.343954 0.118486
0.782422 0.344411 0.119188
0.789151 0.344656 0.119829
0.795712 0.344869 0.120439
0.801938 0.34522 0.120943
0.807828 0.345708 0.121355
0.813626 0.346166 0.121736
0.819348 0.3467 0.122072
0.824994 0.347265 0.122393
0.830533 0.34789 0.122637
0.836027 0.348592 0.122881
0.841443 0.34931 0.123095
0.846799 0.350057 0.123308
0.852094 0.350835 0.123461
0.857298 0.351614 0.123583
0.86244 0.352377 0.12369
0.867521 0.35317 0.123751
0.872541 0.353948 0.123751
0.877333 0.354711 0.12372
0.881849 0.355398 0.123644
0.886015 0.356069 0.123537
0.889448 0.356558 0.12343
0.891096 0.357015 0.123552
0.021088 0.378653 0.0475013
0.0429541 0.369711 0.0360723
0.0800641 0.362722 0.0223087
0.141253 0.357244 0.0148165
0.220066 0.349355 0.0190127
0.281956 0.342153 0.0298161
0.328939 0.336309 0.0400702
0.364599 0.331487 0.047425
0.393851 0.327474 0.05243
0.418814 0.323903 0.0558785
0.440238 0.320104 0.0585489
0.458351 0.315007 0.0611276
0.47422 0.310384 0.064271
0.488914 0.307637 0.0684215
0.503685 0.306676 0.0724651
0.518486 0.307362 0.0764782
0.533288 0.309224 0.0802777
0.547738 0.311681 0.0838026
0.561959 0.314611 0.0867323
0.575753 0.31751 0.0892805
0.589166 0.320256 0.0916609
0.602045 0.322744 0.0939193
0.614267 0.325429 0.0960555
0.625803 0.328161 0.098085
0.636545 0.330694 0.0998856
0.646693 0.332982 0.10161
0.656291 0.334936 0.103227
0.66566 0.336721 0.104768
0.674678 0.338231 0.106203
0.683391 0.33962 0.107515
0.691875 0.341085 0.108766
