_SYSTEM/luts/NORMAL -1_0 SCENE 01.cube
TITLE "Generated by Resolve"
LUT_3D_SIZE 5
0.0041352 0.00231937 0.00297551
0.513832 0.068864 0.0369573
0.749981 0.12282 0.052903
0.83595 0.142199 0.0571298
0.864378 0.0728313 0.0245975
0.0281834 0.353521 0.0441444
0.499092 0.302159 0.0665446
0.698985 0.336538 0.0848554
0.843198 0.349355 0.0931106
0.927169 0.332052 0.0730755
0.112764 0.494881 0.131746
0.517037 0.494789 0.0945144
0.726909 0.5131 0.106859
0.868528 0.53547 0.112245
0.959686 0.543191 0.106523
0.11165 0.663005 0.140093
0.497383 0.677455 0.102693
0.723262 0.688441 0.117647
0.881056 0.696406 0.114763
0.970718 0.716289 0.129259
0.0936599 0.799527 0.103319
0.444739 0.82945 0.0920424
0.709285 0.845426 0.124834
0.886763 0.852979 0.145647
0.979019 0.871183 0.182727
0.0187381 0.126848 0.488182
0.466148 0.111864 0.337316
0.662531 0.172412 0.270756
0.804181 0.171817 0.258503
0.863966 0.11339 0.19205
0.0735027 0.385138 0.380285
0.3355 0.354986 0.327504
0.647242 0.329717 0.244266
0.820691 0.336553 0.238605
0.932372 0.334279 0.225422
0.128847 0.544045 0.399756
0.365698 0.551705 0.311711
0.655741 0.531426 0.250782
0.826444 0.533425 0.244038
0.951904 0.539178 0.235492
0.124758 0.693812 0.375692
0.396796 0.706859 0.317189
0.675151 0.702663 0.273045
0.852415 0.70135 0.255375
0.967651 0.714199 0.260822
0.103349 0.821256 0.323095
0.388525 0.853544 0.303838
0.681834 0.857374 0.291279
0.871046 0.853803 0.293645
0.979828 0.86656 0.309606
0.0187686 0.145998 0.701488
0.373144 0.153979 0.633036
0.610697 0.196506 0.461158
0.78291 0.186984 0.439994
0.886213 0.133577 0.400793
0.0850843 0.41059 0.552819
0.291173 0.407156 0.539239
0.585351 0.351751 0.46041
0.778058 0.363394 0.415656
0.898726 0.352911 0.394629
0.134585 0.553399 0.546471
0.34107 0.582818 0.562875
0.625589 0.616724 0.572625
0.817609 0.555825 0.468711
0.954025 0.54844 0.441627
0.128725 0.702907 0.558221
0.376501 0.744945 0.567864
0.622141 0.750896 0.51693
0.830137 0.731533 0.475151
0.958099 0.725063 0.455344
0.108843 0.833478 0.532662
0.359762 0.875654 0.539117
0.634272 0.882872 0.500832
0.842771 0.859068 0.474739
0.967971 0.857603 0.473075
0.0220035 0.223865 0.760525
0.158724 0.124178 0.632639
0.524147 0.143435 0.660868
0.759045 0.156664 0.61677
0.879423 0.131807 0.571649
0.059144 0.238087 0.666667
0.268162 0.375982 0.719127
0.531807 0.399954 0.673518
0.766186 0.377356 0.608835
0.901625 0.352575 0.574655
0.129488 0.556893 0.689998
0.352773 0.596017 0.707744
0.555673 0.624903 0.715877
0.795209 0.579416 0.659358
0.94641 0.564874 0.628107
0.124315 0.70161 0.705394
0.368017 0.750805 0.742184
0.589029 0.774578 0.753994
0.876371 0.851316 0.825895
0.937987 0.745342 0.67277
0.106416 0.834989 0.705287
0.356634 0.880232 0.739269
0.590738 0.896712 0.736584
0.8168 0.878355 0.690028
0.947097 0.873091 0.671916
0.0226749 0.178683 0.45156
0.198474 0.170993 0.551049
0.193927 0.0965744 0.557183
0.494118 0.10042 0.622675
0.74406 0.109316 0.638239
0.0533455 0.155886 0.545586
0.118257 0.185992 0.609033
0.332601 0.212314 0.722362
0.672251 0.263676 0.776776
0.864591 0.275822 0.725887
0.0974899 0.474922 0.7897
0.304341 0.564996 0.834989
0.559289 0.621378 0.877272
0.76556 0.597833 0.869322
0.936522 0.569818 0.813809
0.118578 0.674281 0.820661
0.3579 0.737545 0.864149
0.601663 0.775128 0.887892
0.770077 0.787289 0.875578
0.932403 0.765942 0.856626
0.10898 0.823255 0.839567
0.351003 0.872175 0.878019
0.594598 0.891173 0.902068
0.791623 0.893065 0.887266
0.993469 0.979232 0.973861
