_SYSTEM/luts/NORMAL -1_0 SCENE 02.cube
TITLE "Generated by Resolve"
LUT_3D_SIZE 65
0.00199893 0.00128176 0.00157168
0.071458 0.0458534 0.0290684
0.120821 0.0488746 0.0330968
0.15433 0.0493477 0.0377203
0.181231 0.0525216 0.0428626
0.205814 0.05449 0.0433661
0.229175 0.0558328 0.0420081
0.253025 0.0560006 0.0414435
0.27744 0.0556497 0.0413214
0.300435 0.0558022 0.0395514
0.32192 0.0567941 0.0361334
0.343572 0.057435 0.0335699
0.366857 0.057496 0.0328374
0.391485 0.0580453 0.0346227
0.414786 0.0592508 0.0356146
0.4365 0.0607004 0.0353704
0.457145 0.0620584 0.0348821
0.477256 0.0636301 0.0345464
0.496452 0.0654002 0.0340581
0.514412 0.0677806 0.0328679
0.531807 0.0717479 0.0310674
0.54876 0.0759442 0.0294347
0.565911 0.0796674 0.0288701
0.58378 0.082536 0.0299535
0.601099 0.0851911 0.0316777
0.618357 0.0883192 0.0336919
0.635126 0.0914168 0.0355688
0.650492 0.0950637 0.0373236
0.664988 0.0990158 0.0391699
0.679042 0.102632 0.0408179
0.693156 0.105791 0.0427253
0.705959 0.109468 0.0445869
0.717769 0.113268 0.0462654
0.729107 0.116594 0.0476539
0.739986 0.119646 0.0487221
0.750423 0.122316 0.0498665
0.760479 0.124376 0.0513008
0.76994 0.125597 0.0526741
0.778698 0.126528 0.0536812
0.786603 0.127428 0.0547799
0.793515 0.12755 0.054963
0.799451 0.127153 0.0541238
0.805112 0.126467 0.0529335
0.809857 0.124773 0.0506752
0.814038 0.122286 0.0477302
0.81796 0.119402 0.0444953
0.821424 0.116197 0.0409705
0.824353 0.112566 0.0383307
0.826947 0.108278 0.0377661
0.828748 0.103334 0.037171
0.830732 0.0985733 0.0365759
0.832303 0.0935225 0.0359503
0.834119 0.0887922 0.0353857
0.836255 0.0842451 0.0348363
0.83801 0.0794537 0.034287
0.841047 0.076463 0.0339055
0.846159 0.0764019 0.0338293
0.851209 0.0763409 0.033753
0.856168 0.0762493 0.0336461
0.860899 0.0759899 0.0335241
0.865492 0.075761 0.0333867
0.869993 0.0755932 0.0332799
0.874434 0.0754253 0.0331426
0.878828 0.0752117 0.0330053
0.883177 0.0750286 0.0328679
0.03093 0.0514229 0.030396
0.0590219 0.0468757 0.0298619
0.0969863 0.0521553 0.0355383
0.127642 0.057557 0.0407874
0.157382 0.0622568 0.0469825
0.189853 0.0640421 0.0487831
0.221073 0.0644694 0.0473945
0.25095 0.0642557 0.0462654
0.27863 0.0658732 0.0472725
0.30544 0.0686351 0.0476692
0.330571 0.0724651 0.0464942
0.354772 0.0759899 0.0453803
0.379492 0.0784619 0.0455634
0.403876 0.079057 0.0466316
0.42681 0.0787823 0.0468147
0.448325 0.0792554 0.0459754
0.469566 0.0800031 0.0453651
0.489967 0.0808118 0.0446479
0.508736 0.082002 0.0438697
0.526741 0.0846265 0.0429847
0.544579 0.0874495 0.0419471
0.56199 0.0905928 0.04094
0.578592 0.0939956 0.040116
0.595178 0.0972763 0.0401312
0.611582 0.100649 0.0408637
0.627726 0.103716 0.0421912
0.643732 0.107057 0.0442969
0.659358 0.110109 0.0467994
0.673777 0.113237 0.0487068
0.687526 0.116472 0.0504311
0.700633 0.119814 0.0522621
0.713115 0.123659 0.0543526
0.724941 0.127214 0.056199
0.735927 0.130266 0.0574807
0.746456 0.133562 0.0585031
0.756542 0.136538 0.059266
0.766018 0.138964 0.0599069
0.774395 0.141161 0.0609445
0.782345 0.142763 0.0619669
0.789975 0.143771 0.0627146
0.796994 0.144213 0.0627451
0.803494 0.144396 0.0621653
0.809445 0.143923 0.0608377
0.814832 0.142824 0.058732
0.819608 0.141054 0.0560922
0.823804 0.13872 0.0530098
0.827192 0.135653 0.0490425
0.829786 0.131838 0.0443427
0.832242 0.127764 0.039765
0.834058 0.122911 0.0366369
0.835233 0.117388 0.035935
0.836637 0.112123 0.0352789
0.83798 0.106722 0.034638
0.839506 0.10161 0.0340429
0.841062 0.0965896 0.0334478
0.842313 0.0911574 0.0328527
0.8439 0.086183 0.0323186
0.848112 0.084947 0.032105
0.852857 0.0847486 0.0319982
0.857694 0.0846876 0.0318914
0.862272 0.0844739 0.031754
0.866606 0.0841077 0.0316167
0.871229 0.0841077 0.0314794
0.875563 0.0839704 0.0313268
0.87985 0.0837873 0.0311742
0.0380255 0.0795605 0.040528
0.0538033 0.0739757 0.0344396
0.0954299 0.0731212 0.0402228
0.132769 0.0771191 0.0487984
0.162524 0.0822614 0.0590219
0.192416 0.0850385 0.0640879
0.225269 0.0866712 0.0623636
0.256291 0.0872206 0.0595712
0.286397 0.0867018 0.0575723
0.315007 0.0874495 0.057496
0.341222 0.089601 0.0568399
0.36611 0.0929427 0.0555734
0.389685 0.0954299 0.0543832
0.413504 0.0969406 0.0541238
0.436316 0.0971237 0.0540475
0.457679 0.0970626 0.0537575
0.47837 0.0975357 0.0534829
0.497688 0.0985275 0.0529335
0.516182 0.100282 0.0522621
0.5337 0.102251 0.0514839
0.550927 0.105135 0.0508583
0.567681 0.108644 0.0502937
0.583597 0.111864 0.0497444
0.599298 0.115007 0.0495766
0.614847 0.118303 0.0497749
0.629908 0.121355 0.0503395
0.644831 0.124178 0.0515908
0.659342 0.126925 0.0527962
0.673594 0.129885 0.0541848
0.687495 0.132876 0.0560006
0.700816 0.135897 0.057908
0.713634 0.138918 0.0601816
0.726116 0.142016 0.0625315
0.737865 0.144839 0.0643168
0.748669 0.147433 0.0655375
0.758297 0.150317 0.0666819
0.767163 0.153063 0.0674601
0.775326 0.155474 0.0678721
0.783093 0.157488 0.0683146
0.790646 0.158892 0.068574
0.798032 0.15993 0.068513
0.804776 0.160037 0.0677043
0.811154 0.15996 0.066392
0.816907 0.15964 0.0645151
0.822156 0.158755 0.0623484
0.826749 0.157305 0.0596933
0.830716 0.1552 0.0563363
0.83357 0.152071 0.0517891
0.835538 0.147921 0.0463722
0.837446 0.14342 0.0411536
0.838972 0.138521 0.0361944
0.840177 0.133165 0.0354772
0.841016 0.127352 0.0347601
0.841917 0.121538 0.0340429
0.842924 0.11577 0.0333715
0.844114 0.110292 0.0327459
0.845151 0.104509 0.0320897
0.846021 0.0986648 0.0314488
0.848554 0.095079 0.0310063
0.853269 0.0948348 0.0308843
0.857816 0.0946212 0.0307317
0.862303 0.0944076 0.0305791
0.866728 0.0942092 0.0304265
0.871092 0.0939498 0.0302586
0.87538 0.0937819 0.0301061
0.0410163 0.107149 0.0479744
0.057084 0.0990921 0.0391241
0.0854963 0.106447 0.0447089
0.136156 0.102205 0.0529641
0.170993 0.10631 0.0651255
0.203006 0.110063 0.0715953
0.234562 0.111131 0.0730449
0.264469 0.110811 0.0700847
0.293309 0.109819 0.0668803
0.320928 0.108293 0.0638743
0.347433 0.109346 0.0634165
0.371664 0.111513 0.0621653
0.394675 0.114214 0.0603952
0.417273 0.116182 0.0592355
0.438758 0.116976 0.0584421
0.459571 0.11722 0.0576944
0.479545 0.117891 0.0573434
0.499001 0.118868 0.057145
0.517418 0.119905 0.0569924
0.535103 0.121599 0.0568093
0.552041 0.123888 0.056611
0.568582 0.126665 0.0566262
0.584298 0.129778 0.0563516
0.599161 0.132631 0.0558022
0.61384 0.135866 0.055787
0.628122 0.139101 0.0561837
0.64213 0.141787 0.0570077
0.655985 0.144427 0.057908
0.669947 0.146792 0.0592203
0.683619 0.149477 0.0607614
0.696696 0.15256 0.0624247
0.709087 0.155398 0.0641031
0.721004 0.158099 0.0656748
0.732235 0.160616 0.0677653
0.743023 0.162799 0.0696117
0.753323 0.164889 0.0711681
0.763302 0.16701 0.0723278
0.772519 0.169009 0.0728008
0.780682 0.170901 0.0728923
0.788449 0.17258 0.0725109
0.795911 0.173678 0.0720531
0.803189 0.174334 0.0713664
0.810025 0.174685 0.0702678
0.81619 0.174502 0.0686198
0.821729 0.173999 0.0663462
0.826581 0.173007 0.0635996
0.830839 0.171618 0.0605783
0.834058 0.169238 0.0566415
0.83653 0.166278 0.0520027
0.838621 0.16286 0.0468452
0.840101 0.158221 0.0409552
0.841398 0.153368 0.0360876
0.842222 0.147951 0.0353094
0.843091 0.142504 0.0345464
0.84358 0.136324 0.0337835
0.844083 0.130129 0.0330358
0.844907 0.124285 0.0323644
0.845823 0.118517 0.031693
0.846464 0.112459 0.0310216
0.847364 0.106813 0.030396
0.851438 0.10576 0.0301823
0.856001 0.105562 0.030045
0.860426 0.105287 0.0298619
0.86482 0.105058 0.0297093
0.869139 0.104814 0.0295415
0.0471809 0.13872 0.0563363
0.057023 0.133486 0.0518349
0.0803693 0.138231 0.0525216
0.132372 0.138811 0.0558022
0.179538 0.134218 0.0672007
0.212314 0.136049 0.073228
0.243671 0.138201 0.0763256
0.272404 0.137896 0.0756847
0.298711 0.135927 0.0720226
0.325078 0.133501 0.0686046
0.350469 0.132479 0.0665751
0.375326 0.133913 0.0659342
0.398123 0.13579 0.0644388
0.419913 0.138033 0.0631571
0.440238 0.139223 0.061326
0.460227 0.139818 0.0602884
0.47953 0.14049 0.0595407
0.498146 0.141131 0.0589914
0.515862 0.141909 0.0586252
0.532982 0.142702 0.0583047
0.549859 0.144228 0.0585489
0.566445 0.146273 0.0590982
0.582177 0.148623 0.0596628
0.597391 0.151476 0.0601205
0.61178 0.154269 0.0603494
0.625711 0.157168 0.0607614
0.639292 0.160342 0.0614023
0.652369 0.163195 0.0621347
0.665537 0.165682 0.063508
0.67892 0.168093 0.0651865
0.691752 0.170581 0.0669566
0.703334 0.173419 0.068925
0.714214 0.175982 0.070634
0.724712 0.178439 0.0716106
0.735286 0.180606 0.0724651
0.745892 0.182467 0.0734417
0.756283 0.183917 0.0742657
0.766339 0.185168 0.0748608
0.776104 0.186496 0.0754559
0.785 0.187549 0.0756237
0.793118 0.188312 0.0751049
0.800748 0.189029 0.0741894
0.807828 0.189288 0.0729229
0.814313 0.189273 0.0712291
0.820172 0.188846 0.0693065
0.825391 0.188006 0.066804
0.829953 0.186801 0.0637675
0.833509 0.184955 0.0600595
0.83653 0.182712 0.0559396
0.838956 0.179843 0.0513771
0.84062 0.176379 0.0460975
0.842115 0.172519 0.0406348
0.843259 0.167865 0.0368048
0.844251 0.162921 0.0360418
0.844831 0.157351 0.0352331
0.845182 0.151415 0.0344396
0.845273 0.144854 0.0336156
0.845808 0.138888 0.0328679
0.846281 0.132784 0.0321508
0.846998 0.12694 0.0314641
0.84744 0.120745 0.0307622
0.849775 0.117311 0.0303044
0.854185 0.117159 0.0301366
0.858534 0.116991 0.0299535
0.862791 0.116716 0.0297551
0.0548104 0.169802 0.0635233
0.0631418 0.165286 0.0608988
0.0846265 0.167407 0.058732
0.128176 0.17142 0.0603342
0.181247 0.165972 0.0662852
0.220172 0.160678 0.0721599
0.250477 0.159976 0.0747539
0.277684 0.159945 0.0749371
0.302525 0.15819 0.0717327
0.327077 0.155917 0.0685588
0.351995 0.15407 0.0662852
0.377493 0.155261 0.0665904
0.400809 0.156786 0.0661326
0.422858 0.159182 0.0654002
0.442649 0.160174 0.0637369
0.461494 0.161273 0.0622263
0.479866 0.162127 0.0611429
0.497948 0.162799 0.0605478
0.515312 0.163378 0.0599374
0.532006 0.16405 0.0595865
0.548348 0.165133 0.0595102
0.564508 0.166583 0.060029
0.580514 0.168475 0.0610513
0.596078 0.170596 0.0622416
0.610712 0.17261 0.0632639
0.624582 0.174792 0.0640574
0.637949 0.177157 0.0650034
0.65095 0.179904 0.0659648
0.663828 0.182666 0.0673075
0.675975 0.185473 0.0692302
0.687602 0.188144 0.0710918
0.699062 0.190692 0.0731212
0.710338 0.193011 0.0746624
0.720882 0.195285 0.0755779
0.73106 0.197559 0.0762188
0.741024 0.199557 0.0764935
0.750973 0.20116 0.0766461
0.761227 0.202533 0.0769055
0.771405 0.203387 0.0771344
0.780972 0.204089 0.0772564
0.78996 0.204547 0.0772412
0.798154 0.204852 0.0767529
0.805722 0.204837 0.0755474
0.812604 0.204593 0.0741131
0.818906 0.204288 0.0723583
0.824399 0.203311 0.0699321
0.829252 0.201785 0.0670787
0.833478 0.200046 0.0637064
0.837095 0.198245 0.0601205
0.839673 0.195911 0.0558022
0.841718 0.19324 0.051194
0.842969 0.189868 0.0458381
0.844297 0.186191 0.0403449
0.845304 0.181979 0.0375372
0.84625 0.177111 0.0367742
0.846693 0.171496 0.035935
0.846769 0.165316 0.0350805
0.846876 0.159014 0.0342565
0.84686 0.152392 0.0334173
0.84741 0.146517 0.0326848
0.847639 0.140215 0.0319371
0.848127 0.134188 0.0312505
0.848783 0.128466 0.0306096
0.853071 0.128328 0.0304265
0.857298 0.128252 0.0302586
0.0560006 0.195651 0.0637217
0.0654917 0.190585 0.0625925
0.0860456 0.190829 0.0591897
0.126894 0.195102 0.0600595
0.177661 0.192004 0.0637064
0.221363 0.184451 0.0674601
0.255665 0.179568 0.070985
0.283467 0.178332 0.07187
0.307729 0.177661 0.0698253
0.329656 0.176577 0.0657511
0.351598 0.174655 0.0621805
0.375875 0.175372 0.0622873
0.39971 0.176501 0.0628519
0.421988 0.177813 0.0631266
0.442481 0.178988 0.0626078
0.461707 0.180011 0.0618601
0.479637 0.181048 0.0608682
0.497276 0.182422 0.0602121
0.514305 0.183505 0.0598764
0.531182 0.184741 0.0599527
0.547387 0.185718 0.0601053
0.563485 0.187045 0.060914
0.579263 0.188678 0.0621347
0.594491 0.190158 0.0634623
0.609216 0.19173 0.0648203
0.623545 0.193668 0.0664225
0.637125 0.195575 0.0677501
0.649729 0.197925 0.0694285
0.661906 0.200702 0.0716716
0.673762 0.203525 0.0738079
0.6851 0.205814 0.0751965
0.6963 0.208057 0.0763867
0.707668 0.210147 0.0780041
0.718669 0.212009 0.0793164
0.729168 0.214023 0.0800183
0.739239 0.21593 0.080293
0.749096 0.217762 0.0801099
0.758648 0.219165 0.0795148
0.768048 0.220249 0.0787518
0.777646 0.221073 0.0783398
0.78677 0.221149 0.0780041
0.795621 0.221042 0.0777905
0.803876 0.220783 0.0774395
0.811261 0.220295 0.0762798
0.817716 0.219562 0.0744945
0.823178 0.218524 0.0720836
0.828229 0.217304 0.0694133
0.832959 0.215671 0.0665446
0.837064 0.213748 0.0631723
0.840604 0.211643 0.0594949
0.84332 0.209018 0.0552987
0.845487 0.206332 0.0507362
0.846845 0.202838 0.0455024
0.84799 0.199268 0.0401312
0.848615 0.195148 0.0379644
0.849104 0.190707 0.0376135
0.849332 0.18526 0.0367895
0.849119 0.179004 0.0359045
0.848859 0.172595 0.0350347
0.84863 0.166094 0.0342107
0.84831 0.159396 0.0333867
0.8486 0.153536 0.0326696
0.848203 0.146548 0.0318608
0.84863 0.140871 0.0311894
0.851652 0.139132 0.030869
0.0547646 0.217853 0.0614481
0.0639506 0.212512 0.0596475
0.0846876 0.210239 0.0550851
0.126909 0.21503 0.0569924
0.176928 0.214069 0.0611124
0.220417 0.207431 0.0632486
0.258762 0.199847 0.0659648
0.289174 0.195987 0.0681926
0.31368 0.195026 0.067689
0.333898 0.193866 0.0637217
0.353628 0.192782 0.059678
0.376013 0.193561 0.0585184
0.398978 0.194873 0.058793
0.421241 0.196506 0.0592203
0.441672 0.197513 0.0590829
0.46099 0.19855 0.0588998
0.479179 0.19968 0.0585336
0.496696 0.20087 0.058381
0.513848 0.202319 0.0585184
0.530724 0.203845 0.0591897
0.546899 0.204913 0.0599832
0.563043 0.206271 0.0612192
0.578851 0.207782 0.0629129
0.594202 0.209537 0.0646372
0.608835 0.210941 0.0663767
0.622751 0.212879 0.0686503
0.635843 0.214954 0.0711376
0.648402 0.216846 0.0735027
0.660792 0.219196 0.0757458
0.672923 0.221363 0.0776532
0.684535 0.223514 0.0791638
0.695994 0.225681 0.0805676
0.707149 0.227619 0.0818494
0.718242 0.229343 0.0829938
0.729107 0.230945 0.0839857
0.739391 0.232456 0.0842603
0.749233 0.233845 0.0840162
0.758785 0.235218 0.0835431
0.768032 0.236454 0.0826734
0.77705 0.237354 0.0817121
0.786114 0.237919 0.0807965
0.794995 0.237659 0.0801099
0.80351 0.237171 0.0796063
0.811261 0.236347 0.0788434
0.818021 0.234943 0.0772564
0.824048 0.233753 0.0751049
0.829374 0.232441 0.0726024
0.834089 0.230823 0.069688
0.838636 0.229084 0.0667277
0.84271 0.226993 0.0635386
0.845945 0.224475 0.0597696
0.8486 0.221683 0.0557259
0.850492 0.218845 0.0511482
0.852094 0.215732 0.0463417
0.853193 0.212177 0.0411231
0.853712 0.208118 0.0382544
0.853773 0.203616 0.0380713
0.853742 0.198825 0.0377508
0.853544 0.192782 0.0368811
0.853254 0.186511 0.0360266
0.852186 0.179095 0.0350805
0.852049 0.172808 0.0342718
0.85185 0.166461 0.0334783
0.851347 0.159533 0.0326543
0.851331 0.153338 0.0319371
0.0535744 0.238621 0.059144
0.0630808 0.233143 0.0567025
0.0816663 0.228962 0.050248
0.127901 0.233219 0.0530098
0.177005 0.232334 0.0569314
0.219654 0.226764 0.058732
0.258793 0.219409 0.0607614
0.292042 0.213565 0.0629587
0.319295 0.210575 0.0640269
0.339055 0.209339 0.0614481
0.357733 0.20885 0.0579538
0.378836 0.210086 0.056611
0.400519 0.211902 0.0561837
0.421576 0.213703 0.0559701
0.441505 0.214878 0.0558175
0.460868 0.21622 0.0558938
0.478981 0.217395 0.0560616
0.496757 0.21886 0.0564736
0.513741 0.220264 0.0569009
0.53051 0.221592 0.057847
0.546899 0.223102 0.0590066
0.562905 0.224659 0.0606394
0.578576 0.226337 0.0625467
0.593423 0.228077 0.0649882
0.607431 0.229923 0.0678569
0.621225 0.231922 0.0708629
0.634409 0.233631 0.0737621
0.647395 0.235294 0.076173
0.660166 0.237125 0.0785534
0.672694 0.239307 0.0807202
0.684825 0.241443 0.0826581
0.696391 0.243153 0.0842298
0.70782 0.244999 0.0855573
0.718975 0.246616 0.0867323
0.729931 0.24802 0.087602
0.740734 0.249363 0.0883345
0.750973 0.250385 0.0886549
0.760571 0.251499 0.088304
0.769741 0.252476 0.0875563
0.778668 0.253468 0.0864881
0.78735 0.254093 0.0852522
0.796002 0.254292 0.0840314
0.804486 0.253574 0.0829175
0.812222 0.252216 0.0817578
0.819379 0.250629 0.0805676
0.825986 0.249134 0.0789807
0.831769 0.247578 0.0766918
0.836683 0.245762 0.0738231
0.840894 0.244022 0.0706798
0.844831 0.242206 0.0675822
0.848371 0.24004 0.0644236
0.851255 0.237583 0.0608072
0.853727 0.234913 0.0568856
0.855756 0.231952 0.0525521
0.857496 0.228962 0.0480049
0.858595 0.225467 0.0428779
0.859144 0.221546 0.0386053
0.858915 0.216953 0.038468
0.858824 0.212589 0.0382849
0.858167 0.207568 0.037995
0.857359 0.200839 0.0370489
0.856733 0.194415 0.0361639
0.855833 0.187366 0.0352331
0.855268 0.180728 0.0343938
0.854658 0.173907 0.0335546
0.05243 0.257801 0.056733
0.0616159 0.251926 0.0534524
0.0795758 0.247303 0.046891
0.12253 0.248905 0.0473945
0.17641 0.24889 0.0518807
0.220447 0.244083 0.0541848
0.259632 0.237659 0.0559396
0.294072 0.23151 0.0579385
0.322423 0.226886 0.0590982
0.344228 0.22472 0.0583047
0.362631 0.224048 0.0558633
0.382986 0.225284 0.0547799
0.404456 0.22707 0.0548867
0.424872 0.228672 0.0548104
0.444251 0.230426 0.0545205
0.462806 0.231983 0.0544442
0.480583 0.233692 0.054612
0.49778 0.235264 0.054902
0.514748 0.237156 0.0557717
0.531151 0.238819 0.0566873
0.547021 0.240314 0.0578317
0.56228 0.242161 0.0598459
0.577127 0.244251 0.0627298
0.591852 0.246235 0.0660105
0.606226 0.248478 0.0694743
0.62002 0.250172 0.0723125
0.633433 0.251682 0.0749371
0.646647 0.253086 0.0776074
0.6598 0.254948 0.0803845
0.672602 0.256962 0.0829328
0.684947 0.258717 0.0851911
0.697108 0.260441 0.0871748
0.70901 0.261952 0.0889601
0.720729 0.263493 0.0904555
0.732006 0.264866 0.0916152
0.742824 0.265858 0.0925002
0.753399 0.266987 0.0931716
0.763363 0.267765 0.0934005
0.772702 0.268559 0.0930343
0.781537 0.269474 0.0919661
0.790005 0.270008 0.0906386
0.798123 0.270161 0.0889601
0.805905 0.269596 0.0870527
0.813794 0.268299 0.08542
0.820996 0.266499 0.0838483
0.827863 0.264958 0.0824445
0.834073 0.26334 0.0805676
0.839155 0.261433 0.0779583
0.84361 0.259861 0.0750591
0.847303 0.258213 0.0717937
0.850767 0.256229 0.068513
0.853956 0.254154 0.0652628
0.856458 0.251499 0.0615244
0.858747 0.248737 0.0576333
0.8607 0.245823 0.0534371
0.862242 0.242893 0.0488441
0.863447 0.239628 0.0439765
0.864118 0.235981 0.0390173
0.863981 0.231647 0.0388342
0.863447 0.226841 0.0385901
0.862791 0.22208 0.0383764
0.861814 0.216983 0.0381476
0.860807 0.210407 0.0372625
0.85977 0.20351 0.0363165
0.859052 0.196765 0.0354314
0.0516518 0.275731 0.0554055
0.0605478 0.269993 0.0510872
0.0775464 0.265156 0.0443732
0.117449 0.264759 0.0427405
0.17113 0.264317 0.0461585
0.216968 0.260594 0.0489509
0.258228 0.254627 0.0507973
0.293462 0.248402 0.0526589
0.322896 0.243351 0.0537728
0.347005 0.240253 0.0540169
0.366888 0.239246 0.0531014
0.388479 0.239918 0.0532998
0.409689 0.241581 0.0540627
0.429618 0.243336 0.0543984
0.448356 0.244907 0.0543526
0.466606 0.24683 0.0545205
0.483925 0.248737 0.0547341
0.500832 0.250797 0.0553292
0.517205 0.25272 0.0560159
0.532937 0.254841 0.0576028
0.547723 0.256931 0.0594034
0.562036 0.2589 0.0613565
0.576516 0.261128 0.0641337
0.590982 0.263371 0.0670634
0.605081 0.265507 0.0700236
0.618982 0.26746 0.0729992
0.63238 0.269017 0.0757305
0.64567 0.270497 0.0785077
0.658991 0.272328 0.0814374
0.672099 0.274144 0.0842451
0.684916 0.27602 0.0867781
0.697414 0.277577 0.0890516
0.709789 0.279042 0.0910658
0.721996 0.280354 0.0929732
0.733623 0.281422 0.0945907
0.744701 0.282414 0.0958267
0.755428 0.283284 0.096849
0.765743 0.284138 0.0974441
0.775326 0.284764 0.0973831
0.784283 0.285237 0.0968032
0.792645 0.285771 0.0954299
0.800427 0.285786 0.0935531
0.807919 0.285435 0.091371
0.815274 0.28455 0.0891432
0.82269 0.282826 0.087129
0.829496 0.281193 0.0854353
0.835676 0.279469 0.0836957
0.84097 0.277592 0.0814832
0.845457 0.275853 0.0786603
0.849454 0.27425 0.0756085
0.852995 0.272511 0.0723125
0.856321 0.270665 0.0690318
0.859037 0.268437 0.0654459
0.861662 0.265949 0.0619669
0.86392 0.263218 0.0582589
0.865827 0.260441 0.0542458
0.867613 0.257557 0.0501259
0.868696 0.254276 0.0453193
0.86923 0.250492 0.0400397
0.868986 0.246143 0.0391852
0.86833 0.241291 0.0389563
0.86746 0.236423 0.0387274
0.866499 0.23151 0.038468
0.865812 0.226795 0.0381933
0.864637 0.220691 0.0375677
0.0519722 0.293492 0.0561074
0.0620127 0.287892 0.0513466
0.0798962 0.282979 0.0438544
0.114549 0.281102 0.0397803
0.164477 0.280262 0.0424201
0.211551 0.276738 0.0439307
0.253208 0.270863 0.0455482
0.29044 0.264942 0.0475471
0.321782 0.25977 0.049073
0.347921 0.256519 0.0497139
0.371588 0.254795 0.0503395
0.394476 0.254704 0.0518807
0.415473 0.255589 0.0528878
0.435309 0.257282 0.0538186
0.453895 0.259037 0.054551
0.471565 0.260884 0.0551003
0.488411 0.262821 0.0556649
0.504723 0.26508 0.0568093
0.520211 0.267521 0.0586252
0.535073 0.269886 0.0604105
0.549599 0.272236 0.0623484
0.563546 0.274266 0.0642557
0.577539 0.276524 0.0663157
0.591714 0.278828 0.0689555
0.605676 0.28127 0.0717937
0.619333 0.283513 0.0746319
0.632425 0.285267 0.0771954
0.645548 0.287053 0.0797894
0.658763 0.288899 0.0826429
0.671839 0.290867 0.0852369
0.684779 0.292744 0.0877699
0.69752 0.294514 0.0900282
0.710033 0.295979 0.0921798
0.722454 0.297261 0.0944228
0.734447 0.298253 0.0963302
0.745785 0.29897 0.0979324
0.756848 0.299809 0.0992752
0.767452 0.300359 0.100282
0.777447 0.300603 0.100801
0.786587 0.300954 0.10042
0.79498 0.301045 0.0993362
0.802777 0.301091 0.0975967
0.810117 0.300847 0.0953841
0.817349 0.300023 0.0931258
0.82475 0.298894 0.0910658
0.831952 0.297185 0.0890822
0.837766 0.295445 0.0871901
0.843153 0.293614 0.0852216
0.847791 0.291737 0.0827039
0.852049 0.290013 0.079881
0.855726 0.288167 0.0767834
0.859068 0.28658 0.0735332
0.862226 0.284733 0.0702678
0.864942 0.282506 0.0669566
0.867414 0.280034 0.0634928
0.869642 0.277317 0.0599222
0.871687 0.274571 0.0562753
0.873365 0.27158 0.0522469
0.874647 0.268574 0.0478523
0.875273 0.264973 0.0428473
0.875135 0.260716 0.0395666
0.874495 0.256092 0.0393225
0.873671 0.251225 0.0390631
0.872923 0.246571 0.038819
0.871885 0.241566 0.0385443
0.0526589 0.310491 0.0569314
0.0632792 0.304723 0.0517739
0.0822614 0.299825 0.0439765
0.116457 0.2972 0.0388342
0.164569 0.295964 0.0400854
0.20885 0.292638 0.040177
0.248951 0.287526 0.0412757
0.286366 0.281743 0.0429999
0.319951 0.276661 0.0450599
0.349966 0.27303 0.0466011
0.376303 0.27068 0.048188
0.400092 0.269749 0.0501411
0.421637 0.269764 0.0518654
0.441352 0.270787 0.0532235
0.459892 0.27248 0.054612
0.47718 0.274434 0.056199
0.493278 0.276585 0.0580148
0.50898 0.279042 0.0601053
0.524102 0.281529 0.0620432
0.53846 0.28394 0.0638132
0.5523 0.28629 0.0654154
0.565896 0.288548 0.0670176
0.579629 0.29102 0.0691691
0.593561 0.293584 0.0716106
0.607217 0.296193 0.0742351
0.620615 0.298573 0.0768292
0.633631 0.300664 0.0792554
0.646433 0.30251 0.0816663
0.65951 0.304601 0.0843214
0.672587 0.306661 0.0869306
0.68545 0.308446 0.0893263
0.69836 0.310353 0.0917983
0.710689 0.311849 0.0938582
0.722866 0.313161 0.0957809
0.734874 0.31426 0.0977646
0.746578 0.315297 0.0995499
0.757794 0.316106 0.101061
0.768444 0.31635 0.10219
0.7785 0.316487 0.102754
0.787854 0.316304 0.102785
0.796719 0.316152 0.102251
0.804791 0.316304 0.100908
0.812406 0.315923 0.0991684
0.819745 0.315297 0.0971084
0.827008 0.314244 0.0950332
0.83444 0.312596 0.0931258
0.840665 0.310658 0.0911116
0.846296 0.309117 0.0894026
0.851164 0.307347 0.0873121
0.855695 0.305562 0.084947
0.859663 0.303761 0.0821851
0.862898 0.301778 0.0789654
0.866102 0.300023 0.0758526
0.868925 0.297902 0.0725414
0.871473 0.295659 0.0691844
0.873915 0.293294 0.0658579
0.876036 0.290486 0.0623789
0.878172 0.288045 0.0589914
0.880003 0.285557 0.0554055
0.881361 0.282628 0.0512093
0.88188 0.279103 0.0462654
0.8822 0.275349 0.0412146
0.881987 0.27129 0.0396429
0.881041 0.266392 0.0393835
0.880049 0.26157 0.0391089
0.0531319 0.326223 0.0582589
0.0647593 0.320699 0.0528725
0.0846418 0.315541 0.0444343
0.119112 0.312139 0.0378729
0.167529 0.311162 0.0377813
0.213123 0.308049 0.0383459
0.253651 0.303304 0.0396277
0.290486 0.297749 0.0413062
0.324269 0.292638 0.0434577
0.354406 0.288945 0.0453346
0.381064 0.286198 0.0466163
0.405341 0.284474 0.0486
0.427527 0.283833 0.050782
0.447501 0.284321 0.0531624
0.46569 0.28574 0.0560006
0.482536 0.28748 0.0584268
