_SYSTEM/luts/NORMAL -1_0 SCENE 02.cube
TITLE "Generated by Resolve"
LUT_3D_SIZE 9
0.00199893 0.00128176 0.00157168
0.27744 0.0556497 0.0413214
0.457145 0.0620584 0.0348821
0.601099 0.0851911 0.0316777
0.717769 0.113268 0.0462654
0.793515 0.12755 0.054963
0.826947 0.108278 0.0377661
0.846159 0.0764019 0.0338293
0.883177 0.0750286 0.0328679
0.0535744 0.238621 0.059144
0.319295 0.210575 0.0640269
0.478981 0.217395 0.0560616
0.607431 0.229923 0.0678569
0.70782 0.244999 0.0855573
0.78735 0.254093 0.0852522
0.840894 0.244022 0.0706798
0.859144 0.221546 0.0386053
0.854658 0.173907 0.0335546
0.0591745 0.370794 0.065507
0.339223 0.336507 0.0426032
0.514199 0.327993 0.0678416
0.620783 0.348562 0.0877394
0.717128 0.36733 0.102312
0.800443 0.375189 0.109499
0.861585 0.36875 0.101839
0.88893 0.35671 0.0814679
0.903777 0.339879 0.0560006
0.0931563 0.462226 0.102266
0.369726 0.438041 0.0629587
0.540764 0.430335 0.082948
0.656657 0.43827 0.107897
0.744411 0.454429 0.1243
0.822629 0.469734 0.131823
0.879164 0.47422 0.125566
0.907561 0.473442 0.110628
0.920195 0.459541 0.0872816
0.129503 0.535485 0.131807
0.390509 0.522896 0.0786603
0.558785 0.516274 0.0938582
0.677638 0.524926 0.115892
0.772961 0.534356 0.135836
0.847913 0.547005 0.143374
0.900343 0.558038 0.139178
0.930251 0.563134 0.130694
0.941497 0.55433 0.113161
0.153079 0.603937 0.144366
0.398123 0.592264 0.0848096
0.568017 0.589349 0.0979629
0.685557 0.600961 0.119783
0.783108 0.611139 0.132998
0.862119 0.619348 0.141604
0.91165 0.631586 0.142229
0.943221 0.645441 0.1402
0.957214 0.645151 0.131151
0.16405 0.660395 0.144366
0.389914 0.64332 0.0779278
0.56527 0.649317 0.0928664
0.686091 0.663035 0.114366
0.784817 0.676127 0.128069
0.866606 0.691112 0.142382
0.920913 0.707362 0.152331
0.953094 0.725353 0.158434
0.969085 0.729747 0.157717
0.176272 0.706416 0.145418
0.381949 0.689982 0.0687877
0.55491 0.701274 0.0820172
0.684489 0.722744 0.11194
0.786557 0.740795 0.138766
0.861708 0.760891 0.159457
0.921324 0.781384 0.173648
0.961273 0.803296 0.181811
0.981598 0.809644 0.187655
0.202838 0.746197 0.170306
0.405005 0.735439 0.0899977
0.573648 0.750011 0.0987411
0.701732 0.773144 0.130709
0.801129 0.791821 0.163607
0.872709 0.813977 0.19292
0.934249 0.838224 0.217411
0.975555 0.859907 0.217884
0.987213 0.869276 0.214115
0.0118868 0.0778668 0.237659
0.290196 0.0841382 0.209308
0.444938 0.0955825 0.159838
0.565621 0.111192 0.16286
0.668879 0.137209 0.180316
0.73724 0.159838 0.185779
0.776028 0.147753 0.165545
0.78558 0.102358 0.114733
0.816632 0.0952163 0.10486
0.0653544 0.258961 0.249851
0.233722 0.23949 0.221683
0.448447 0.222827 0.169146
0.582162 0.234684 0.165194
0.691539 0.245518 0.167727
0.784573 0.254612 0.16585
0.851164 0.248417 0.154543
0.877775 0.224796 0.122454
0.874052 0.177142 0.0690776
0.0628824 0.393622 0.260548
0.225528 0.370214 0.188785
0.454383 0.347417 0.165728
0.582544 0.359091 0.170581
0.691493 0.368093 0.169421
0.789593 0.370489 0.172854
0.865522 0.363989 0.165835
0.90312 0.350256 0.14107
0.921279 0.329961 0.113008
0.0931868 0.49102 0.270008
0.249424 0.478187 0.204791
0.463233 0.454261 0.16669
0.604822 0.452796 0.171893
0.706752 0.461372 0.182254
0.795651 0.47274 0.185061
0.870268 0.473945 0.177691
0.913619 0.469017 0.158389
0.938079 0.459876 0.139483
0.122896 0.565179 0.263767
0.269017 0.562646 0.214435
0.472114 0.54345 0.17348
0.615137 0.543252 0.172061
0.728725 0.54757 0.184619
0.817273 0.554788 0.191592
0.887709 0.560159 0.185748
0.928939 0.564446 0.174151
0.953124 0.561196 0.161547
0.139773 0.633326 0.258503
0.283452 0.632807 0.215503
0.481804 0.622278 0.178973
0.621485 0.622431 0.175448
0.735866 0.628733 0.17821
0.831037 0.632822 0.184482
0.901503 0.637476 0.182528
0.942885 0.651698 0.181796
0.968383 0.655985 0.174502
0.14461 0.689586 0.250782
0.279118 0.681086 0.196735
0.476905 0.683482 0.17171
0.620768 0.688533 0.170474
0.736828 0.696666 0.172442
0.835981 0.708553 0.179309
0.912749 0.721157 0.192493
0.954498 0.737575 0.19884
0.978958 0.743679 0.20148
0.144289 0.734447 0.244663
0.275654 0.726589 0.173831
0.467918 0.736584 0.15819
0.61854 0.753002 0.169619
0.739971 0.768505 0.184054
0.838239 0.783902 0.2047
0.915633 0.80174 0.219196
0.96112 0.820401 0.229129
0.985901 0.826825 0.237079
0.166476 0.772 0.261357
0.298878 0.772473 0.182712
0.485664 0.789288 0.172259
0.633112 0.809628 0.194064
0.75172 0.828382 0.220188
0.846754 0.845167 0.249287
0.918212 0.86421 0.27097
0.974975 0.882338 0.273457
0.990112 0.892012 0.2654
0.00445563 0.098085 0.382193
0.181552 0.110796 0.416388
0.452201 0.111147 0.304616
0.560555 0.137484 0.273625
0.65127 0.162448 0.282475
0.725093 0.174441 0.294347
0.772763 0.163668 0.28336
0.787747 0.119799 0.247639
0.808209 0.0946365 0.223285
0.0377966 0.271763 0.379629
0.180667 0.270848 0.381125
0.418296 0.24683 0.325978
0.555413 0.255543 0.280629
0.660105 0.2692 0.263584
0.745449 0.276951 0.253635
0.812482 0.276783 0.238376
0.846647 0.259312 0.212467
0.845533 0.21471 0.162493
0.0719615 0.399268 0.389441
0.19263 0.387945 0.370748
0.390738 0.392035 0.364675
0.569238 0.371344 0.308873
0.684581 0.371328 0.291341
0.778546 0.374075 0.280552
0.858061 0.373007 0.268894
0.905821 0.365713 0.249714
0.924285 0.3449 0.218997
0.0959487 0.497658 0.407233
0.208347 0.492821 0.370733
0.386618 0.495781 0.327733
0.572992 0.481178 0.303181
0.687633 0.476341 0.294423
0.78587 0.477882 0.2822
0.871122 0.477089 0.271031
0.924178 0.474571 0.256413
0.949142 0.462852 0.232975
0.116747 0.576852 0.406653
0.223484 0.577798 0.360983
0.389944 0.585534 0.317678
0.566262 0.570993 0.285237
0.699443 0.56701 0.276555
0.795514 0.565011 0.277714
0.878645 0.567346 0.268254
0.931777 0.572091 0.25507
0.958267 0.568841 0.238193
0.125536 0.645335 0.400916
0.233967 0.648951 0.344259
0.398047 0.658946 0.306844
0.562158 0.649088 0.275669
0.695415 0.646586 0.262455
0.804868 0.645228 0.257832
0.88867 0.64593 0.253162
0.938262 0.660182 0.249165
0.967895 0.667155 0.242634
0.128023 0.702037 0.393393
0.232868 0.702052 0.317556
0.402152 0.717296 0.287221
0.564843 0.715724 0.267124
0.694652 0.715419 0.257557
0.807523 0.721965 0.250065
0.898314 0.730373 0.251057
0.947234 0.748318 0.262837
0.976776 0.756817 0.268025
0.127138 0.745632 0.392004
0.235477 0.755306 0.299413
0.400336 0.768277 0.265141
0.56791 0.780255 0.264164
0.699519 0.788632 0.269276
0.810666 0.799023 0.27805
0.90042 0.814115 0.281285
0.9505 0.834836 0.292363
0.978637 0.842344 0.301717
0.146624 0.781262 0.407019
0.25626 0.800076 0.306722
0.423163 0.818555 0.273594
0.585504 0.83682 0.286168
0.717189 0.85066 0.310811
0.819791 0.862577 0.328481
0.906096 0.877211 0.341024
0.966949 0.896406 0.342535
0.989273 0.90837 0.329656
0 0.113191 0.507454
0.1355 0.119203 0.522469
0.416083 0.107378 0.46247
0.550591 0.150423 0.382971
0.636439 0.177676 0.364462
0.711498 0.184176 0.373922
0.758572 0.176074 0.374746
0.778454 0.142596 0.357733
0.804181 0.124041 0.351507
0.00317388 0.280568 0.472084
0.15906 0.288609 0.493523
0.368246 0.266728 0.472755
0.53753 0.267857 0.400443
0.649516 0.277195 0.354314
0.735683 0.282765 0.330419
0.799756 0.282582 0.316762
0.838148 0.266789 0.295705
0.839277 0.228397 0.253147
0.069398 0.40499 0.471275
0.194705 0.403891 0.472724
0.335027 0.410132 0.482033
0.536675 0.38822 0.438254
0.667597 0.380652 0.399542
0.763241 0.383871 0.377966
0.839948 0.384833 0.358724
0.888014 0.378744 0.339818
0.911543 0.362844 0.313451
0.107515 0.497185 0.489967
0.203326 0.495247 0.480278
0.347311 0.509941 0.486305
0.518898 0.521462 0.489769
0.676982 0.488167 0.422904
0.780758 0.479713 0.39501
0.865461 0.47657 0.376486
0.919432 0.473899 0.358862
0.948959 0.466423 0.338628
0.119814 0.577691 0.505516
0.211643 0.582834 0.481834
0.349554 0.601846 0.465858
0.510948 0.606195 0.442023
0.675776 0.591806 0.4103
0.782315 0.576455 0.389563
0.870634 0.570886 0.369711
0.926635 0.573999 0.354879
0.957458 0.572503 0.339849
0.125887 0.648661 0.510216
0.216175 0.656489 0.468452
0.349432 0.677256 0.442786
0.50515 0.679911 0.407767
0.657084 0.667735 0.377569
0.781353 0.658457 0.358984
0.872572 0.65153 0.351354
0.928435 0.664729 0.346273
0.962585 0.673014 0.340215
0.127581 0.706996 0.510079
0.215473 0.715923 0.447517
0.349386 0.734401 0.41059
0.504082 0.742641 0.383337
0.649271 0.735485 0.359411
0.77467 0.731914 0.344656
0.878004 0.735714 0.340185
0.93167 0.753567 0.349386
0.966857 0.766522 0.354971
0.127001 0.751263 0.51458
0.216632 0.771511 0.436698
0.350729 0.783383 0.381811
0.513664 0.80087 0.368399
0.658778 0.805905 0.363806
0.77763 0.80827 0.365606
0.877348 0.818097 0.367086
0.934325 0.840986 0.373587
0.971145 0.853483 0.379767
0.14583 0.787549 0.531289
0.236576 0.815732 0.446677
0.379583 0.83241 0.391211
0.541802 0.850843 0.389151
0.688701 0.860868 0.407172
0.798413 0.869291 0.417578
0.889281 0.882795 0.42266
0.955566 0.904326 0.420233
0.988022 0.919478 0.40383
0 0.120455 0.60148
0.0891432 0.114916 0.602365
0.370947 0.0977798 0.564019
0.517113 0.133623 0.488029
0.614679 0.169467 0.452232
0.691737 0.177172 0.444099
0.736553 0.172473 0.452567
0.76788 0.16321 0.456962
0.792111 0.148119 0.455695
0.000183108 0.247486 0.534859
0.125429 0.278065 0.569955
0.312367 0.278065 0.561547
0.492256 0.27277 0.526925
0.628748 0.27657 0.458885
0.722606 0.280735 0.41796
0.790173 0.2795 0.393851
0.821027 0.262409 0.372595
0.828946 0.230808 0.33962
0.0523842 0.401404 0.536278
0.185351 0.410544 0.550668
0.315892 0.412512 0.576333
0.486107 0.393851 0.57406
0.645212 0.384024 0.51342
0.750072 0.386404 0.468467
0.827176 0.387182 0.435981
0.874006 0.375799 0.405234
0.897551 0.360311 0.378393
0.111574 0.490761 0.555978
0.211994 0.496284 0.562921
0.336309 0.510872 0.581628
0.463722 0.525017 0.58613
0.643168 0.501579 0.546258
0.768063 0.484382 0.505745
0.85594 0.480644 0.477348
0.906432 0.475944 0.449485
0.934966 0.469368 0.427588
0.126757 0.572717 0.581262
0.211063 0.575235 0.570871
0.337743 0.59971 0.592187
0.47187 0.617868 0.594644
0.638758 0.624384 0.588037
0.774411 0.585595 0.518578
0.864744 0.56994 0.479332
0.918059 0.568536 0.459693
0.949996 0.567636 0.440421
0.12932 0.644984 0.596445
0.20914 0.653803 0.573434
0.330877 0.681819 0.576852
0.463615 0.694728 0.557168
0.616495 0.694987 0.533318
0.766003 0.680903 0.49482
0.859403 0.658625 0.463645
0.915312 0.665125 0.456184
0.950317 0.670298 0.442832
0.129381 0.705257 0.604349
0.208347 0.719676 0.564721
0.323705 0.743572 0.545068
0.455848 0.757626 0.517662
0.602319 0.75877 0.485832
0.743542 0.749645 0.459983
0.858122 0.743587 0.4486
0.913115 0.754757 0.457145
0.95227 0.768215 0.450767
0.132326 0.755154 0.617136
0.212573 0.779858 0.561379
0.319417 0.789853 0.510246
0.463981 0.811292 0.492027
0.6159 0.819989 0.48188
0.741299 0.818998 0.465614
0.853422 0.821286 0.458427
0.916426 0.840467 0.466575
0.958862 0.85597 0.470237
0.151949 0.792599 0.637018
0.232166 0.823331 0.573602
0.344701 0.826001 0.511971
0.502586 0.852918 0.505653
0.651652 0.867018 0.509316
0.768383 0.875364 0.505516
0.866545 0.884962 0.501656
0.93875 0.904738 0.498177
0.98468 0.92311 0.487602
0 0.123674 0.651301
0.0594797 0.092134 0.624674
0.300389 0.0675975 0.598703
0.472999 0.106432 0.559304
0.589197 0.141695 0.527047
0.671275 0.164736 0.512596
0.722072 0.174121 0.521599
0.757473 0.173175 0.529976
0.782849 0.165866 0.531151
0.00148013 0.18706 0.542855
0.0482185 0.162463 0.571206
0.22681 0.197024 0.598184
0.413718 0.245609 0.597223
0.573526 0.258579 0.559564
0.684764 0.263874 0.509773
0.756649 0.260014 0.467292
0.791638 0.244892 0.446342
0.801129 0.217945 0.419104
0.0345312 0.364904 0.577096
0.148287 0.385183 0.602655
0.285206 0.403357 0.639445
0.42417 0.398795 0.656275
0.588281 0.385748 0.637003
0.721019 0.381247 0.575143
0.808591 0.380636 0.525383
0.860151 0.36788 0.486351
0.881773 0.349096 0.456626
0.0975204 0.482307 0.604303
0.199588 0.488823 0.623926
0.318547 0.510002 0.656535
0.438895 0.516426 0.675044
0.590448 0.50193 0.674022
0.740581 0.483436 0.62475
0.840024 0.477791 0.582498
0.898207 0.471626 0.546593
0.924102 0.461952 0.519905
0.129809 0.563149 0.635554
0.21677 0.565286 0.643351
0.336538 0.592355 0.672831
0.456809 0.606683 0.683726
0.580926 0.620813 0.67718
0.741527 0.592935 0.640543
0.851911 0.569818 0.598764
0.908644 0.570108 0.570703
0.940352 0.56643 0.544945
0.136034 0.638117 0.654627
0.214466 0.64271 0.655497
0.323079 0.670207 0.675715
0.449516 0.686168 0.686519
0.577173 0.70277 0.686992
0.732433 0.712657 0.682948
0.852766 0.669139 0.606912
0.90454 0.663584 0.574777
0.939361 0.662379 0.558297
0.132097 0.70309 0.664363
0.206897 0.715221 0.661479
0.310185 0.739193 0.66157
0.433036 0.758831 0.660761
0.55903 0.770367 0.645731
0.717006 0.774929 0.621042
0.853117 0.770657 0.588067
0.898299 0.757992 0.574426
0.938018 0.76379 0.567086
0.137789 0.757198 0.678645
0.209094 0.780926 0.664073
0.311772 0.798779 0.642847
0.437873 0.817227 0.634119
0.579522 0.827085 0.616464
0.714137 0.83035 0.591638
0.828336 0.833341 0.568399
0.900481 0.842466 0.570596
0.945129 0.852979 0.576959
0.161196 0.797498 0.703639
0.2327 0.826795 0.682033
0.338857 0.837156 0.646174
0.476829 0.852888 0.632807
0.613993 0.866484 0.617105
0.739101 0.882002 0.605142
0.841047 0.889036 0.591257
0.922667 0.901656 0.581567
0.970016 0.919478 0.577554
0 0.189609 0.753429
0.0656901 0.0888533 0.632425
0.225345 0.0625772 0.580438
0.375235 0.070222 0.543496
0.538247 0.085069 0.548074
0.652689 0.127703 0.543282
0.713237 0.156329 0.547845
0.75198 0.166888 0.553216
0.781338 0.168536 0.557946
0.00466926 0.18027 0.543954
0.0422827 0.143282 0.563729
0.108553 0.111147 0.573968
0.300572 0.146395 0.614038
0.471336 0.179583 0.609461
0.6009 0.203449 0.568429
0.693401 0.218723 0.52575
0.745449 0.223209 0.519326
0.7776 0.222049 0.515938
0.0265507 0.222614 0.531914
0.0540932 0.206882 0.567193
0.198154 0.306798 0.649195
0.357076 0.357015 0.681666
0.511772 0.366476 0.698009
0.655375 0.363638 0.669718
0.76022 0.359472 0.616327
0.819715 0.343908 0.568017
0.841642 0.322744 0.533806
0.0572061 0.450721 0.62153
0.153429 0.450874 0.646738
0.292302 0.485634 0.705562
0.41503 0.499397 0.741085
0.545739 0.496727 0.7561
0.686152 0.482658 0.739116
0.802701 0.470375 0.693217
0.881453 0.463172 0.64947
0.908873 0.453742 0.619089
0.109422 0.551125 0.659159
0.198932 0.546395 0.682124
0.323568 0.577646 0.73109
0.438178 0.59852 0.755261
0.549233 0.605371 0.76173
0.684886 0.585595 0.760647
0.819104 0.56437 0.72166
0.898054 0.565621 0.686687
0.932738 0.563653 0.653361
0.132631 0.628428 0.681468
0.217426 0.629709 0.705501
0.326925 0.65211 0.742473
0.441886 0.676036 0.762509
0.555901 0.685084 0.765805
0.677501 0.695384 0.762432
0.821622 0.674083 0.745129
0.889998 0.665095 0.704829
0.929259 0.665339 0.679927
0.136751 0.697978 0.695872
0.213947 0.70782 0.716487
0.305577 0.722255 0.738857
0.423972 0.746639 0.76231
0.552087 0.759823 0.772839
0.68835 0.77879 0.780728
0.835554 0.808042 0.787274
0.907485 0.77023 0.718715
0.923674 0.762615 0.691341
0.143526 0.757641 0.717433
0.21004 0.780758 0.724041
0.306233 0.794537 0.731823
0.426261 0.813169 0.75021
0.557794 0.828656 0.754131
0.680034 0.836316 0.744961
0.825116 0.85594 0.717281
0.915373 0.869062 0.697414
0.933013 0.854292 0.688823
0.17026 0.798947 0.74519
0.235798 0.828443 0.743648
0.342885 0.840238 0.737911
0.470222 0.854673 0.744839
0.592142 0.868925 0.737392
0.714641 0.88397 0.724498
0.819501 0.895308 0.708278
0.91191 0.904097 0.686122
0.957366 0.918761 0.674784
0 0.192523 0.781674
0.116426 0.131411 0.758343
0.298528 0.126055 0.647013
0.318868 0.0632639 0.509361
0.412436 0.0649882 0.493141
0.56144 0.0772564 0.512123
0.656641 0.0890669 0.538445
0.722316 0.123095 0.556008
0.765255 0.145892 0.566369
0.016968 0.263447 0.634516
0.0703288 0.188052 0.610773
0.078645 0.0960555 0.567269
0.173785 0.0835126 0.574594
0.338704 0.0927443 0.588968
0.510216 0.132174 0.599039
0.643549 0.16817 0.575647
0.710521 0.193988 0.567636
0.751476 0.209781 0.56408
0.027985 0.216068 0.532189
0.0504158 0.185672 0.550362
0.0700084 0.157946 0.57171
0.190082 0.173907 0.620905
0.365286 0.216068 0.662196
0.519387 0.254246 0.666423
0.646799 0.280613 0.633951
0.723491 0.271321 0.59501
0.762661 0.2692 0.582193
0.0404212 0.324285 0.591058
0.0751354 0.344503 0.630045
0.20209 0.400153 0.692515
0.362432 0.454459 0.745754
0.49424 0.463264 0.775036
0.626032 0.464897 0.788281
0.741558 0.455909 0.773983
0.839994 0.446159 0.734386
0.881392 0.439216 0.709026
0.0677806 0.522927 0.657908
0.157641 0.517372 0.687388
0.278767 0.541863 0.739483
0.412802 0.578515 0.78294
0.528115 0.589227 0.802457
0.648997 0.581292 0.811704
0.770977 0.565896 0.810987
0.875227 0.55642 0.790845
0.916716 0.558511 0.763668
0.109377 0.610391 0.688869
0.196704 0.612207 0.721553
0.299245 0.631312 0.756893
0.42739 0.665614 0.790921
0.538842 0.683055 0.802808
0.648417 0.681193 0.809506
0.776791 0.663935 0.813748
0.874403 0.657389 0.813581
0.924346 0.664317 0.79852
0.131975 0.686473 0.710094
0.213535 0.696361 0.740948
0.303563 0.7093 0.766506
0.428611 0.740459 0.794659
0.5523 0.75584 0.808637
0.663447 0.762142 0.81178
0.7832 0.776959 0.840635
0.889418 0.771099 0.855879
0.917494 0.767865 0.827695
0.149615 0.751369 0.739727
0.219684 0.772946 0.757168
0.31281 0.779522 0.769802
0.439765 0.802686 0.799069
0.569177 0.815747 0.812985
0.687831 0.829358 0.821683
0.805386 0.857328 0.853574
0.915496 0.894591 0.884565
0.942153 0.863066 0.838422
0.181094 0.796155 0.771664
0.246815 0.823499 0.783825
0.351461 0.833585 0.784955
0.477455 0.849454 0.807446
0.588144 0.864622 0.820386
0.698329 0.88687 0.838788
0.795346 0.898268 0.837003
0.91249 0.924956 0.821958
0.961868 0.93579 0.808362
0 0.203159 0.813947
0.119081 0.137835 0.794278
0.299336 0.132326 0.671794
0.425711 0.126436 0.590555
0.397345 0.0624247 0.471015
0.441855 0.0620432 0.465843
0.573739 0.074403 0.511696
0.658167 0.0849165 0.53727
0.729946 0.104829 0.563302
0.0256352 0.262684 0.657069
0.0853895 0.204196 0.66891
0.122087 0.172213 0.670497
0.166735 0.0886549 0.57818
0.25745 0.0827649 0.558679
0.386954 0.08748 0.546929
0.541955 0.0995651 0.53666
0.636896 0.115221 0.548348
0.721508 0.16939 0.572763
0.0284733 0.213092 0.528847
0.0491188 0.180377 0.559243
0.0680095 0.149783 0.581659
0.113527 0.126406 0.587182
0.227634 0.119615 0.596872
0.385 0.141711 0.621912
0.549203 0.179446 0.626963
0.672557 0.214481 0.611963
0.735393 0.246052 0.611734
0.0335699 0.25362 0.554452
0.0569314 0.227008 0.575204
0.0785534 0.20499 0.597833
0.177462 0.249653 0.650217
0.357183 0.326253 0.706569
0.526879 0.383429 0.743648
0.666072 0.400427 0.762615
0.784924 0.407843 0.752926
0.846494 0.41622 0.743313
0.0585489 0.474907 0.651438
0.101732 0.466712 0.683268
0.197009 0.476616 0.713375
0.35935 0.53933 0.778866
0.48687 0.56022 0.815869
0.61503 0.562173 0.832532
0.739727 0.559258 0.844724
0.851316 0.551339 0.840787
0.905608 0.559045 0.834867
0.0750286 0.589288 0.683726
0.163607 0.587304 0.72076
0.253071 0.59733 0.747753
0.395911 0.651713 0.803479
0.520638 0.675044 0.834745
0.637995 0.675624 0.845899
0.756741 0.665141 0.854246
0.863722 0.655726 0.860014
0.919814 0.667323 0.871687
0.112169 0.672877 0.71104
0.197284 0.680766 0.74934
0.285313 0.692134 0.773953
0.418173 0.732143 0.813687
0.5505 0.753445 0.838727
0.661219 0.760494 0.842496
0.760723 0.759152 0.844907
0.855726 0.756222 0.860365
0.913375 0.767742 0.876783
0.141772 0.742702 0.745418
0.221118 0.760449 0.772259
0.320775 0.765332 0.789807
0.456565 0.789822 0.821546
0.588327 0.808072 0.839582
0.69926 0.822721 0.846052
0.781353 0.835294 0.851102
0.877577 0.860319 0.898116
0.937835 0.865156 0.919524
0.181628 0.791455 0.781613
0.256031 0.81442 0.805615
0.37113 0.820157 0.813413
0.506523 0.835386 0.833295
0.614969 0.852705 0.858656
0.717906 0.876783 0.881514
0.808225 0.892943 0.890669
0.89958 0.923461 0.922881
0.971069 0.955108 0.94815
