_SYSTEM/luts/Provia to Bleach Bypass DisplayP3.cube
# DisplayP3
# github.com/abpy/FujifilmCameraProfiles
LUT_3D_SIZE 5
DOMAIN_MIN 0.000000 0.000000 0.000000
DOMAIN_MAX 0.903226 0.903226 0.903226
0.01693 0.01763 0.01587
0.11233 0.02021 0.00845
0.24508 0.04021 0.00753
0.38702 0.05987 0.02286
0.51733 0.10105 0.06074
0.08987 0.15965 0.06128
0.16528 0.16988 0.05988
0.29533 0.18138 0.05818
0.43448 0.19078 0.07376
0.56351 0.22005 0.11310
0.19593 0.35197 0.13745
0.25746 0.36009 0.14952
0.38115 0.37944 0.17042
0.53091 0.40936 0.19760
0.67729 0.45545 0.24169
0.37917 0.60422 0.29991
0.43198 0.61729 0.31553
0.54372 0.64743 0.34419
0.68353 0.68816 0.36827
0.81220 0.72483 0.37334
0.59107 0.84703 0.47945
0.62589 0.85566 0.48728
0.70523 0.87437 0.49882
0.80560 0.89651 0.49813
0.89589 0.91639 0.44737
0.02382 0.01613 0.09749
0.11704 0.01950 0.11071
0.25108 0.03408 0.12713
0.40437 0.05444 0.13287
0.52261 0.06292 0.14126
0.10519 0.17353 0.16923
0.18048 0.18204 0.17995
0.31233 0.19569 0.20112
0.45878 0.20157 0.20395
0.57346 0.20353 0.20035
0.22912 0.37962 0.28271
0.29136 0.38931 0.29578
0.41580 0.41221 0.32159
0.57147 0.44691 0.34954
0.71493 0.48762 0.35710
0.42210 0.63967 0.45248
0.47383 0.65284 0.46551
0.58182 0.68228 0.49019
0.71887 0.72013 0.50758
0.84208 0.75160 0.48748
0.62776 0.86414 0.62740
0.65707 0.87057 0.62964
0.72790 0.88546 0.63144
0.82313 0.90382 0.63171
0.90877 0.91914 0.57944
0.04348 0.02928 0.21694
0.13066 0.03477 0.22192
0.26179 0.05613 0.23103
0.40697 0.06494 0.23261
0.52988 0.07651 0.21633
0.12582 0.19194 0.28845
0.19693 0.20057 0.29482
0.32656 0.21840 0.30879
0.47062 0.22637 0.31562
0.59194 0.22932 0.29121
0.25127 0.40319 0.39278
0.31547 0.41610 0.40842
0.44490 0.44644 0.44412
0.60356 0.48729 0.48494
0.74862 0.52579 0.48572
0.43766 0.66325 0.55839
0.49209 0.67741 0.57577
0.60675 0.70802 0.61103
0.74236 0.74310 0.64069
0.86780 0.77276 0.62218
0.63292 0.87543 0.73257
0.66982 0.88327 0.74422
0.74762 0.89889 0.76506
0.83775 0.91380 0.77753
0.92247 0.92579 0.75129
0.06604 0.05019 0.37141
0.14775 0.06120 0.37655
0.27818 0.07909 0.38287
0.42422 0.08461 0.38139
0.53967 0.06009 0.34663
0.14719 0.21486 0.42357
0.21547 0.22371 0.43267
0.34968 0.24500 0.45226
0.49932 0.26214 0.46695
0.62097 0.26486 0.44653
0.27718 0.43383 0.51530
0.34241 0.44840 0.53391
0.47898 0.48297 0.57781
0.63540 0.52757 0.63056
0.78015 0.57327 0.65635
0.45178 0.68285 0.65389
0.50642 0.69672 0.67296
0.62361 0.72657 0.71420
0.75718 0.75952 0.75622
0.88424 0.78648 0.76652
0.63739 0.88273 0.79307
0.67471 0.89040 0.80529
0.75447 0.90555 0.82981
0.84542 0.92075 0.85205
0.93264 0.93394 0.85100
0.08011 0.06663 0.55140
0.15762 0.06997 0.55863
0.29233 0.09143 0.55439
0.44362 0.09294 0.56625
0.56515 0.06547 0.55630
0.17722 0.24926 0.55011
0.23984 0.26013 0.56118
0.37867 0.28831 0.59222
0.53403 0.30767 0.62416
0.65856 0.30715 0.63459
0.30255 0.46652 0.61905
0.36340 0.48081 0.63922
0.50236 0.51784 0.68945
0.66285 0.56474 0.75044
0.80948 0.60899 0.80049
0.45737 0.69836 0.73051
0.51196 0.71212 0.75169
0.63072 0.74193 0.79903
0.76473 0.77193 0.84963
0.88956 0.79667 0.88686
0.63222 0.88624 0.84410
0.66997 0.89391 0.85732
0.75205 0.90936 0.88505
0.84847 0.92570 0.91517
0.93919 0.94056 0.93842
