_SYSTEM/luts/Provia to Bleach Bypass DisplayP3.cube
# DisplayP3
# github.com/abpy/FujifilmCameraProfiles
LUT_3D_SIZE 8
DOMAIN_MIN 0.000000 0.000000 0.000000
DOMAIN_MAX 0.903226 0.903226 0.903226
0.01693 0.01763 0.01587
0.06928 0.01489 0.01170
0.12804 0.02291 0.00765
0.20294 0.03408 0.00661
0.28725 0.04595 0.00985
0.36776 0.05685 0.01942
0.44332 0.07199 0.03599
0.51733 0.10105 0.06074
0.05154 0.10164 0.03845
0.10291 0.10812 0.03982
0.15817 0.11246 0.03538
0.23077 0.11398 0.03191
0.31106 0.11551 0.03207
0.38859 0.11941 0.03962
0.46253 0.12913 0.05567
0.53532 0.15177 0.08030
0.10203 0.18148 0.06916
0.13622 0.18550 0.07018
0.18921 0.19276 0.06858
0.26257 0.20067 0.06786
0.34515 0.20708 0.07125
0.42559 0.21439 0.08270
0.50203 0.22623 0.10198
0.57573 0.24754 0.12779
0.15930 0.28938 0.10872
0.18681 0.29230 0.11223
0.23789 0.29848 0.11843
0.30870 0.30752 0.12561
0.39067 0.31804 0.13296
0.47554 0.33233 0.14840
0.55946 0.35256 0.17296
0.63850 0.37870 0.20107
0.23958 0.41814 0.17468
0.26376 0.42198 0.18078
0.31338 0.43059 0.19321
0.38162 0.44375 0.20934
0.46166 0.46086 0.22517
0.54903 0.48222 0.24199
0.63784 0.50832 0.26293
0.71851 0.53594 0.28376
0.34852 0.56536 0.27270
0.37028 0.57037 0.27931
0.41669 0.58151 0.29272
0.48099 0.59809 0.31006
0.55720 0.61930 0.32806
0.64072 0.64391 0.34339
0.72299 0.66849 0.35337
0.79556 0.69003 0.35871
0.47182 0.71728 0.38005
0.48981 0.72207 0.38508
0.52907 0.73266 0.39497
0.58468 0.74776 0.40684
0.65137 0.76584 0.41819
0.72355 0.78508 0.42495
0.79308 0.80302 0.42167
0.85415 0.81793 0.40855
0.59107 0.84703 0.47945
0.60465 0.85043 0.48273
0.63495 0.85787 0.48901
0.67919 0.86840 0.49587
0.73312 0.88063 0.50102
0.79125 0.89340 0.50021
0.84668 0.90536 0.48488
0.89589 0.91639 0.44737
0.01550 0.01387 0.05946
0.07268 0.01438 0.07033
0.12690 0.01506 0.07198
0.20386 0.02026 0.07498
0.29738 0.03429 0.08164
0.38211 0.04681 0.09056
0.45501 0.05235 0.10134
0.52214 0.07280 0.12396
0.06089 0.10614 0.10253
0.11033 0.11097 0.11018
0.16360 0.11013 0.11265
0.23794 0.10996 0.11277
0.32445 0.11382 0.11331
0.40468 0.11703 0.11722
0.47557 0.11911 0.12540
0.54114 0.13312 0.14564
0.11331 0.18963 0.14503
0.14777 0.19373 0.14947
0.20130 0.20044 0.15458
0.27509 0.20728 0.15934
0.36034 0.21313 0.16304
0.44242 0.21839 0.16721
0.51750 0.22619 0.17670
0.58464 0.24091 0.19426
0.17691 0.30285 0.19272
0.20409 0.30584 0.19639
0.25465 0.31202 0.20366
0.32478 0.32110 0.21263
0.40721 0.33151 0.21975
0.49297 0.34454 0.22993
0.57736 0.36274 0.24507
0.65339 0.38592 0.26083
0.26188 0.43415 0.25781
0.28545 0.43809 0.26301
0.33382 0.44687 0.27396
0.40083 0.46034 0.28949
0.48040 0.47801 0.30438
0.56886 0.50006 0.31819
0.65952 0.52667 0.33440
0.73771 0.55253 0.34291
0.37232 0.58290 0.35040
0.39357 0.58789 0.35608
0.43853 0.59884 0.36736
0.50105 0.61524 0.38281
0.57613 0.63632 0.39940
0.65947 0.66082 0.41226
0.74144 0.68455 0.41680
0.81127 0.70407 0.41295
0.49262 0.73163 0.45053
0.50981 0.73619 0.45457
0.54706 0.74609 0.46207
0.60011 0.76017 0.47097
0.66518 0.77726 0.48012
0.73663 0.79557 0.48490
0.80538 0.81254 0.47822
0.86410 0.82606 0.45861
0.60798 0.85446 0.54250
0.62039 0.85747 0.54478
0.64825 0.86409 0.54882
0.69000 0.87366 0.55300
0.74228 0.88495 0.55647
0.79957 0.89696 0.55571
0.85406 0.90792 0.54065
0.90176 0.91817 0.49950
0.02571 0.01697 0.11065
0.07531 0.01990 0.11751
0.13321 0.02151 0.12433
0.20653 0.02862 0.13428
0.29818 0.04702 0.14653
0.38500 0.05748 0.14932
0.46017 0.06026 0.14334
0.52524 0.07191 0.14775
0.07044 0.11469 0.15023
0.11373 0.11649 0.15594
0.16768 0.11584 0.16161
0.23900 0.11815 0.17035
0.32596 0.12548 0.17989
0.40911 0.12757 0.17883
0.48284 0.12829 0.16983
0.54460 0.13128 0.16885
0.12102 0.19923 0.19501
0.15366 0.20268 0.19910
0.20628 0.20808 0.20541
0.28165 0.22001 0.22135
0.36834 0.22935 0.23492
0.45337 0.23477 0.23948
0.53068 0.24020 0.23567
0.59113 0.24049 0.22505
0.18876 0.31553 0.25821
0.21627 0.31914 0.26337
0.26917 0.32679 0.27385
0.34089 0.33877 0.28862
0.42558 0.35371 0.30519
0.51530 0.37019 0.32075
0.60173 0.38792 0.32891
0.67320 0.40355 0.32254
0.28198 0.45425 0.34378
0.30642 0.45896 0.34984
0.35708 0.46938 0.36245
0.42614 0.48489 0.37960
0.50760 0.50490 0.39809
0.59807 0.52926 0.41596
0.68860 0.55566 0.42768
0.76512 0.57984 0.42351
0.39610 0.60661 0.44642
0.41778 0.61195 0.45241
0.46409 0.62377 0.46472
0.52753 0.64086 0.48093
0.60224 0.66179 0.49811
0.68464 0.68489 0.51008
0.76576 0.70701 0.51037
0.83378 0.72486 0.49484
0.51274 0.74956 0.55084
0.53032 0.75408 0.55498
0.56832 0.76389 0.56285
0.62100 0.77742 0.57178
0.68407 0.79336 0.58074
0.75388 0.81025 0.58521
0.82164 0.82559 0.57709
0.87871 0.83743 0.54944
0.63331 0.86738 0.65505
0.64489 0.86987 0.65623
0.67054 0.87530 0.65786
0.70921 0.88330 0.65884
0.75826 0.89296 0.66020
0.81272 0.90310 0.66160
0.86534 0.91181 0.65181
0.91123 0.91941 0.61139
0.03622 0.02479 0.17589
0.08190 0.02755 0.17974
0.14162 0.02981 0.18332
0.21385 0.04001 0.19006
0.30201 0.05742 0.20024
0.38543 0.06232 0.20309
0.46191 0.06552 0.19923
0.53266 0.09133 0.19260
0.08533 0.12405 0.21806
0.12134 0.12444 0.22015
0.17569 0.12370 0.22140
0.24612 0.12783 0.22601
0.33026 0.13508 0.23351
0.41089 0.13468 0.23456
0.48660 0.13597 0.22944
0.55456 0.15096 0.21675
0.13261 0.20957 0.26191
0.16334 0.21314 0.26512
0.21878 0.22170 0.27148
0.29130 0.23303 0.28200
0.37547 0.24365 0.29439
0.46007 0.24981 0.30191
0.54006 0.25576 0.30025
0.60494 0.26094 0.27924
0.20035 0.32698 0.32073
0.22738 0.33112 0.32552
0.28138 0.34067 0.33641
0.35361 0.35494 0.35280
0.43907 0.37298 0.37327
0.53021 0.39184 0.39221
0.61859 0.41023 0.40076
0.69065 0.42396 0.38800
0.29459 0.46863 0.40434
0.31938 0.47396 0.41105
0.37187 0.48605 0.42597
0.44334 0.50381 0.44667
0.52625 0.52564 0.46954
0.61720 0.55091 0.49192
0.70747 0.57669 0.50452
0.78460 0.59995 0.49530
0.40558 0.62096 0.50644
0.42781 0.62664 0.51336
0.47613 0.63936 0.52844
0.54238 0.65735 0.54842
0.61822 0.67820 0.56896
0.70001 0.70037 0.58530
0.78084 0.72162 0.58913
0.84983 0.73890 0.56921
0.51732 0.75925 0.60830
0.53577 0.76387 0.61413
0.57633 0.77413 0.62655
0.63224 0.78832 0.64211
0.69623 0.80402 0.65698
0.76482 0.81967 0.66679
0.83189 0.83377 0.66310
0.89034 0.84517 0.63599
0.63647 0.87439 0.71881
0.65013 0.87726 0.72252
0.68011 0.88351 0.73013
0.72180 0.89189 0.73903
0.77020 0.90090 0.74675
0.82226 0.90961 0.75170
0.87339 0.91700 0.74613
0.91925 0.92288 0.71818
0.04941 0.03359 0.26049
0.09071 0.03672 0.26290
0.15158 0.04325 0.26525
0.22441 0.05584 0.26911
0.30950 0.06813 0.27325
0.39121 0.07009 0.27056
0.46583 0.06674 0.26136
0.52913 0.06480 0.24399
0.09720 0.13225 0.29789
0.12958 0.13330 0.29926
0.18494 0.13493 0.30043
0.25633 0.14019 0.30341
0.33872 0.14556 0.30628
0.41881 0.14558 0.30330
0.49335 0.14391 0.29441
0.55532 0.14134 0.27447
0.14484 0.22192 0.33730
0.17414 0.22574 0.34075
0.23106 0.23560 0.34845
0.30536 0.24865 0.35922
0.38856 0.26001 0.36959
0.47270 0.26831 0.37592
0.55247 0.27423 0.37412
0.61642 0.27441 0.35315
0.21403 0.34170 0.39161
0.24110 0.34664 0.39715
0.29700 0.35813 0.40990
0.37160 0.37477 0.42864
0.45604 0.39387 0.45003
0.54624 0.41472 0.47119
0.63474 0.43484 0.48400
0.70899 0.44972 0.47357
0.30814 0.48456 0.46940
0.33296 0.49017 0.47639
0.38632 0.50290 0.49226
0.45888 0.52120 0.51479
0.54152 0.54332 0.54065
0.63128 0.56879 0.56694
0.72159 0.59509 0.58519
0.80087 0.61821 0.57881
0.41518 0.63334 0.56265
0.43740 0.63897 0.56974
0.48623 0.65166 0.58560
0.55347 0.66947 0.60730
0.62910 0.68946 0.63017
0.70980 0.71080 0.65073
0.79077 0.73170 0.66120
0.86240 0.74858 0.64660
0.51944 0.76601 0.65258
0.53823 0.77064 0.65869
0.58027 0.78111 0.67242
0.63891 0.79565 0.69101
0.70415 0.81115 0.70942
0.77196 0.82602 0.72367
0.83920 0.83989 0.72679
0.89955 0.85150 0.70732
0.63272 0.87684 0.74732
0.64745 0.87999 0.75216
0.68026 0.88696 0.76278
0.72545 0.89619 0.77635
0.77499 0.90533 0.78853
0.82668 0.91370 0.79723
0.87846 0.92177 0.79729
0.92556 0.92857 0.77961
0.06290 0.04651 0.34913
0.10054 0.05110 0.35144
0.16168 0.05973 0.35498
0.23474 0.07076 0.35847
0.31811 0.07937 0.36102
0.40115 0.08171 0.35876
0.47729 0.07752 0.34873
0.53637 0.05857 0.32200
0.10835 0.14083 0.37859
0.13850 0.14291 0.38060
0.19409 0.14642 0.38377
0.26614 0.15214 0.38815
0.34872 0.15764 0.39195
0.43127 0.16050 0.39157
0.50780 0.15981 0.38358
0.56707 0.15024 0.35778
0.15749 0.23596 0.41370
0.18554 0.23979 0.41775
0.24273 0.24972 0.42715
0.31922 0.26429 0.44051
0.40448 0.27831 0.45393
0.49081 0.29018 0.46420
0.57209 0.29905 0.46654
0.63628 0.30081 0.44797
0.22886 0.35875 0.46463
0.25555 0.36400 0.47085
0.31259 0.37651 0.48548
0.39012 0.39511 0.50717
0.47698 0.41673 0.53216
0.56716 0.43977 0.55739
0.65525 0.46357 0.57795
0.72999 0.48183 0.57467
0.32184 0.50178 0.53638
0.34665 0.50748 0.54383
0.40114 0.52067 0.56114
0.47626 0.54000 0.58644
0.56002 0.56264 0.61538
0.64770 0.58796 0.64549
0.73555 0.61505 0.67118
0.81540 0.63993 0.67522
0.42446 0.64578 0.61988
0.44658 0.65133 0.62731
0.49577 0.66397 0.64425
0.56414 0.68177 0.66811
0.64022 0.70133 0.69384
0.71867 0.72090 0.71763
0.79908 0.74175 0.73648
0.87213 0.75801 0.73356
0.52460 0.77476 0.70191
0.54333 0.77928 0.70827
0.58554 0.78953 0.72267
0.64499 0.80367 0.74252
0.71116 0.81847 0.76293
0.77865 0.83262 0.78048
0.84580 0.84607 0.79052
0.90752 0.85678 0.78221
0.63743 0.88190 0.78438
0.65197 0.88490 0.78911
0.68448 0.89150 0.79954
0.72963 0.90023 0.81338
0.77951 0.90903 0.82710
0.83117 0.91753 0.83870
0.88343 0.92617 0.84491
0.93136 0.93301 0.83648
0.07608 0.06402 0.43823
0.11099 0.06825 0.44015
0.17115 0.07655 0.44369
0.24478 0.08538 0.44818
0.32885 0.09236 0.45316
0.41370 0.09351 0.45520
0.49126 0.08785 0.44978
0.55116 0.06803 0.42728
0.12121 0.15239 0.45732
0.14920 0.15492 0.45935
0.20387 0.15977 0.46363
0.27707 0.16657 0.47057
0.36146 0.17351 0.47903
0.44640 0.17690 0.48451
0.52442 0.17644 0.48284
0.58480 0.16726 0.46373
0.17280 0.25344 0.48808
0.19931 0.25716 0.49220
0.25581 0.26722 0.50188
0.33377 0.28296 0.51652
0.42172 0.29935 0.53363
0.51038 0.31319 0.54960
0.59306 0.32428 0.56031
0.65856 0.32784 0.55269
0.24471 0.37780 0.53349
0.27041 0.38289 0.53971
0.32699 0.39538 0.55455
0.40633 0.41500 0.57728
0.49590 0.43862 0.60477
0.58776 0.46381 0.63436
0.67606 0.48940 0.66196
0.75057 0.50916 0.67059
0.33414 0.51766 0.59626
0.35849 0.52318 0.60377
0.41310 0.53627 0.62160
0.48988 0.55606 0.64848
0.57568 0.57969 0.68029
0.66354 0.60549 0.71402
0.74968 0.63278 0.74597
0.82664 0.65696 0.76198
0.43152 0.65673 0.66997
0.45345 0.66217 0.67767
0.50294 0.67476 0.69563
0.57266 0.69285 0.72176
0.65001 0.71267 0.75081
0.72900 0.73236 0.77926
0.80670 0.75155 0.80377
0.87711 0.76678 0.81320
0.52724 0.78194 0.74452
0.54619 0.78644 0.75128
0.58911 0.79664 0.76672
0.64957 0.81075 0.78839
0.71630 0.82554 0.81146
0.78418 0.83968 0.83312
0.85046 0.85185 0.84964
0.91180 0.86159 0.85414
0.63665 0.88483 0.81709
0.65144 0.88789 0.82216
0.68456 0.89462 0.83342
0.73034 0.90339 0.84846
0.78086 0.91222 0.86401
0.83436 0.92122 0.87928
0.88752 0.92982 0.89099
0.93564 0.93629 0.89234
0.08011 0.06663 0.55140
0.11443 0.06784 0.55525
0.17438 0.07184 0.55847
0.25020 0.08554 0.55360
0.33613 0.09451 0.55790
0.42290 0.09411 0.56516
0.50223 0.08798 0.56657
0.56515 0.06547 0.55630
0.13598 0.16305 0.54720
0.16180 0.16534 0.54977
0.21473 0.17123 0.55442
0.28851 0.18198 0.56093
0.37465 0.18987 0.57364
0.46082 0.19231 0.58489
0.53967 0.19102 0.59078
0.60172 0.17903 0.58474
0.19154 0.27731 0.55584
0.21608 0.28160 0.56040
0.27107 0.29344 0.57270
0.35076 0.31248 0.59262
0.44162 0.33132 0.61460
0.53191 0.34573 0.63570
0.61563 0.35557 0.65352
0.68174 0.35515 0.65716
0.26335 0.40035 0.59368
0.28704 0.40559 0.60032
0.34122 0.41894 0.61718
0.42057 0.44049 0.64374
0.51192 0.46594 0.67431
0.60559 0.49220 0.70642
0.69647 0.51810 0.73841
0.77329 0.53745 0.75712
0.34353 0.53317 0.64841
0.36687 0.53857 0.65634
0.42043 0.55171 0.67558
0.49752 0.57186 0.70465
0.58376 0.59547 0.73828
0.67239 0.62045 0.77385
0.76015 0.64576 0.80862
0.83771 0.66785 0.83346
0.43428 0.66610 0.71322
0.45599 0.67150 0.72142
0.50548 0.68417 0.74085
0.57537 0.70225 0.76906
0.65245 0.72139 0.79976
0.73194 0.73990 0.83023
0.81070 0.75743 0.85887
0.88056 0.77186 0.87790
0.52680 0.78760 0.78075
0.54555 0.79203 0.78783
0.58810 0.80209 0.80409
0.64798 0.81590 0.82689
0.71436 0.83012 0.85129
0.78328 0.84346 0.87510
0.85174 0.85556 0.89647
0.91268 0.86536 0.91037
0.63222 0.88624 0.84410
0.64683 0.88924 0.84923
0.67981 0.89586 0.86075
0.72623 0.90472 0.87657
0.77887 0.91400 0.89362
0.83445 0.92336 0.91091
0.88948 0.93255 0.92711
0.93919 0.94056 0.93842
