_SYSTEM/luts/Provia to Classic Neg DisplayP3.cube
# DisplayP3
# github.com/abpy/FujifilmCameraProfiles
LUT_3D_SIZE 8
DOMAIN_MIN 0.000000 0.000000 0.000000
DOMAIN_MAX 0.903226 0.903226 0.903226
0.00962 0.01134 0.00946
0.08394 0.00895 0.00000
0.17579 0.01385 0.00000
0.28831 0.02448 0.00000
0.42392 0.05099 0.00000
0.55784 0.07886 0.00000
0.66972 0.09900 0.00000
0.75389 0.11731 0.00000
0.00372 0.09898 0.02651
0.08192 0.10478 0.01837
0.17470 0.10819 0.01246
0.28896 0.11613 0.00619
0.42882 0.13123 0.00060
0.56585 0.14562 0.00000
0.67767 0.15480 0.00000
0.76013 0.16304 0.00000
0.00000 0.19116 0.04102
0.07691 0.19524 0.03098
0.17250 0.20187 0.02154
0.28838 0.21243 0.01658
0.43499 0.22812 0.01551
0.58067 0.24010 0.01076
0.69462 0.24408 0.00089
0.77437 0.24305 0.00000
0.00000 0.29964 0.07188
0.07102 0.30197 0.06300
0.17333 0.30695 0.04958
0.29371 0.31631 0.03821
0.44453 0.33179 0.03315
0.59868 0.34708 0.03439
0.71770 0.35236 0.03070
0.79594 0.34512 0.01907
0.00000 0.42894 0.13017
0.05448 0.43141 0.12561
0.17620 0.43705 0.11613
0.30624 0.44706 0.10423
0.46137 0.46256 0.09203
0.61897 0.47820 0.08286
0.74095 0.48409 0.07656
0.81927 0.47287 0.06513
0.00000 0.56871 0.20680
0.02116 0.57165 0.20388
0.17860 0.57874 0.19594
0.32123 0.59113 0.18272
0.48245 0.60895 0.16598
0.64166 0.62631 0.14852
0.76292 0.63293 0.13162
0.84116 0.62201 0.11411
0.00000 0.69280 0.26544
0.00000 0.69604 0.26294
0.16546 0.70419 0.25560
0.32420 0.71840 0.24180
0.49193 0.73825 0.22284
0.65358 0.75834 0.20195
0.77654 0.76998 0.18043
0.85604 0.76798 0.15747
0.00000 0.79342 0.30821
0.00000 0.79635 0.30605
0.09801 0.80399 0.29963
0.29128 0.81799 0.28663
0.46836 0.83876 0.26639
0.63941 0.86242 0.24133
0.77383 0.88113 0.21248
0.85992 0.89081 0.17442
0.01630 0.01150 0.06901
0.09874 0.01120 0.04668
0.19141 0.01148 0.03279
0.31307 0.01607 0.02886
0.46382 0.04453 0.03916
0.60640 0.08150 0.04925
0.71664 0.10418 0.05231
0.79100 0.12100 0.05373
0.01670 0.10941 0.12501
0.10400 0.11406 0.10806
0.19644 0.11235 0.08573
0.31680 0.11772 0.06980
0.46849 0.13609 0.06836
0.61375 0.15394 0.07017
0.72322 0.16247 0.06735
0.79526 0.16570 0.06489
0.02252 0.20591 0.17069
0.10380 0.20986 0.15913
0.19795 0.21504 0.14042
0.31554 0.22345 0.12183
0.46917 0.23962 0.11147
0.62344 0.25334 0.10705
0.73554 0.25485 0.09976
0.80495 0.24466 0.09186
0.02288 0.31833 0.20945
0.10219 0.32057 0.19972
0.19904 0.32525 0.18338
0.31887 0.33366 0.16527
0.47307 0.34825 0.14924
0.63303 0.36329 0.14237
0.75146 0.36655 0.13894
0.82144 0.35103 0.13085
0.00000 0.44843 0.25468
0.09026 0.45098 0.24899
0.19947 0.45674 0.23725
0.32865 0.46687 0.22271
0.48739 0.48258 0.20560
0.64994 0.49848 0.19115
0.77108 0.50343 0.18273
0.84266 0.48729 0.17327
0.00000 0.58599 0.31396
0.06003 0.58902 0.31019
0.19638 0.59627 0.30050
0.33900 0.60913 0.28600
0.50571 0.62801 0.26844
0.67062 0.64666 0.25096
0.79042 0.65327 0.23510
0.86265 0.64085 0.22151
0.00000 0.70348 0.35801
0.00000 0.70676 0.35487
0.17440 0.71496 0.34614
0.33560 0.72949 0.33110
0.51075 0.75050 0.31232
0.67964 0.77223 0.29383
0.80230 0.78488 0.27747
0.87598 0.78325 0.26161
0.00000 0.79684 0.38599
0.00000 0.79976 0.38352
0.07764 0.80742 0.37656
0.28916 0.82172 0.36313
0.47748 0.84370 0.34323
0.65970 0.86923 0.32162
0.79835 0.88892 0.30036
0.88005 0.89880 0.27409
0.04018 0.02013 0.14850
0.11276 0.01959 0.12876
0.20514 0.01914 0.10523
0.32584 0.02637 0.08626
0.47820 0.05618 0.07824
0.62494 0.08732 0.08059
0.73253 0.11462 0.08980
0.80148 0.14022 0.10279
0.03056 0.12439 0.20326
0.11471 0.12506 0.18662
0.21026 0.12441 0.16172
0.33173 0.13011 0.13499
0.48484 0.14700 0.11596
0.63181 0.16187 0.10879
0.73803 0.17335 0.11135
0.80475 0.17813 0.11717
0.03827 0.21986 0.25161
0.11645 0.22340 0.24218
0.21219 0.22888 0.22603
0.33497 0.24006 0.20739
0.48906 0.25588 0.18611
0.64091 0.26779 0.16991
0.75032 0.26802 0.16085
0.81454 0.24741 0.15210
0.04670 0.33526 0.31198
0.12105 0.33838 0.30615
0.22053 0.34486 0.29456
0.34482 0.35627 0.27855
0.49952 0.37355 0.26010
0.65585 0.38850 0.24404
0.77122 0.38741 0.23102
0.83685 0.36015 0.21678
0.04556 0.47046 0.38240
0.12435 0.47392 0.37837
0.23184 0.48176 0.36887
0.36341 0.49451 0.35456
0.52081 0.51226 0.33696
0.67891 0.52888 0.32038
0.79645 0.53158 0.30781
0.86371 0.50787 0.29586
0.01843 0.60754 0.45078
0.11565 0.61113 0.44754
0.23420 0.61982 0.43904
0.37513 0.63451 0.42555
0.53968 0.65456 0.40934
0.70133 0.67360 0.39215
0.81939 0.68066 0.37833
0.88674 0.66663 0.37021
0.00000 0.71818 0.49991
0.04296 0.72164 0.49663
0.20833 0.73051 0.48780
0.36493 0.74622 0.47292
0.54006 0.76856 0.45575
0.71171 0.79185 0.44028
0.83553 0.80585 0.43026
0.90377 0.80410 0.42650
0.00000 0.80599 0.52652
0.00000 0.80863 0.52395
0.10337 0.81576 0.51676
0.29672 0.82952 0.50295
0.48569 0.85167 0.48362
0.67985 0.87890 0.46517
0.83074 0.89987 0.45426
0.91092 0.90807 0.44777
0.06705 0.03476 0.24563
0.13028 0.03380 0.22936
0.22212 0.03225 0.20190
0.34149 0.04503 0.17682
0.49111 0.07188 0.15630
0.63422 0.08986 0.13944
0.73851 0.10838 0.13534
0.80658 0.14395 0.14986
0.06263 0.14130 0.29692
0.13262 0.13989 0.28204
0.22744 0.13815 0.25554
0.34923 0.14546 0.22626
0.49979 0.16035 0.19807
0.64250 0.16768 0.17321
0.74505 0.17186 0.16228
0.81081 0.18279 0.16855
0.06667 0.23546 0.34488
0.13501 0.23808 0.33583
0.23156 0.24491 0.31968
0.35431 0.25669 0.29900
0.50650 0.27208 0.27362
0.65408 0.28102 0.24783
0.75972 0.27600 0.22826
0.82298 0.25542 0.21612
0.07511 0.35035 0.40504
0.14132 0.35364 0.39933
0.24027 0.36131 0.38833
0.36429 0.37392 0.37366
0.51882 0.39333 0.35657
0.67128 0.40829 0.33821
0.78267 0.40347 0.31945
0.84693 0.37119 0.30008
0.08826 0.48695 0.48069
0.15474 0.49092 0.47715
0.25976 0.49996 0.46915
0.39128 0.51437 0.45689
0.54519 0.53354 0.44175
0.69646 0.55044 0.42704
0.80929 0.55057 0.41324
0.87509 0.52248 0.39805
0.09679 0.62206 0.55794
0.16363 0.62615 0.55535
0.27265 0.63597 0.54868
0.40924 0.65186 0.53731
0.56577 0.67233 0.52291
0.71831 0.69126 0.50859
0.83284 0.69749 0.49717
0.89987 0.68129 0.48890
0.05264 0.73008 0.61862
0.13802 0.73384 0.61641
0.25745 0.74342 0.61026
0.40114 0.76001 0.59899
0.56374 0.78252 0.58476
0.72450 0.80550 0.57177
0.84894 0.81949 0.56382
0.91996 0.81685 0.56363
0.00000 0.81742 0.65650
0.02568 0.82007 0.65478
0.19159 0.82724 0.64976
0.34127 0.84092 0.63951
0.51012 0.86210 0.62426
0.69116 0.88798 0.60889
0.84215 0.90857 0.60158
0.92639 0.91482 0.60471
0.09295 0.05685 0.35891
0.15112 0.05613 0.34445
0.24306 0.05772 0.31618
0.36199 0.07246 0.28724
0.50805 0.09296 0.25899
0.64717 0.10405 0.23221
0.74795 0.10814 0.21648
0.81215 0.12327 0.21884
0.09119 0.15882 0.40483
0.15337 0.15798 0.39153
0.24840 0.15774 0.36517
0.37093 0.16549 0.33459
0.51871 0.17759 0.30147
0.65725 0.18210 0.26940
0.75592 0.17705 0.24815
0.81761 0.17220 0.24252
0.09889 0.25603 0.45308
0.15960 0.25853 0.44481
0.25648 0.26604 0.42891
0.38123 0.27886 0.40732
0.53041 0.29300 0.37934
0.67233 0.29976 0.34960
0.77296 0.28891 0.32310
0.83249 0.26131 0.30279
0.10913 0.37167 0.51498
0.16982 0.37553 0.50962
0.26974 0.38488 0.49846
0.39670 0.39959 0.48277
0.54617 0.41725 0.46333
0.69144 0.42969 0.44288
0.79702 0.42149 0.42106
0.85831 0.38741 0.39869
0.12698 0.50681 0.59046
0.18723 0.51101 0.58629
0.29070 0.52069 0.57660
0.42173 0.53541 0.56183
0.57239 0.55379 0.54480
0.71708 0.56959 0.52977
0.82379 0.56791 0.51501
0.88632 0.53817 0.49782
0.14615 0.63650 0.66414
0.20340 0.64083 0.66087
0.30722 0.65120 0.65284
0.44123 0.66757 0.64001
0.59280 0.68786 0.62446
0.73785 0.70614 0.60987
0.84636 0.71129 0.59808
0.91092 0.69512 0.58829
0.13680 0.74073 0.72687
0.19450 0.74483 0.72452
0.29925 0.75513 0.71827
0.43507 0.77240 0.70708
0.58978 0.79490 0.69210
0.74040 0.81684 0.67736
0.85752 0.82960 0.66709
0.92787 0.82722 0.66242
0.07373 0.82572 0.77182
0.14236 0.82868 0.77007
0.25159 0.83653 0.76496
0.38983 0.85116 0.75454
0.55148 0.87288 0.73867
0.71539 0.89728 0.72180
0.85065 0.91628 0.71053
0.93356 0.92275 0.70662
0.12121 0.08486 0.47593
0.17505 0.08657 0.46415
0.26764 0.09053 0.43725
0.38703 0.10182 0.40424
0.52950 0.11711 0.37098
0.66487 0.12587 0.34086
0.76176 0.12061 0.31919
0.82070 0.11079 0.30917
0.11808 0.17923 0.51731
0.17628 0.17970 0.50577
0.27291 0.18103 0.48024
0.39650 0.18799 0.44766
0.54148 0.19862 0.41227
0.67623 0.20319 0.37908
0.77061 0.19226 0.35290
0.82726 0.17207 0.33640
0.12955 0.28109 0.56730
0.18685 0.28362 0.55961
0.28512 0.29095 0.54326
0.41168 0.30391 0.52002
0.55791 0.31802 0.49093
0.69394 0.32385 0.46028
0.78872 0.30908 0.43009
0.84418 0.27680 0.40371
0.14696 0.39844 0.63061
0.20337 0.40248 0.62536
0.30341 0.41246 0.61359
0.43135 0.42807 0.59613
0.57677 0.44546 0.57475
0.71391 0.45545 0.55207
0.81283 0.44468 0.52786
0.87098 0.41048 0.50285
0.16874 0.53035 0.70285
0.22391 0.53476 0.69829
0.32512 0.54514 0.68742
0.45488 0.56089 0.67091
0.60087 0.57889 0.65175
0.73886 0.59203 0.63374
0.83932 0.58807 0.61665
0.89844 0.55781 0.59731
0.19381 0.65345 0.76949
0.24505 0.65802 0.76573
0.34388 0.66897 0.75654
0.47408 0.68595 0.74201
0.62158 0.70605 0.72450
0.76074 0.72245 0.70752
0.86297 0.72714 0.69470
0.92229 0.71187 0.68320
0.19451 0.75363 0.82995
0.24261 0.75795 0.82710
0.33816 0.76866 0.81968
0.46733 0.78609 0.80694
0.61570 0.80784 0.79041
0.76030 0.82839 0.77351
0.87134 0.84031 0.76075
0.93722 0.83816 0.75317
0.15375 0.83412 0.87702
0.19902 0.83713 0.87495
0.28930 0.84498 0.86918
0.41623 0.85939 0.85801
0.57306 0.88087 0.84115
0.73620 0.90527 0.82176
0.86390 0.92333 0.80646
0.94138 0.92935 0.79781
0.15359 0.12039 0.59026
0.20349 0.12210 0.57911
0.29653 0.12627 0.55280
0.41794 0.13406 0.51743
0.55755 0.14446 0.48177
0.68676 0.14713 0.44974
0.77719 0.13123 0.42329
0.83077 0.10136 0.40414
0.14734 0.20543 0.62444
0.20223 0.20649 0.61356
0.30000 0.20876 0.58836
0.42551 0.21490 0.55459
0.56821 0.22435 0.51962
0.69751 0.22575 0.48612
0.78613 0.20870 0.45648
0.83805 0.17669 0.43207
0.16148 0.31176 0.67536
0.21631 0.31403 0.66734
0.31497 0.32035 0.64893
0.44187 0.33198 0.62251
0.58489 0.34549 0.59242
0.71471 0.34980 0.56139
0.80381 0.33278 0.52980
0.85585 0.29591 0.49902
0.18560 0.42894 0.73478
0.23818 0.43254 0.72886
0.33639 0.44143 0.71491
0.46300 0.45603 0.69408
0.60399 0.47290 0.67025
0.73355 0.48207 0.64614
0.82659 0.47062 0.62057
0.88228 0.43603 0.59379
0.21172 0.55549 0.79831
0.26173 0.55961 0.79325
0.35859 0.56948 0.78113
0.48540 0.58480 0.76291
0.62602 0.60241 0.74232
0.75609 0.61466 0.72269
0.85158 0.61028 0.70413
0.90866 0.58134 0.68343
0.23862 0.67198 0.85932
0.28508 0.67651 0.85540
0.37896 0.68744 0.84574
0.50505 0.70440 0.83023
0.64619 0.72400 0.81126
0.77761 0.73971 0.79294
0.87401 0.74338 0.77785
0.93072 0.72921 0.76416
0.24535 0.76742 0.91529
0.28904 0.77195 0.91221
0.37984 0.78300 0.90436
0.50463 0.80053 0.89095
0.64652 0.82156 0.87323
0.78214 0.84055 0.85502
0.88379 0.85047 0.83975
0.94499 0.84910 0.82997
0.21558 0.84324 0.95419
0.25539 0.84666 0.95195
0.34030 0.85541 0.94599
0.46306 0.87074 0.93504
0.61113 0.89172 0.91956
0.75887 0.91338 0.90244
0.87649 0.92958 0.88707
0.94876 0.93558 0.87601
0.24864 0.18350 0.72797
0.29212 0.18554 0.71961
0.38001 0.18718 0.69147
0.48942 0.18493 0.63961
0.61477 0.18456 0.59708
0.72494 0.17477 0.56378
0.79853 0.14442 0.53348
0.84368 0.09035 0.50682
0.21742 0.25628 0.74088
0.26558 0.25828 0.73106
0.36112 0.26221 0.70531
0.48583 0.26738 0.66652
0.62004 0.27035 0.62997
0.73211 0.26103 0.59501
0.80598 0.23307 0.56202
0.85109 0.18647 0.53126
0.20405 0.36040 0.77402
0.25723 0.36453 0.76718
0.36174 0.37666 0.75241
0.49760 0.39494 0.73001
0.63561 0.40686 0.70002
0.74923 0.40413 0.66723
0.82520 0.38033 0.63321
0.87117 0.33405 0.59595
0.24006 0.47290 0.82570
0.28921 0.47810 0.82098
0.38901 0.49173 0.81016
0.52097 0.51235 0.79262
0.65679 0.53035 0.76916
0.77084 0.53784 0.74494
0.85019 0.52742 0.72054
0.89930 0.49192 0.69047
0.26825 0.59164 0.88257
0.31586 0.59678 0.87852
0.41381 0.60915 0.86844
0.54277 0.62695 0.85149
0.67695 0.64500 0.83099
0.79194 0.65698 0.81173
0.87249 0.65427 0.79363
0.92270 0.62837 0.77181
0.30042 0.69803 0.93089
0.34415 0.70308 0.92764
0.43627 0.71520 0.91969
0.56056 0.73313 0.90666
0.69347 0.75194 0.88964
0.80881 0.76577 0.87150
0.89007 0.76944 0.85606
0.94033 0.75625 0.83979
0.31493 0.78568 0.96411
0.35464 0.79041 0.96210
0.44053 0.80182 0.95724
0.56034 0.81921 0.94909
0.69357 0.83891 0.93712
0.81441 0.85570 0.92244
0.90065 0.86436 0.90832
0.95244 0.86163 0.89549
0.27738 0.85345 0.98040
0.31413 0.85725 0.97994
0.39551 0.86682 0.97859
0.51491 0.88272 0.97507
0.65610 0.90283 0.96802
0.79168 0.92271 0.95868
0.89435 0.93765 0.94881
0.95755 0.94416 0.93944
