_SYSTEM/luts/Provia to Classic Neg DisplayP3.cube
# DisplayP3
# github.com/abpy/FujifilmCameraProfiles
LUT_3D_SIZE 32
0.00962 0.01134 0.00946
0.02540 0.01081 0.00591
0.04240 0.00941 0.00176
0.06241 0.00883 0.00000
0.08394 0.00895 0.00000
0.10632 0.00937 0.00000
0.12881 0.01038 0.00000
0.15178 0.01228 0.00000
0.17579 0.01385 0.00000
0.20118 0.01538 0.00000
0.22833 0.01757 0.00000
0.25741 0.02054 0.00000
0.28831 0.02448 0.00000
0.32084 0.02961 0.00000
0.35463 0.03593 0.00000
0.38915 0.04330 0.00000
0.42392 0.05099 0.00000
0.45852 0.05862 0.00000
0.49261 0.06592 0.00000
0.52582 0.07269 0.00000
0.55784 0.07886 0.00000
0.58840 0.08445 0.00000
0.61729 0.08959 0.00000
0.64442 0.09440 0.00000
0.66972 0.09900 0.00000
0.69322 0.10350 0.00000
0.71499 0.10800 0.00000
0.73516 0.11257 0.00000
0.75389 0.11731 0.00000
0.77137 0.12231 0.00000
0.78778 0.12769 0.00000
0.80333 0.13354 0.00000
0.00824 0.03116 0.01541
0.02315 0.03105 0.01219
0.04021 0.03114 0.00930
0.06122 0.03208 0.00704
0.08385 0.03303 0.00531
0.10648 0.03343 0.00330
0.12892 0.03368 0.00139
0.15190 0.03429 0.00000
0.17582 0.03530 0.00000
0.20116 0.03693 0.00000
0.22841 0.03946 0.00000
0.25763 0.04279 0.00000
0.28869 0.04694 0.00000
0.32141 0.05190 0.00000
0.35540 0.05745 0.00000
0.39009 0.06346 0.00000
0.42500 0.06977 0.00000
0.45974 0.07610 0.00000
0.49395 0.08221 0.00000
0.52725 0.08789 0.00000
0.55933 0.09309 0.00000
0.58990 0.09781 0.00000
0.61879 0.10215 0.00000
0.64587 0.10623 0.00000
0.67112 0.11015 0.00000
0.69454 0.11401 0.00000
0.71624 0.11788 0.00000
0.73632 0.12186 0.00000
0.75497 0.12602 0.00000
0.77235 0.13047 0.00000
0.78869 0.13532 0.00000
0.80416 0.14066 0.00000
0.00562 0.05184 0.01921
0.02156 0.05263 0.01628
0.03951 0.05388 0.01407
0.06109 0.05535 0.01238
0.08393 0.05629 0.01082
0.10648 0.05663 0.00913
0.12890 0.05688 0.00733
0.15184 0.05724 0.00501
0.17565 0.05791 0.00278
0.20098 0.05932 0.00065
0.22835 0.06143 0.00000
0.25769 0.06419 0.00000
0.28893 0.06775 0.00000
0.32188 0.07199 0.00000
0.35609 0.07672 0.00000
0.39098 0.08188 0.00000
0.42608 0.08732 0.00000
0.46100 0.09278 0.00000
0.49536 0.09803 0.00000
0.52879 0.10290 0.00000
0.56094 0.10732 0.00000
0.59155 0.11133 0.00000
0.62044 0.11501 0.00000
0.64749 0.11846 0.00000
0.67268 0.12177 0.00000
0.69603 0.12504 0.00000
0.71764 0.12834 0.00000
0.73763 0.13175 0.00000
0.75618 0.13536 0.00000
0.77347 0.13926 0.00000
0.78971 0.14358 0.00000
0.80510 0.14842 0.00000
0.00425 0.07506 0.02288
0.02082 0.07652 0.02007
0.03805 0.07808 0.01813
0.06026 0.07963 0.01646
0.08323 0.08075 0.01496
0.10599 0.08145 0.01351
0.12859 0.08192 0.01190
0.15149 0.08211 0.01007
0.17525 0.08274 0.00827
0.20066 0.08403 0.00628
0.22812 0.08575 0.00419
0.25758 0.08813 0.00243
0.28904 0.09126 0.00085
0.32231 0.09491 0.00000
0.35682 0.09900 0.00000
0.39200 0.10350 0.00000
0.42739 0.10822 0.00000
0.46260 0.11291 0.00000
0.49723 0.11737 0.00000
0.53085 0.12147 0.00000
0.56313 0.12514 0.00000
0.59381 0.12843 0.00000
0.62271 0.13141 0.00000
0.64974 0.13420 0.00000
0.67486 0.13685 0.00000
0.69812 0.13947 0.00000
0.71961 0.14211 0.00000
0.73947 0.14486 0.00000
0.75789 0.14781 0.00000
0.77505 0.15106 0.00000
0.79117 0.15473 0.00000
0.80645 0.15894 0.00000
0.00372 0.09898 0.02651
0.01890 0.10044 0.02398
0.03609 0.10185 0.02202
0.05872 0.10339 0.02010
0.08192 0.10478 0.01837
0.10496 0.10586 0.01681
0.12781 0.10658 0.01534
0.15083 0.10718 0.01392
0.17470 0.10819 0.01246
0.20019 0.10948 0.01081
0.22768 0.11103 0.00918
0.25723 0.11330 0.00771
0.28896 0.11613 0.00619
0.32257 0.11933 0.00472
0.35744 0.12300 0.00343
0.39300 0.12706 0.00212
0.42882 0.13123 0.00060
0.46446 0.13532 0.00000
0.49945 0.13915 0.00000
0.53336 0.14260 0.00000
0.56585 0.14562 0.00000
0.59665 0.14826 0.00000
0.62561 0.15063 0.00000
0.65262 0.15278 0.00000
0.67767 0.15480 0.00000
0.70082 0.15676 0.00000
0.72217 0.15874 0.00000
0.74188 0.16079 0.00000
0.76013 0.16304 0.00000
0.77713 0.16557 0.00000
0.79309 0.16853 0.00000
0.80822 0.17203 0.00000
0.00226 0.12204 0.02973
0.01685 0.12330 0.02739
0.03397 0.12458 0.02539
0.05691 0.12611 0.02327
0.08034 0.12765 0.02128
0.10363 0.12903 0.01953
0.12672 0.13023 0.01801
0.14997 0.13145 0.01665
0.17402 0.13284 0.01535
0.19958 0.13427 0.01407
0.22707 0.13603 0.01288
0.25673 0.13839 0.01169
0.28871 0.14108 0.01041
0.32262 0.14413 0.00922
0.35786 0.14766 0.00814
0.39390 0.15146 0.00691
0.43027 0.15529 0.00546
0.46647 0.15899 0.00380
0.50195 0.16239 0.00185
0.53625 0.16535 0.00000
0.56902 0.16787 0.00000
0.60001 0.17001 0.00000
0.62907 0.17186 0.00000
0.65609 0.17348 0.00000
0.68109 0.17494 0.00000
0.70412 0.17630 0.00000
0.72532 0.17763 0.00000
0.74484 0.17902 0.00000
0.76290 0.18055 0.00000
0.77970 0.18236 0.00000
0.79548 0.18458 0.00000
0.81044 0.18734 0.00000
0.00086 0.14465 0.03249
0.01538 0.14570 0.03021
0.03230 0.14683 0.02819
0.05525 0.14827 0.02598
0.07879 0.14987 0.02383
0.10224 0.15148 0.02191
0.12557 0.15303 0.02025
0.14907 0.15460 0.01881
0.17332 0.15621 0.01752
0.19896 0.15796 0.01635
0.22647 0.16006 0.01524
0.25623 0.16258 0.01420
0.28838 0.16540 0.01326
0.32254 0.16861 0.01248
0.35815 0.17221 0.01172
0.39472 0.17595 0.01078
0.43174 0.17967 0.00965
0.46858 0.18322 0.00828
0.50464 0.18638 0.00650
0.53942 0.18905 0.00427
0.57257 0.19126 0.00170
0.60383 0.19307 0.00000
0.63303 0.19455 0.00000
0.66011 0.19575 0.00000
0.68506 0.19674 0.00000
0.70799 0.19758 0.00000
0.72902 0.19832 0.00000
0.74836 0.19907 0.00000
0.76620 0.19992 0.00000
0.78278 0.20101 0.00000
0.79834 0.20249 0.00000
0.81310 0.20451 0.00000
0.00000 0.16736 0.03544
0.01393 0.16829 0.03324
0.03085 0.16931 0.03120
0.05400 0.17065 0.02890
0.07768 0.17218 0.02659
0.10122 0.17380 0.02447
0.12467 0.17545 0.02259
0.14835 0.17713 0.02092
0.17277 0.17892 0.01942
0.19849 0.18092 0.01801
0.22607 0.18326 0.01677
0.25594 0.18597 0.01578
0.28820 0.18905 0.01509
0.32253 0.19251 0.01460
0.35849 0.19626 0.01413
0.39560 0.20012 0.01360
0.43328 0.20396 0.01296
0.47080 0.20757 0.01204
0.50749 0.21070 0.01060
0.54284 0.21329 0.00867
0.57646 0.21539 0.00637
0.60806 0.21705 0.00381
0.63747 0.21831 0.00106
0.66463 0.21922 0.00000
0.68958 0.21985 0.00000
0.71241 0.22024 0.00000
0.73328 0.22047 0.00000
0.75241 0.22062 0.00000
0.77002 0.22082 0.00000
0.78636 0.22121 0.00000
0.80168 0.22196 0.00000
0.81622 0.22324 0.00000
0.00000 0.19116 0.04102
0.01344 0.19191 0.03873
0.03028 0.19275 0.03648
0.05331 0.19388 0.03381
0.07691 0.19524 0.03098
0.10046 0.19675 0.02824
0.12404 0.19835 0.02575
0.14791 0.20003 0.02353
0.17250 0.20187 0.02154
0.19838 0.20396 0.01978
0.22609 0.20638 0.01835
0.25606 0.20920 0.01729
0.28838 0.21243 0.01658
0.32284 0.21603 0.01611
0.35910 0.21994 0.01581
0.39671 0.22403 0.01567
0.43499 0.22812 0.01551
0.47318 0.23191 0.01505
0.51054 0.23518 0.01407
0.54652 0.23791 0.01261
0.58067 0.24010 0.01076
0.61268 0.24178 0.00860
0.64235 0.24296 0.00619
0.66965 0.24371 0.00361
0.69462 0.24408 0.00089
0.71737 0.24411 0.00000
0.73809 0.24387 0.00000
0.75700 0.24348 0.00000
0.77437 0.24305 0.00000
0.79045 0.24275 0.00000
0.80551 0.24277 0.00000
0.81980 0.24331 0.00000
0.00000 0.21604 0.04787
0.01226 0.21667 0.04567
0.02911 0.21737 0.04338
0.05236 0.21834 0.04044
0.07622 0.21954 0.03706
0.09996 0.22089 0.03368
0.12372 0.22237 0.03050
0.14779 0.22396 0.02763
0.17259 0.22574 0.02510
0.19868 0.22777 0.02291
0.22658 0.23016 0.02113
0.25666 0.23296 0.01978
0.28905 0.23618 0.01881
0.32364 0.23982 0.01819
0.36019 0.24386 0.01796
0.39822 0.24816 0.01810
0.43703 0.25246 0.01833
0.47582 0.25645 0.01827
0.51385 0.25999 0.01775
0.55050 0.26300 0.01676
0.58523 0.26544 0.01532
0.61769 0.26726 0.01349
0.64769 0.26850 0.01138
0.67517 0.26919 0.00911
0.70018 0.26938 0.00674
0.72287 0.26912 0.00420
0.74345 0.26848 0.00150
0.76215 0.26757 0.00000
0.77926 0.26653 0.00000
0.79507 0.26554 0.00000
0.80986 0.26482 0.00000
0.82388 0.26459 0.00000
0.00000 0.24241 0.05493
0.01035 0.24294 0.05283
0.02732 0.24353 0.05059
0.05094 0.24434 0.04767
0.07522 0.24536 0.04422
0.09926 0.24655 0.04050
0.12330 0.24788 0.03676
0.14766 0.24936 0.03335
0.17278 0.25102 0.03034
0.19918 0.25296 0.02773
0.22734 0.25525 0.02558
0.25761 0.25795 0.02383
0.29014 0.26110 0.02249
0.32491 0.26472 0.02159
0.36169 0.26878 0.02122
0.40003 0.27311 0.02134
0.43924 0.27746 0.02169
0.47855 0.28163 0.02199
0.51721 0.28545 0.02207
0.55451 0.28880 0.02175
0.58986 0.29153 0.02093
0.62284 0.29359 0.01960
0.65324 0.29499 0.01785
0.68099 0.29572 0.01578
0.70614 0.29582 0.01343
0.72884 0.29533 0.01089
0.74931 0.29433 0.00822
0.76784 0.29294 0.00549
0.78471 0.29129 0.00275
0.80025 0.28960 0.00000
0.81475 0.28811 0.00000
0.82849 0.28707 0.00000
0.00000 0.27029 0.06259
0.00697 0.27074 0.06067
0.02406 0.27124 0.05861
0.04828 0.27195 0.05587
0.07343 0.27285 0.05259
0.09807 0.27392 0.04899
0.12260 0.27514 0.04531
0.14743 0.27652 0.04171
0.17301 0.27810 0.03831
0.19986 0.27995 0.03532
0.22839 0.28214 0.03272
0.25894 0.28473 0.03048
0.29170 0.28777 0.02860
0.32667 0.29129 0.02716
0.36364 0.29521 0.02627
0.40218 0.29942 0.02598
0.44168 0.30374 0.02615
0.48139 0.30800 0.02659
0.52055 0.31203 0.02705
0.55839 0.31562 0.02728
0.59428 0.31862 0.02707
0.62777 0.32094 0.02640
0.65859 0.32252 0.02523
0.68664 0.32335 0.02356
0.71197 0.32342 0.02144
0.73473 0.32278 0.01895
0.75518 0.32149 0.01618
0.77359 0.31966 0.01322
0.79031 0.31745 0.01012
0.80564 0.31506 0.00694
0.81991 0.31276 0.00370
0.83342 0.31086 0.00037
0.00000 0.29964 0.07188
0.00243 0.30005 0.07021
0.01973 0.30051 0.06840
0.04463 0.30115 0.06596
0.07102 0.30197 0.06300
0.09647 0.30295 0.05970
0.12168 0.30410 0.05626
0.14714 0.30542 0.05284
0.17333 0.30695 0.04958
0.20072 0.30875 0.04652
0.22972 0.31087 0.04362
0.26065 0.31338 0.04084
0.29371 0.31631 0.03821
0.32891 0.31968 0.03598
0.36606 0.32345 0.03435
0.40480 0.32753 0.03343
0.44453 0.33179 0.03315
0.48454 0.33608 0.03333
0.52406 0.34018 0.03375
0.56233 0.34390 0.03416
0.59868 0.34708 0.03439
0.63261 0.34960 0.03429
0.66383 0.35136 0.03369
0.69218 0.35228 0.03249
0.71770 0.35236 0.03070
0.74056 0.35161 0.02838
0.76101 0.35008 0.02560
0.77936 0.34787 0.02247
0.79594 0.34512 0.01907
0.81110 0.34205 0.01547
0.82518 0.33893 0.01173
0.83849 0.33614 0.00785
0.00000 0.33034 0.08364
0.00000 0.33072 0.08220
0.01405 0.33114 0.08062
0.03948 0.33175 0.07846
0.06775 0.33253 0.07581
0.09443 0.33349 0.07282
0.12060 0.33462 0.06966
0.14687 0.33594 0.06651
0.17377 0.33748 0.06342
0.20178 0.33926 0.06039
0.23132 0.34136 0.05739
0.26273 0.34382 0.05442
0.29617 0.34668 0.05152
0.33165 0.34996 0.04887
0.36905 0.35364 0.04669
0.40799 0.35764 0.04507
0.44791 0.36183 0.04401
0.48813 0.36606 0.04346
0.52792 0.37015 0.04333
0.56651 0.37392 0.04348
0.60322 0.37721 0.04375
0.63754 0.37986 0.04389
0.66910 0.38173 0.04363
0.69772 0.38273 0.04281
0.72342 0.38283 0.04135
0.74638 0.38199 0.03921
0.76686 0.38026 0.03646
0.78517 0.37771 0.03318
0.80166 0.37445 0.02948
0.81669 0.37070 0.02546
0.83061 0.36677 0.02121
0.84373 0.36307 0.01677
0.00000 0.36212 0.09707
0.00000 0.36251 0.09587
0.00727 0.36295 0.09456
0.03321 0.36356 0.09275
0.06386 0.36436 0.09051
0.09209 0.36535 0.08794
0.11938 0.36652 0.08516
0.14658 0.36787 0.08226
0.17429 0.36944 0.07930
0.20304 0.37126 0.07630
0.23324 0.37338 0.07326
0.26520 0.37586 0.07022
0.29908 0.37872 0.06724
0.33493 0.38200 0.06444
0.37260 0.38566 0.06192
0.41175 0.38962 0.05972
0.45184 0.39376 0.05790
0.49225 0.39795 0.05653
0.53225 0.40202 0.05563
0.57109 0.40581 0.05517
0.60809 0.40915 0.05500
0.64270 0.41187 0.05487
0.67451 0.41380 0.05453
0.70334 0.41486 0.05381
0.72920 0.41495 0.05258
0.75225 0.41405 0.05076
0.77276 0.41214 0.04828
0.79105 0.40926 0.04513
0.80748 0.40553 0.04131
0.82241 0.40113 0.03686
0.83620 0.39639 0.03208
0.84917 0.39180 0.02705
0.00000 0.39501 0.11267
0.00000 0.39541 0.11171
0.00000 0.39587 0.11064
0.02623 0.39652 0.10916
0.05934 0.39736 0.10726
0.08950 0.39839 0.10502
0.11815 0.39962 0.10249
0.14645 0.40104 0.09978
0.17512 0.40269 0.09695
0.20469 0.40458 0.09402
0.23558 0.40678 0.09102
0.26811 0.40933 0.08799
0.30247 0.41226 0.08499
0.33871 0.41560 0.08207
0.37668 0.41929 0.07926
0.41605 0.42327 0.07660
0.45635 0.42743 0.07415
0.49695 0.43162 0.07202
0.53713 0.43571 0.07031
0.57615 0.43952 0.06903
0.61335 0.44288 0.06810
0.64815 0.44562 0.06733
0.68012 0.44759 0.06655
0.70909 0.44867 0.06557
0.73505 0.44875 0.06422
0.75816 0.44778 0.06239
0.77870 0.44570 0.05998
0.79698 0.44254 0.05696
0.81337 0.43837 0.05331
0.82824 0.43337 0.04907
0.84193 0.42787 0.04423
0.85479 0.42244 0.03873
0.00000 0.42894 0.13017
0.00000 0.42937 0.12939
0.00000 0.42985 0.12850
0.01895 0.43053 0.12724
0.05448 0.43141 0.12561
0.08692 0.43250 0.12364
0.11707 0.43380 0.12136
0.14655 0.43531 0.11884
0.17620 0.43705 0.11613
0.20660 0.43905 0.11328
0.23821 0.44136 0.11032
0.27136 0.44402 0.10729
0.30624 0.44706 0.10423
0.34289 0.45049 0.10114
0.38119 0.45427 0.09805
0.42084 0.45833 0.09499
0.46137 0.46256 0.09203
0.50216 0.46682 0.08925
0.54250 0.47095 0.08678
0.58166 0.47481 0.08465
0.61897 0.47820 0.08286
0.65386 0.48097 0.08130
0.68592 0.48296 0.07984
0.71494 0.48404 0.07831
0.74095 0.48409 0.07656
0.76408 0.48304 0.07445
0.78462 0.48083 0.07188
0.80290 0.47742 0.06878
0.81927 0.47287 0.06513
0.83410 0.46735 0.06096
0.84774 0.46121 0.05626
0.86052 0.45506 0.05101
0.00000 0.46373 0.14922
0.00000 0.46417 0.14856
0.00000 0.46468 0.14781
0.01121 0.46539 0.14673
0.04899 0.46632 0.14529
0.08416 0.46747 0.14351
0.11597 0.46884 0.14141
0.14668 0.47044 0.13902
0.17736 0.47229 0.13639
0.20866 0.47441 0.13358
0.24103 0.47685 0.13061
0.27482 0.47965 0.12751
0.31023 0.48282 0.12429
0.34733 0.48637 0.12098
0.38600 0.49028 0.11760
0.42597 0.49446 0.11419
0.46674 0.49881 0.11079
0.50772 0.50317 0.10749
0.54820 0.50739 0.10437
0.58747 0.51131 0.10148
0.62483 0.51476 0.09887
0.65974 0.51756 0.09648
0.69180 0.51956 0.09424
0.72082 0.52064 0.09201
0.74681 0.52067 0.08968
0.76993 0.51956 0.08711
0.79046 0.51724 0.08420
0.80872 0.51366 0.08086
0.82509 0.50884 0.07708
0.83992 0.50294 0.07284
0.85355 0.49633 0.06816
0.86629 0.48967 0.06304
0.00000 0.49895 0.16883
0.00000 0.49942 0.16825
0.00000 0.49994 0.16759
0.00228 0.50068 0.16664
0.04197 0.50166 0.16535
0.08066 0.50287 0.16372
0.11441 0.50432 0.16176
0.14651 0.50602 0.15948
0.17831 0.50799 0.15692
0.21055 0.51025 0.15411
0.24374 0.51283 0.15108
0.27822 0.51577 0.14785
0.31422 0.51910 0.14445
0.35182 0.52281 0.14092
0.39090 0.52687 0.13727
0.43119 0.53120 0.13354
0.47223 0.53568 0.12977
0.51340 0.54017 0.12602
0.55402 0.54452 0.12236
0.59336 0.54853 0.11886
0.63074 0.55205 0.11554
0.66562 0.55490 0.11239
0.69762 0.55693 0.10938
0.72659 0.55801 0.10643
0.75252 0.55804 0.10345
0.77560 0.55691 0.10032
0.79610 0.55455 0.09696
0.81437 0.55090 0.09330
0.83075 0.54597 0.08929
0.84560 0.53988 0.08491
0.85925 0.53304 0.08018
0.87200 0.52611 0.07512
0.00000 0.53413 0.18826
0.00000 0.53461 0.18776
0.00000 0.53515 0.18717
0.00000 0.53593 0.18630
0.03257 0.53695 0.18513
0.07595 0.53822 0.18361
0.11207 0.53976 0.18175
0.14577 0.54157 0.17953
0.17879 0.54366 0.17699
0.21205 0.54606 0.17415
0.24611 0.54880 0.17103
0.28135 0.55191 0.16768
0.31799 0.55541 0.16412
0.35610 0.55928 0.16037
0.39560 0.56350 0.15646
0.43623 0.56798 0.15243
0.47755 0.57261 0.14832
0.51894 0.57724 0.14421
0.55969 0.58172 0.14014
0.59909 0.58585 0.13616
0.63645 0.58945 0.13227
0.67127 0.59237 0.12850
0.70319 0.59445 0.12482
0.73208 0.59557 0.12119
0.75794 0.59564 0.11755
0.78097 0.59457 0.11385
0.80145 0.59228 0.11002
0.81972 0.58871 0.10598
0.83614 0.58384 0.10170
0.85104 0.57781 0.09715
0.86473 0.57099 0.09235
0.87753 0.56407 0.08731
0.00000 0.56871 0.20680
0.00000 0.56920 0.20634
0.00000 0.56977 0.20579
0.00000 0.57058 0.20499
0.02116 0.57165 0.20388
0.06962 0.57299 0.20244
0.10870 0.57461 0.20064
0.14422 0.57652 0.19846
0.17860 0.57874 0.19594
0.21296 0.58129 0.19307
0.24794 0.58420 0.18989
0.28395 0.58747 0.18643
0.32123 0.59113 0.18272
0.35989 0.59517 0.17877
0.39985 0.59954 0.17464
0.44086 0.60417 0.17036
0.48245 0.60895 0.16598
0.52403 0.61373 0.16158
0.56489 0.61834 0.15718
0.60431 0.62259 0.15282
0.64166 0.62631 0.14852
0.67643 0.62932 0.14426
0.70830 0.63150 0.14003
0.73711 0.63273 0.13582
0.76292 0.63293 0.13162
0.78592 0.63202 0.12739
0.80640 0.62994 0.12309
0.82470 0.62660 0.11868
0.84116 0.62201 0.11411
0.85612 0.61626 0.10938
0.86990 0.60974 0.10450
0.88278 0.60309 0.09946
0.00000 0.60219 0.22394
0.00000 0.60271 0.22350
0.00000 0.60329 0.22299
0.00000 0.60414 0.22223
0.00773 0.60525 0.22117
0.06121 0.60666 0.21979
0.10413 0.60836 0.21804
0.14175 0.61038 0.21591
0.17760 0.61272 0.21340
0.21310 0.61540 0.21052
0.24902 0.61845 0.20729
0.28583 0.62188 0.20375
0.32380 0.62569 0.19990
0.36304 0.62988 0.19580
0.40346 0.63440 0.19148
0.44481 0.63917 0.18699
0.48663 0.64408 0.18240
0.52835 0.64899 0.17775
0.56928 0.65374 0.17309
0.60874 0.65813 0.16845
0.64611 0.66198 0.16382
0.68089 0.66515 0.15920
0.71274 0.66749 0.15457
0.74154 0.66891 0.14992
0.76735 0.66936 0.14526
0.79036 0.66875 0.14057
0.81086 0.66701 0.13585
0.82920 0.66409 0.13108
0.84573 0.65996 0.12623
0.86077 0.65473 0.12132
0.87465 0.64874 0.11633
0.88764 0.64258 0.11122
0.00000 0.63420 0.23945
0.00000 0.63473 0.23904
0.00000 0.63534 0.23855
0.00000 0.63621 0.23782
0.00000 0.63736 0.23680
0.04958 0.63882 0.23546
0.09782 0.64059 0.23376
0.13796 0.64269 0.23167
0.17545 0.64513 0.22918
0.21218 0.64793 0.22630
0.24910 0.65110 0.22304
0.28674 0.65466 0.21943
0.32542 0.65861 0.21549
0.36522 0.66293 0.21126
0.40608 0.66757 0.20679
0.44773 0.67247 0.20214
0.48976 0.67750 0.19737
0.53162 0.68255 0.19252
0.57265 0.68743 0.18765
0.61220 0.69197 0.18277
0.64964 0.69601 0.17789
0.68448 0.69939 0.17301
0.71641 0.70198 0.16808
0.74528 0.70371 0.16311
0.77115 0.70451 0.15810
0.79421 0.70431 0.15304
0.81476 0.70307 0.14795
0.83315 0.70070 0.14284
0.84975 0.69720 0.13772
0.86490 0.69268 0.13259
0.87890 0.68742 0.12743
0.89202 0.68194 0.12217
0.00000 0.66446 0.25328
0.00000 0.66499 0.25288
0.00000 0.66561 0.25241
0.00000 0.66649 0.25170
0.00000 0.66767 0.25071
0.03174 0.66917 0.24941
0.08864 0.67099 0.24774
0.13216 0.67315 0.24569
0.17164 0.67567 0.24322
0.20978 0.67855 0.24035
0.24779 0.68183 0.23707
0.28631 0.68549 0.23342
0.32568 0.68955 0.22941
0.36605 0.69397 0.22510
0.40733 0.69873 0.22053
0.44932 0.70375 0.21575
0.49160 0.70891 0.21082
0.53366 0.71409 0.20580
0.57486 0.71913 0.20074
0.61456 0.72387 0.19566
0.65216 0.72814 0.19059
0.68716 0.73179 0.18550
0.71925 0.73472 0.18036
0.74826 0.73684 0.17515
0.77424 0.73809 0.16987
0.79739 0.73842 0.16451
0.81802 0.73776 0.15910
0.83650 0.73606 0.15366
0.85320 0.73332 0.14823
0.86847 0.72963 0.14282
0.88260 0.72524 0.13739
0.89584 0.72056 0.13179
0.00000 0.69280 0.26544
0.00000 0.69334 0.26504
0.00000 0.69396 0.26458
0.00000 0.69485 0.26390
0.00000 0.69604 0.26294
0.00722 0.69756 0.26167
0.07460 0.69941 0.26004
0.12331 0.70162 0.25803
0.16546 0.70419 0.25560
0.20534 0.70715 0.25276
0.24460 0.71049 0.24949
0.28408 0.71424 0.24583
0.32420 0.71840 0.24180
0.36516 0.72293 0.23743
0.40693 0.72780 0.23278
0.44931 0.73294 0.22790
0.49193 0.73825 0.22284
0.53428 0.74359 0.21767
0.57576 0.74883 0.21244
0.61572 0.75379 0.20720
0.65358 0.75834 0.20195
0.68885 0.76233 0.19668
0.72117 0.76565 0.19135
0.75039 0.76822 0.18595
0.77654 0.76998 0.18043
0.79984 0.77087 0.17480
0.82060 0.77085 0.16907
0.83921 0.76989 0.16328
0.85604 0.76798 0.15747
0.87144 0.76521 0.15164
0.88570 0.76176 0.14573
0.89904 0.75797 0.13954
0.00000 0.71931 0.27615
0.00000 0.71985 0.27577
0.00000 0.72047 0.27533
0.00000 0.72136 0.27467
0.00000 0.72257 0.27375
0.00000 0.72410 0.27252
0.05174 0.72598 0.27096
0.11004 0.72822 0.26900
0.15611 0.73083 0.26664
0.19827 0.73384 0.26385
0.23907 0.73726 0.26063
0.27967 0.74108 0.25699
0.32064 0.74532 0.25296
0.36227 0.74995 0.24857
0.40460 0.75494 0.24386
0.44746 0.76021 0.23889
0.49051 0.76567 0.23372
0.53325 0.77120 0.22842
0.57510 0.77665 0.22304
0.61545 0.78188 0.21763
0.65368 0.78673 0.21219
0.68931 0.79108 0.20673
0.72196 0.79481 0.20120
0.75149 0.79785 0.19557
0.77793 0.80012 0.18978
0.80148 0.80161 0.18383
0.82247 0.80226 0.17772
0.84127 0.80206 0.17147
0.85827 0.80101 0.16513
0.87379 0.79918 0.15865
0.88815 0.79672 0.15193
0.90154 0.79385 0.14472
0.00000 0.74441 0.28608
0.00000 0.74495 0.28573
0.00000 0.74557 0.28531
0.00000 0.74647 0.28468
0.00000 0.74768 0.28380
0.00000 0.74921 0.28264
0.01416 0.75110 0.28113
0.09074 0.75336 0.27926
0.14291 0.75600 0.27697
0.18814 0.75904 0.27426
0.23085 0.76249 0.27110
0.27275 0.76636 0.26751
0.31468 0.77066 0.26350
0.35705 0.77536 0.25911
0.39998 0.78044 0.25436
0.44334 0.78582 0.24932
0.48684 0.79142 0.24404
0.53004 0.79712 0.23860
0.57236 0.80279 0.23304
0.61319 0.80828 0.22742
0.65193 0.81344 0.22175
0.68807 0.81815 0.21602
0.72124 0.82230 0.21019
0.75128 0.82580 0.20422
0.77820 0.82860 0.19805
0.80218 0.83067 0.19164
0.82352 0.83199 0.18497
0.84260 0.83255 0.17806
0.85978 0.83237 0.17086
0.87543 0.83149 0.16330
0.88984 0.83003 0.15522
0.90324 0.82813 0.14632
0.00000 0.76887 0.29634
0.00000 0.76939 0.29600
0.00000 0.77000 0.29560
0.00000 0.77088 0.29500
0.00000 0.77206 0.29416
0.00000 0.77356 0.29304
0.00000 0.77541 0.29159
0.06213 0.77763 0.28979
0.12489 0.78022 0.28758
0.17427 0.78322 0.28494
0.21925 0.78664 0.28186
0.26260 0.79049 0.27833
0.30553 0.79477 0.27435
0.34862 0.79948 0.26995
0.39211 0.80458 0.26516
0.43597 0.81002 0.26003
0.47996 0.81571 0.25461
0.52367 0.82155 0.24897
0.56655 0.82741 0.24317
0.60802 0.83315 0.23725
0.64748 0.83861 0.23122
0.68441 0.84368 0.22508
0.71842 0.84823 0.21878
0.74929 0.85220 0.21226
0.77698 0.85553 0.20548
0.80163 0.85819 0.19836
0.82351 0.86019 0.19083
0.84298 0.86153 0.18280
0.86043 0.86222 0.17415
0.87619 0.86231 0.16474
0.89060 0.86186 0.15435
0.90393 0.86096 0.14278
0.00000 0.79342 0.30821
0.00000 0.79391 0.30787
0.00000 0.79446 0.30747
0.00000 0.79527 0.30687
