_SYSTEM/luts/Provia to Classic Neg DisplayP3.cube
# DisplayP3
# github.com/abpy/FujifilmCameraProfiles
LUT_3D_SIZE 5
DOMAIN_MIN 0.000000 0.000000 0.000000
DOMAIN_MAX 0.903226 0.903226 0.903226
0.00962 0.01134 0.00946
0.15178 0.01228 0.00000
0.35463 0.03593 0.00000
0.58840 0.08445 0.00000
0.75389 0.11731 0.00000
0.00000 0.16736 0.03544
0.14835 0.17713 0.02092
0.35849 0.19626 0.01413
0.60806 0.21705 0.00381
0.77002 0.22082 0.00000
0.00000 0.36212 0.09707
0.14658 0.36787 0.08226
0.37260 0.38566 0.06192
0.64270 0.41187 0.05487
0.80748 0.40553 0.04131
0.00000 0.60219 0.22394
0.14175 0.61038 0.21591
0.40346 0.63440 0.19148
0.68089 0.66515 0.15920
0.84573 0.65996 0.12623
0.00000 0.79342 0.30821
0.01173 0.80154 0.30177
0.37930 0.82763 0.27733
0.67756 0.86784 0.23455
0.85992 0.89081 0.17442
0.03330 0.01759 0.12772
0.17662 0.01669 0.08983
0.39707 0.03512 0.06482
0.65368 0.09331 0.07457
0.80022 0.13389 0.09253
0.03065 0.19142 0.21882
0.18393 0.19959 0.19573
0.40446 0.21688 0.15923
0.66761 0.23848 0.13716
0.80983 0.22473 0.12925
0.03928 0.39713 0.32258
0.19291 0.40469 0.30867
0.42213 0.42533 0.27956
0.69632 0.45188 0.25157
0.84704 0.42760 0.23175
0.00000 0.63407 0.43346
0.18816 0.64327 0.42368
0.44805 0.67022 0.39821
0.73459 0.70436 0.36794
0.88629 0.69882 0.34816
0.00000 0.80316 0.48974
0.00000 0.81079 0.48194
0.38625 0.83726 0.45560
0.72073 0.88285 0.42193
0.90375 0.90616 0.40042
0.08040 0.04539 0.30113
0.20724 0.04383 0.26560
0.42320 0.07047 0.21824
0.67000 0.09800 0.17881
0.80900 0.13226 0.18063
0.08158 0.22062 0.38535
0.21560 0.22631 0.36230
0.43875 0.24665 0.31974
0.68924 0.25853 0.26777
0.82279 0.23259 0.23876
0.09782 0.42673 0.49513
0.23511 0.43665 0.48348
0.46538 0.46223 0.45839
0.72480 0.48932 0.43021
0.86645 0.45106 0.39789
0.12304 0.65837 0.62737
0.26057 0.66953 0.62013
0.50212 0.69934 0.59957
0.76279 0.73321 0.57493
0.91043 0.72464 0.55981
0.00419 0.82204 0.71483
0.19562 0.82996 0.70996
0.44765 0.85632 0.69127
0.74185 0.89840 0.66459
0.93010 0.91886 0.65854
0.12834 0.09291 0.50532
0.24853 0.09743 0.47470
0.46360 0.11697 0.41641
0.69839 0.13184 0.36258
0.82327 0.10864 0.33332
0.13277 0.26235 0.58257
0.26152 0.26816 0.56074
0.48700 0.28771 0.51341
0.72258 0.29682 0.45721
0.84182 0.25132 0.40812
0.16716 0.47107 0.69383
0.29432 0.48237 0.68084
0.52228 0.50983 0.64973
0.75938 0.52976 0.61397
0.88779 0.48815 0.57536
0.20926 0.68508 0.80915
0.32695 0.69735 0.79955
0.55548 0.72822 0.77400
0.79918 0.75953 0.74455
0.92943 0.75095 0.72410
0.16949 0.83638 0.90018
0.27541 0.84497 0.89381
0.49983 0.87189 0.87251
0.77619 0.91239 0.83964
0.94339 0.93091 0.81885
0.24864 0.18350 0.72797
0.35536 0.18726 0.70147
0.55159 0.18492 0.61636
0.74689 0.16927 0.55602
0.84368 0.09035 0.50682
0.20050 0.33392 0.76291
0.32746 0.34448 0.74317
0.56342 0.36937 0.69757
0.76653 0.36257 0.63812
0.86479 0.29391 0.57528
0.25453 0.53273 0.85417
0.37307 0.54691 0.84279
0.60038 0.57914 0.81110
0.80518 0.59896 0.77458
0.91174 0.56154 0.73345
0.30750 0.72189 0.94084
0.41372 0.73515 0.93282
0.62967 0.76630 0.91103
0.83585 0.79273 0.88140
0.94389 0.78521 0.85502
0.27738 0.85345 0.98040
0.37114 0.86381 0.97906
0.58425 0.89248 0.97198
0.82114 0.92706 0.95622
0.95755 0.94416 0.93944
