_SYSTEM/luts/Provia to Bleach Bypass DisplayP3.cube
# DisplayP3
# github.com/abpy/FujifilmCameraProfiles
LUT_3D_SIZE 32
0.01693 0.01763 0.01587
0.02953 0.01692 0.01603
0.04186 0.01521 0.01439
0.05559 0.01464 0.01291
0.06928 0.01489 0.01170
0.08315 0.01571 0.01039
0.09734 0.01732 0.00925
0.11233 0.02021 0.00845
0.12804 0.02291 0.00765
0.14486 0.02534 0.00704
0.16308 0.02809 0.00666
0.18254 0.03101 0.00651
0.20294 0.03408 0.00661
0.22390 0.03719 0.00694
0.24508 0.04021 0.00753
0.26626 0.04313 0.00848
0.28725 0.04595 0.00985
0.30792 0.04869 0.01163
0.32823 0.05137 0.01382
0.34817 0.05407 0.01642
0.36776 0.05685 0.01942
0.38702 0.05987 0.02286
0.40600 0.06327 0.02675
0.42475 0.06725 0.03112
0.44332 0.07199 0.03599
0.46179 0.07764 0.04138
0.48023 0.08433 0.04727
0.49871 0.09212 0.05373
0.51733 0.10105 0.06074
0.53616 0.11108 0.06827
0.55528 0.12216 0.07628
0.57472 0.13416 0.08465
0.02409 0.04083 0.02121
0.03772 0.04139 0.02183
0.05116 0.04182 0.02146
0.06525 0.04245 0.02095
0.07931 0.04349 0.02015
0.09307 0.04395 0.01904
0.10691 0.04448 0.01786
0.12112 0.04519 0.01647
0.13605 0.04593 0.01509
0.15235 0.04728 0.01401
0.17013 0.04905 0.01315
0.18919 0.05096 0.01255
0.20920 0.05307 0.01226
0.22975 0.05517 0.01220
0.25055 0.05717 0.01246
0.27138 0.05920 0.01314
0.29205 0.06125 0.01427
0.31243 0.06330 0.01584
0.33249 0.06538 0.01784
0.35222 0.06754 0.02028
0.37163 0.06984 0.02315
0.39075 0.07240 0.02647
0.40960 0.07538 0.03026
0.42824 0.07895 0.03453
0.44673 0.08326 0.03932
0.46511 0.08847 0.04466
0.48347 0.09471 0.05055
0.50188 0.10204 0.05700
0.52043 0.11052 0.06400
0.53920 0.12011 0.07154
0.55827 0.13077 0.07954
0.57767 0.14237 0.08792
0.02989 0.06205 0.02541
0.04548 0.06370 0.02675
0.06005 0.06510 0.02732
0.07408 0.06642 0.02718
0.08768 0.06727 0.02655
0.10105 0.06740 0.02568
0.11458 0.06770 0.02451
0.12837 0.06744 0.02300
0.14306 0.06736 0.02158
0.15921 0.06796 0.02035
0.17677 0.06868 0.01923
0.19561 0.06966 0.01840
0.21537 0.07091 0.01785
0.23562 0.07214 0.01751
0.25612 0.07338 0.01752
0.27666 0.07476 0.01799
0.29706 0.07623 0.01892
0.31720 0.07775 0.02031
0.33704 0.07936 0.02216
0.35659 0.08110 0.02445
0.37585 0.08302 0.02720
0.39484 0.08523 0.03042
0.41358 0.08787 0.03412
0.43213 0.09109 0.03831
0.45052 0.09506 0.04310
0.46882 0.09991 0.04842
0.48710 0.10576 0.05430
0.50544 0.11269 0.06075
0.52393 0.12076 0.06775
0.54264 0.12995 0.07528
0.56166 0.14021 0.08328
0.58101 0.15144 0.09165
0.03843 0.08230 0.03124
0.05528 0.08400 0.03268
0.06872 0.08566 0.03332
0.08218 0.08734 0.03338
0.09543 0.08866 0.03297
0.10864 0.08967 0.03219
0.12202 0.09031 0.03106
0.13584 0.09022 0.02983
0.15069 0.09036 0.02860
0.16688 0.09065 0.02736
0.18443 0.09076 0.02620
0.20322 0.09121 0.02533
0.22280 0.09180 0.02462
0.24281 0.09229 0.02408
0.26307 0.09291 0.02391
0.28338 0.09374 0.02421
0.30352 0.09468 0.02497
0.32343 0.09571 0.02619
0.34307 0.09688 0.02789
0.36244 0.09822 0.03005
0.38155 0.09978 0.03269
0.40041 0.10166 0.03580
0.41905 0.10398 0.03946
0.43749 0.10688 0.04373
0.45579 0.11051 0.04850
0.47400 0.11499 0.05382
0.49220 0.12044 0.05969
0.51046 0.12696 0.06613
0.52887 0.13458 0.07312
0.54752 0.14333 0.08065
0.56647 0.15314 0.08866
0.58576 0.16393 0.09703
0.05154 0.10164 0.03845
0.06593 0.10312 0.03967
0.07767 0.10461 0.04023
0.09017 0.10636 0.04030
0.10291 0.10812 0.03982
0.11582 0.10970 0.03890
0.12911 0.11087 0.03777
0.14311 0.11167 0.03660
0.15817 0.11246 0.03538
0.17456 0.11295 0.03425
0.19234 0.11326 0.03337
0.21122 0.11372 0.03264
0.23077 0.11398 0.03191
0.25071 0.11411 0.03135
0.27090 0.11445 0.03117
0.29107 0.11495 0.03141
0.31106 0.11551 0.03207
0.33081 0.11620 0.03319
0.35032 0.11706 0.03479
0.36958 0.11811 0.03691
0.38859 0.11941 0.03962
0.40737 0.12104 0.04288
0.42593 0.12312 0.04663
0.44430 0.12578 0.05089
0.46253 0.12913 0.05567
0.48067 0.13331 0.06099
0.49879 0.13842 0.06687
0.51698 0.14456 0.07330
0.53532 0.15177 0.08030
0.55390 0.16008 0.08783
0.57279 0.16946 0.09583
0.59203 0.17980 0.10421
0.06508 0.12050 0.04657
0.07665 0.12171 0.04742
0.08685 0.12301 0.04781
0.09832 0.12465 0.04779
0.11042 0.12646 0.04726
0.12296 0.12825 0.04630
0.13611 0.12990 0.04509
0.15015 0.13143 0.04380
0.16535 0.13280 0.04258
0.18199 0.13390 0.04167
0.20001 0.13484 0.04100
0.21902 0.13560 0.04032
0.23868 0.13602 0.03967
0.25877 0.13635 0.03928
0.27904 0.13679 0.03924
0.29923 0.13723 0.03956
0.31920 0.13767 0.04030
0.33894 0.13826 0.04154
0.35844 0.13901 0.04328
0.37770 0.13995 0.04556
0.39672 0.14114 0.04837
0.41550 0.14268 0.05168
0.43406 0.14465 0.05550
0.45243 0.14718 0.05981
0.47064 0.15038 0.06464
0.48875 0.15436 0.06999
0.50684 0.15923 0.07589
0.52498 0.16508 0.08234
0.54327 0.17196 0.08934
0.56180 0.17990 0.09687
0.58064 0.18888 0.10489
0.59983 0.19882 0.11329
0.07763 0.13960 0.05412
0.08721 0.14059 0.05467
0.09620 0.14168 0.05494
0.10677 0.14314 0.05492
0.11829 0.14485 0.05449
0.13049 0.14669 0.05368
0.14345 0.14858 0.05262
0.15741 0.15045 0.05149
0.17266 0.15223 0.05050
0.18938 0.15388 0.04973
0.20743 0.15532 0.04908
0.22652 0.15651 0.04854
0.24638 0.15748 0.04824
0.26672 0.15836 0.04822
0.28718 0.15915 0.04843
0.30751 0.15980 0.04892
0.32762 0.16045 0.04981
0.34749 0.16121 0.05118
0.36713 0.16208 0.05308
0.38653 0.16312 0.05553
0.40568 0.16442 0.05853
0.42459 0.16604 0.06201
0.44326 0.16808 0.06599
0.46171 0.17064 0.07044
0.47999 0.17383 0.07538
0.49814 0.17774 0.08081
0.51625 0.18248 0.08676
0.53440 0.18815 0.09325
0.55268 0.19480 0.10027
0.57119 0.20247 0.10783
0.59000 0.21114 0.11588
0.60917 0.22073 0.12431
0.08987 0.15965 0.06128
0.09807 0.16050 0.06172
0.10607 0.16145 0.06199
0.11582 0.16273 0.06208
0.12679 0.16428 0.06189
0.13866 0.16604 0.06140
0.15143 0.16793 0.06069
0.16528 0.16988 0.05988
0.18046 0.17185 0.05907
0.19708 0.17376 0.05830
0.21505 0.17555 0.05769
0.23418 0.17721 0.05739
0.25420 0.17878 0.05746
0.27471 0.18019 0.05775
0.29533 0.18138 0.05818
0.31586 0.18244 0.05890
0.33621 0.18352 0.06005
0.35634 0.18467 0.06168
0.37624 0.18589 0.06388
0.39590 0.18727 0.06666
0.41532 0.18887 0.06997
0.43448 0.19078 0.07376
0.45338 0.19308 0.07802
0.47203 0.19584 0.08271
0.49047 0.19916 0.08784
0.50876 0.20315 0.09342
0.52697 0.20791 0.09948
0.54519 0.21352 0.10603
0.56351 0.22005 0.11310
0.58204 0.22755 0.12070
0.60086 0.23599 0.12880
0.62004 0.24532 0.13730
0.10203 0.18148 0.06916
0.10922 0.18220 0.06955
0.11650 0.18300 0.06986
0.12565 0.18411 0.07011
0.13622 0.18550 0.07018
0.14784 0.18711 0.07002
0.16045 0.18889 0.06967
0.17418 0.19079 0.06917
0.18921 0.19276 0.06858
0.20565 0.19477 0.06801
0.22348 0.19678 0.06764
0.24257 0.19877 0.06761
0.26257 0.20067 0.06786
0.28310 0.20238 0.06826
0.30382 0.20394 0.06885
0.32455 0.20548 0.06982
0.34515 0.20708 0.07125
0.36557 0.20870 0.07320
0.38580 0.21042 0.07577
0.40582 0.21230 0.07897
0.42559 0.21439 0.08270
0.44511 0.21677 0.08691
0.46435 0.21948 0.09155
0.48332 0.22261 0.09658
0.50203 0.22623 0.10198
0.52055 0.23044 0.10778
0.53894 0.23534 0.11399
0.55730 0.24102 0.12065
0.57573 0.24754 0.12779
0.59433 0.25496 0.13546
0.61321 0.26328 0.14364
0.63242 0.27243 0.15223
0.11486 0.20531 0.07791
0.12138 0.20596 0.07837
0.12811 0.20668 0.07877
0.13675 0.20768 0.07918
0.14691 0.20892 0.07951
0.15826 0.21038 0.07968
0.17069 0.21201 0.07970
0.18427 0.21380 0.07960
0.19914 0.21572 0.07943
0.21541 0.21774 0.07929
0.23310 0.21983 0.07931
0.25204 0.22192 0.07952
0.27192 0.22393 0.07988
0.29238 0.22583 0.08038
0.31313 0.22772 0.08117
0.33398 0.22969 0.08238
0.35478 0.23171 0.08405
0.37546 0.23378 0.08626
0.39602 0.23601 0.08918
0.41641 0.23845 0.09277
0.43659 0.24112 0.09693
0.45654 0.24406 0.10160
0.47621 0.24732 0.10669
0.49558 0.25094 0.11211
0.51466 0.25499 0.11784
0.53351 0.25955 0.12389
0.55218 0.26471 0.13029
0.57076 0.27057 0.13707
0.58935 0.27718 0.14431
0.60807 0.28462 0.15206
0.62705 0.29289 0.16036
0.64633 0.30192 0.16910
0.12860 0.23144 0.08721
0.13453 0.23203 0.08770
0.14078 0.23268 0.08818
0.14896 0.23357 0.08873
0.15876 0.23469 0.08930
0.16988 0.23601 0.08983
0.18218 0.23752 0.09029
0.19566 0.23921 0.09071
0.21043 0.24106 0.09111
0.22659 0.24305 0.09156
0.24414 0.24514 0.09208
0.26290 0.24726 0.09268
0.28259 0.24936 0.09334
0.30291 0.25146 0.09412
0.32361 0.25362 0.09514
0.34448 0.25585 0.09654
0.36539 0.25814 0.09837
0.38627 0.26057 0.10082
0.40710 0.26324 0.10405
0.42784 0.26618 0.10800
0.44844 0.26941 0.11258
0.46885 0.27295 0.11773
0.48900 0.27680 0.12330
0.50886 0.28098 0.12916
0.52842 0.28554 0.13528
0.54769 0.29054 0.14164
0.56673 0.29606 0.14826
0.58560 0.30217 0.15520
0.60441 0.30895 0.16255
0.62329 0.31647 0.17044
0.64240 0.32475 0.17891
0.66178 0.33374 0.18785
0.14329 0.25963 0.09723
0.14881 0.26017 0.09780
0.15470 0.26077 0.09839
0.16251 0.26159 0.09913
0.17202 0.26264 0.09999
0.18295 0.26388 0.10091
0.19516 0.26533 0.10188
0.20860 0.26696 0.10290
0.22334 0.26877 0.10398
0.23942 0.27075 0.10513
0.25681 0.27287 0.10631
0.27535 0.27507 0.10748
0.29482 0.27732 0.10860
0.31496 0.27961 0.10972
0.33552 0.28196 0.11098
0.35633 0.28437 0.11253
0.37727 0.28688 0.11452
0.39827 0.28961 0.11717
0.41931 0.29265 0.12057
0.44034 0.29601 0.12471
0.46131 0.29973 0.12956
0.48217 0.30380 0.13503
0.50283 0.30820 0.14095
0.52321 0.31293 0.14715
0.54329 0.31803 0.15357
0.56305 0.32351 0.16019
0.58252 0.32943 0.16700
0.60173 0.33584 0.17408
0.62081 0.34283 0.18157
0.63990 0.35047 0.18965
0.65917 0.35881 0.19840
0.67867 0.36776 0.20770
0.15930 0.28938 0.10872
0.16446 0.28990 0.10939
0.17004 0.29048 0.11011
0.17755 0.29128 0.11107
0.18681 0.29230 0.11223
0.19761 0.29354 0.11356
0.20975 0.29498 0.11505
0.22318 0.29662 0.11667
0.23789 0.29848 0.11843
0.25390 0.30053 0.12029
0.27113 0.30275 0.12216
0.28946 0.30509 0.12395
0.30870 0.30752 0.12561
0.32862 0.31001 0.12719
0.34902 0.31258 0.12884
0.36974 0.31523 0.13071
0.39067 0.31804 0.13296
0.41175 0.32110 0.13577
0.43295 0.32447 0.13925
0.45422 0.32820 0.14344
0.47554 0.33233 0.14840
0.49681 0.33685 0.15401
0.51795 0.34173 0.16007
0.53885 0.34697 0.16641
0.55946 0.35256 0.17296
0.57972 0.35850 0.17964
0.59961 0.36480 0.18648
0.61916 0.37150 0.19356
0.63850 0.37870 0.20107
0.65779 0.38647 0.20926
0.67720 0.39484 0.21824
0.69681 0.40373 0.22783
0.17679 0.32026 0.12218
0.18169 0.32079 0.12296
0.18704 0.32137 0.12381
0.19429 0.32219 0.12497
0.20335 0.32324 0.12640
0.21400 0.32453 0.12810
0.22608 0.32604 0.13005
0.23948 0.32778 0.13222
0.25416 0.32974 0.13459
0.27006 0.33193 0.13706
0.28713 0.33430 0.13956
0.30526 0.33684 0.14199
0.32427 0.33952 0.14431
0.34398 0.34231 0.14655
0.36421 0.34520 0.14877
0.38483 0.34820 0.15110
0.40574 0.35139 0.15367
0.42687 0.35483 0.15664
0.44821 0.35856 0.16016
0.46971 0.36267 0.16437
0.49135 0.36718 0.16933
0.51302 0.37211 0.17490
0.53460 0.37743 0.18091
0.55599 0.38311 0.18720
0.57709 0.38913 0.19366
0.59779 0.39545 0.20021
0.61804 0.40207 0.20686
0.63787 0.40901 0.21374
0.65740 0.41635 0.22111
0.67683 0.42418 0.22927
0.69633 0.43252 0.23836
0.71597 0.44128 0.24813
0.19593 0.35197 0.13745
0.20059 0.35253 0.13834
0.20572 0.35315 0.13933
0.21274 0.35403 0.14070
0.22160 0.35516 0.14243
0.23211 0.35656 0.14450
0.24411 0.35820 0.14688
0.25746 0.36009 0.14952
0.27207 0.36223 0.15239
0.28789 0.36460 0.15540
0.30483 0.36721 0.15849
0.32277 0.37002 0.16158
0.34157 0.37301 0.16461
0.36108 0.37615 0.16755
0.38115 0.37944 0.17042
0.40166 0.38288 0.17327
0.42255 0.38653 0.17622
0.44374 0.39040 0.17942
0.46522 0.39456 0.18305
0.48696 0.39909 0.18729
0.50889 0.40402 0.19217
0.53091 0.40936 0.19760
0.55289 0.41510 0.20344
0.57469 0.42118 0.20953
0.59618 0.42756 0.21574
0.61721 0.43418 0.22195
0.63770 0.44101 0.22819
0.65769 0.44807 0.23466
0.67729 0.45545 0.24169
0.69674 0.46322 0.24963
0.71623 0.47142 0.25863
0.73580 0.47992 0.26837
0.21680 0.38453 0.15490
0.22127 0.38514 0.15591
0.22622 0.38582 0.15703
0.23305 0.38678 0.15858
0.24172 0.38802 0.16055
0.25208 0.38955 0.16290
0.26396 0.39136 0.16560
0.27723 0.39345 0.16861
0.29178 0.39581 0.17190
0.30751 0.39843 0.17538
0.32431 0.40131 0.17899
0.34208 0.40442 0.18266
0.36067 0.40776 0.18632
0.37999 0.41129 0.18991
0.39990 0.41502 0.19341
0.42032 0.41895 0.19682
0.44118 0.42308 0.20020
0.46244 0.42745 0.20369
0.48406 0.43211 0.20750
0.50599 0.43711 0.21177
0.52816 0.44249 0.21655
0.55046 0.44826 0.22179
0.57274 0.45438 0.22738
0.59483 0.46081 0.23317
0.61655 0.46747 0.23897
0.63774 0.47427 0.24469
0.65831 0.48119 0.25035
0.67828 0.48824 0.25621
0.69781 0.49551 0.26268
0.71715 0.50309 0.27017
0.73649 0.51099 0.27882
0.75585 0.51907 0.28823
0.23958 0.41814 0.17468
0.24387 0.41880 0.17576
0.24865 0.41955 0.17697
0.25529 0.42060 0.17864
0.26376 0.42198 0.18078
0.27396 0.42367 0.18335
0.28573 0.42568 0.18631
0.29891 0.42799 0.18961
0.31338 0.43059 0.19321
0.32899 0.43348 0.19705
0.34564 0.43664 0.20107
0.36322 0.44007 0.20519
0.38162 0.44375 0.20934
0.40074 0.44768 0.21346
0.42050 0.45184 0.21748
0.44082 0.45624 0.22137
0.46166 0.46086 0.22517
0.48295 0.46574 0.22899
0.50465 0.47090 0.23300
0.52671 0.47639 0.23731
0.54903 0.48222 0.24199
0.57149 0.48838 0.24701
0.59390 0.49484 0.25228
0.61609 0.50151 0.25765
0.63784 0.50832 0.26293
0.65899 0.51517 0.26801
0.67943 0.52204 0.27297
0.69921 0.52893 0.27806
0.71851 0.53594 0.28376
0.73759 0.54317 0.29055
0.75664 0.55062 0.29854
0.77566 0.55813 0.30726
0.26426 0.45305 0.19674
0.26842 0.45377 0.19788
0.27306 0.45459 0.19915
0.27953 0.45575 0.20091
0.28784 0.45726 0.20316
0.29788 0.45912 0.20587
0.30950 0.46132 0.20899
0.32254 0.46384 0.21248
0.33686 0.46668 0.21628
0.35232 0.46982 0.22035
0.36879 0.47326 0.22462
0.38618 0.47698 0.22903
0.40437 0.48098 0.23350
0.42330 0.48527 0.23796
0.44289 0.48982 0.24235
0.46310 0.49464 0.24663
0.48386 0.49971 0.25080
0.50512 0.50505 0.25494
0.52682 0.51067 0.25913
0.54889 0.51658 0.26346
0.57121 0.52278 0.26799
0.59364 0.52924 0.27272
0.61598 0.53590 0.27756
0.63803 0.54267 0.28237
0.65959 0.54947 0.28699
0.68047 0.55622 0.29132
0.70060 0.56288 0.29544
0.72002 0.56948 0.29965
0.73894 0.57611 0.30443
0.75763 0.58286 0.31029
0.77627 0.58973 0.31731
0.79482 0.59656 0.32497
0.29075 0.48933 0.22067
0.29478 0.49011 0.22184
0.29929 0.49100 0.22313
0.30560 0.49225 0.22494
0.31373 0.49388 0.22726
0.32360 0.49589 0.23006
0.33505 0.49826 0.23328
0.34793 0.50098 0.23688
0.36208 0.50404 0.24080
0.37736 0.50741 0.24499
0.39363 0.51108 0.24938
0.41079 0.51506 0.25392
0.42876 0.51934 0.25855
0.44747 0.52392 0.26320
0.46687 0.52879 0.26782
0.48689 0.53394 0.27235
0.50750 0.53936 0.27678
0.52863 0.54505 0.28111
0.55020 0.55101 0.28539
0.57212 0.55722 0.28966
0.59425 0.56364 0.29396
0.61643 0.57023 0.29828
0.63847 0.57692 0.30254
0.66016 0.58363 0.30665
0.68130 0.59026 0.31045
0.70173 0.59676 0.31391
0.72138 0.60309 0.31710
0.74032 0.60929 0.32034
0.75876 0.61544 0.32410
0.77694 0.62163 0.32885
0.79505 0.62786 0.33465
0.81302 0.63397 0.34093
0.31890 0.52688 0.24613
0.32281 0.52772 0.24731
0.32721 0.52865 0.24862
0.33336 0.52998 0.25046
0.34132 0.53171 0.25281
0.35100 0.53384 0.25564
0.36225 0.53636 0.25890
0.37491 0.53923 0.26251
0.38883 0.54245 0.26644
0.40386 0.54600 0.27063
0.41987 0.54987 0.27502
0.43676 0.55405 0.27957
0.45446 0.55854 0.28422
0.47290 0.56333 0.28891
0.49203 0.56841 0.29358
0.51179 0.57377 0.29819
0.53214 0.57941 0.30268
0.55300 0.58530 0.30705
0.57428 0.59143 0.31128
0.59586 0.59775 0.31536
0.61760 0.60421 0.31929
0.63933 0.61076 0.32305
0.66086 0.61730 0.32659
0.68200 0.62377 0.32984
0.70255 0.63009 0.33271
0.72238 0.63621 0.33519
0.74145 0.64213 0.33739
0.75982 0.64787 0.33961
0.77770 0.65351 0.34228
0.79530 0.65912 0.34580
0.81279 0.66469 0.35018
0.83010 0.67008 0.35486
0.34852 0.56536 0.27270
0.35230 0.56622 0.27387
0.35656 0.56719 0.27517
0.36254 0.56857 0.27699
0.37028 0.57037 0.27931
0.37971 0.57258 0.28211
0.39069 0.57519 0.28532
0.40307 0.57817 0.28887
0.41669 0.58151 0.29272
0.43140 0.58519 0.29681
0.44709 0.58918 0.30110
0.46365 0.59349 0.30553
0.48099 0.59809 0.31006
0.49908 0.60298 0.31463
0.51784 0.60816 0.31919
0.53724 0.61360 0.32368
0.55720 0.61930 0.32806
0.57764 0.62522 0.33226
0.59847 0.63133 0.33625
0.61954 0.63758 0.33997
0.64072 0.64391 0.34339
0.66184 0.65023 0.34648
0.68270 0.65648 0.34920
0.70314 0.66258 0.35150
0.72299 0.66849 0.35337
0.74214 0.67417 0.35483
0.76056 0.67963 0.35600
0.77831 0.68490 0.35718
0.79556 0.69003 0.35871
0.81253 0.69507 0.36091
0.82934 0.70001 0.36375
0.84593 0.70473 0.36668
0.37917 0.60422 0.29991
0.38281 0.60510 0.30104
0.38692 0.60609 0.30231
0.39269 0.60750 0.30407
0.40018 0.60933 0.30632
0.40931 0.61159 0.30902
0.41996 0.61425 0.31211
0.43198 0.61729 0.31553
0.44521 0.62068 0.31921
0.45952 0.62441 0.32310
0.47478 0.62845 0.32716
0.49090 0.63278 0.33135
0.50780 0.63740 0.33562
0.52543 0.64229 0.33992
0.54372 0.64743 0.34419
0.56263 0.65282 0.34839
0.58208 0.65842 0.35245
0.60198 0.66421 0.35630
0.62221 0.67014 0.35987
0.64265 0.67616 0.36309
0.66315 0.68219 0.36591
0.68353 0.68816 0.36827
0.70363 0.69400 0.37014
0.72329 0.69967 0.37149
0.74238 0.70513 0.37235
0.76080 0.71037 0.37278
0.77852 0.71537 0.37292
0.79561 0.72018 0.37301
0.81220 0.72483 0.37334
0.82849 0.72934 0.37415
0.84459 0.73370 0.37536
0.86044 0.73780 0.37648
0.41035 0.64291 0.32725
0.41384 0.64378 0.32832
0.41777 0.64478 0.32951
0.42329 0.64618 0.33118
0.43047 0.64802 0.33330
0.43924 0.65027 0.33585
0.44947 0.65293 0.33875
0.46105 0.65596 0.34194
0.47380 0.65934 0.34537
0.48761 0.66304 0.34897
0.50235 0.66703 0.35271
0.51794 0.67130 0.35654
0.53430 0.67583 0.36042
0.55137 0.68060 0.36432
0.56910 0.68560 0.36819
0.58743 0.69080 0.37196
0.60626 0.69618 0.37557
0.62552 0.70171 0.37894
0.64507 0.70733 0.38199
0.66479 0.71299 0.38464
0.68451 0.71863 0.38681
0.70410 0.72417 0.38844
0.72339 0.72957 0.38949
0.74225 0.73480 0.38994
0.76055 0.73983 0.38984
0.77821 0.74463 0.38925
0.79521 0.74922 0.38833
0.81160 0.75359 0.38727
0.82751 0.75778 0.38633
0.84310 0.76181 0.38566
0.85848 0.76565 0.38518
0.87361 0.76921 0.38444
0.44144 0.68079 0.35413
0.44474 0.68165 0.35512
0.44846 0.68263 0.35622
0.45370 0.68400 0.35775
0.46052 0.68580 0.35970
0.46886 0.68800 0.36204
0.47862 0.69060 0.36470
0.48968 0.69356 0.36761
0.50188 0.69685 0.37072
0.51512 0.70045 0.37397
0.52927 0.70431 0.37731
0.54425 0.70843 0.38072
0.56000 0.71277 0.38417
0.57645 0.71734 0.38761
0.59355 0.72209 0.39100
0.61123 0.72702 0.39429
0.62940 0.73210 0.39740
0.64795 0.73727 0.40025
0.66677 0.74251 0.40275
0.68571 0.74775 0.40481
0.70464 0.75295 0.40635
0.72342 0.75806 0.40729
0.74189 0.76304 0.40757
0.75994 0.76785 0.40718
0.77744 0.77247 0.40615
0.79433 0.77688 0.40455
0.81058 0.78107 0.40252
0.82625 0.78505 0.40024
0.84146 0.78883 0.39794
0.85636 0.79243 0.39572
0.87105 0.79582 0.39348
0.88548 0.79890 0.39085
0.47182 0.71728 0.38005
0.47493 0.71810 0.38094
0.47843 0.71903 0.38193
0.48337 0.72035 0.38332
0.48981 0.72207 0.38508
0.49769 0.72419 0.38718
0.50695 0.72668 0.38957
0.51745 0.72951 0.39219
0.52907 0.73266 0.39497
0.54169 0.73608 0.39786
0.55522 0.73975 0.40082
0.56957 0.74365 0.40382
0.58468 0.74776 0.40684
0.60048 0.75206 0.40983
0.61691 0.75652 0.41277
0.63391 0.76112 0.41558
0.65137 0.76584 0.41819
0.66919 0.77063 0.42054
0.68725 0.77546 0.42251
0.70542 0.78029 0.42401
0.72355 0.78508 0.42495
0.74152 0.78978 0.42524
0.75917 0.79435 0.42480
0.77639 0.79877 0.42361
0.79308 0.80302 0.42167
0.80918 0.80706 0.41905
0.82467 0.81089 0.41588
0.83962 0.81451 0.41232
0.85415 0.81793 0.40855
0.86838 0.82116 0.40467
0.88240 0.82417 0.40058
0.89617 0.82687 0.39602
0.50133 0.75192 0.40486
0.50423 0.75270 0.40566
0.50752 0.75357 0.40655
0.51216 0.75482 0.40779
0.51821 0.75644 0.40938
0.52565 0.75844 0.41127
0.53440 0.76079 0.41342
0.54434 0.76346 0.41576
0.55537 0.76642 0.41825
0.56739 0.76964 0.42083
0.58029 0.77309 0.42346
0.59399 0.77674 0.42610
0.60844 0.78058 0.42874
0.62357 0.78458 0.43134
0.63931 0.78872 0.43385
0.65560 0.79298 0.43623
0.67233 0.79733 0.43840
0.68941 0.80175 0.44028
0.70670 0.80619 0.44176
0.72407 0.81062 0.44274
0.74140 0.81502 0.44312
0.75853 0.81933 0.44278
0.77534 0.82352 0.44166
0.79173 0.82757 0.43968
0.80760 0.83146 0.43686
0.82291 0.83516 0.43322
0.83765 0.83866 0.42887
0.85189 0.84197 0.42394
0.86574 0.84509 0.41858
0.87933 0.84803 0.41289
0.89270 0.85075 0.40683
0.90584 0.85317 0.40025
0.53035 0.78468 0.42899
0.53307 0.78541 0.42972
0.53615 0.78623 0.43052
0.54050 0.78739 0.43165
0.54619 0.78891 0.43309
0.55318 0.79077 0.43480
0.56142 0.79296 0.43675
0.57082 0.79545 0.43888
0.58126 0.79820 0.44112
0.59265 0.80119 0.44344
0.60491 0.80439 0.44578
0.61795 0.80778 0.44812
0.63171 0.81133 0.45043
0.64613 0.81502 0.45267
0.66115 0.81883 0.45482
0.67668 0.82274 0.45680
0.69264 0.82672 0.45856
0.70892 0.83076 0.46001
0.72540 0.83481 0.46104
0.74194 0.83886 0.46153
0.75841 0.84287 0.46136
0.77468 0.84680 0.46044
0.79063 0.85062 0.45865
0.80616 0.85430 0.45592
0.82120 0.85784 0.45221
0.83572 0.86122 0.44752
0.84971 0.86444 0.44191
0.86326 0.86750 0.43548
0.87644 0.87040 0.42837
0.88938 0.87314 0.42069
0.90212 0.87567 0.41250
0.91464 0.87793 0.40383
0.55988 0.81610 0.45344
0.56242 0.81676 0.45410
0.56529 0.81752 0.45484
0.56935 0.81858 0.45586
0.57466 0.81996 0.45717
0.58120 0.82167 0.45873
0.58892 0.82366 0.46049
0.59772 0.82593 0.46241
0.60753 0.82845 0.46442
0.61825 0.83117 0.46649
0.62979 0.83409 0.46856
0.64210 0.83717 0.47061
0.65510 0.84040 0.47260
0.66874 0.84374 0.47450
0.68295 0.84719 0.47629
0.69765 0.85072 0.47790
0.71276 0.85432 0.47927
0.72816 0.85796 0.48030
0.74374 0.86161 0.48089
0.75937 0.86526 0.48091
0.77492 0.86886 0.48023
0.79026 0.87239 0.47873
0.80530 0.87583 0.47629
0.81994 0.87915 0.47279
0.83414 0.88236 0.46814
0.84785 0.88545 0.46230
0.86109 0.88842 0.45528
0.87393 0.89129 0.44715
0.88644 0.89405 0.43805
0.89871 0.89669 0.42815
0.91080 0.89918 0.41765
0.92270 0.90141 0.40681
0.59107 0.84703 0.47945
0.59340 0.84762 0.48004
0.59604 0.84828 0.48068
0.59977 0.84921 0.48158
