_SYSTEM/luts/Universal LUT - Punch Overlay.cube
# Converted by Briz LUT Converter
LUT_3D_SIZE 5
DOMAIN_MIN 0.000000 0.000000 0.000000
DOMAIN_MAX 0.903226 0.903226 0.903226
0.000000 0.000000 0.000000
0.026361 0.000000 0.000000
0.283543 0.000000 0.003027
0.609845 0.000000 0.000000
0.971715 0.000000 0.000000
0.001514 0.059408 0.000000
0.028416 0.059408 0.000000
0.280858 0.058094 0.001172
0.610231 0.058138 0.000000
0.972661 0.059408 0.000000
0.003027 0.311796 0.000000
0.027533 0.312338 0.000000
0.280032 0.311113 0.000000
0.611895 0.311939 0.000000
0.972661 0.312195 0.000000
0.000000 0.630026 0.000000
0.024738 0.630026 0.002010
0.281004 0.630026 0.000883
0.609417 0.629924 0.000631
0.970069 0.631478 0.000000
0.000000 0.976950 0.001766
0.026361 0.976950 0.001766
0.281399 0.976950 0.002059
0.609845 0.978748 0.003279
0.973837 0.975255 0.001973
0.001514 0.002396 0.100905
0.026947 0.000928 0.100905
0.279975 0.000000 0.103932
0.611114 0.002010 0.102671
0.972661 0.000830 0.101735
0.001469 0.059408 0.100905
0.027289 0.060545 0.100005
0.279498 0.058964 0.100573
0.611171 0.059707 0.100668
0.971195 0.059408 0.100905
0.000342 0.311796 0.100563
0.027840 0.312006 0.099723
0.281643 0.311796 0.101536
0.610430 0.314390 0.100329
0.973600 0.310779 0.099489
0.001514 0.632036 0.100518
0.026947 0.630804 0.102616
0.282713 0.630026 0.102087
0.608899 0.629821 0.099321
0.972661 0.630026 0.098761
0.001998 0.975056 0.104815
0.027643 0.976216 0.103501
0.280565 0.977967 0.102126
0.609978 0.975054 0.102794
0.971566 0.976494 0.103264
0.000883 0.003027 0.346104
0.028559 0.001172 0.346104
0.282859 0.000000 0.349131
0.608534 0.000000 0.345962
0.972661 0.000484 0.346104
0.000000 0.059408 0.346104
0.025853 0.059739 0.344249
0.279800 0.058879 0.346857
0.610882 0.061240 0.345805
0.972512 0.059408 0.346104
0.002344 0.311796 0.345905
0.027810 0.311919 0.345189
0.281574 0.313656 0.347610
0.609709 0.309721 0.343540
0.972126 0.311796 0.344819
0.000883 0.630026 0.343077
0.028559 0.630026 0.347030
0.282681 0.629480 0.346987
0.611073 0.630026 0.344196
0.972929 0.630026 0.343625
0.000399 0.975289 0.348354
0.027650 0.976307 0.348057
0.279980 0.975664 0.345819
0.609403 0.974972 0.347942
0.972442 0.976684 0.348620
0.000000 0.000000 0.657396
0.028758 0.000000 0.657396
0.283543 0.000000 0.660423
0.613226 0.002750 0.660045
0.973007 0.000000 0.657396
0.001269 0.059164 0.657396
0.027090 0.059313 0.655386
0.280404 0.059007 0.656942
0.611381 0.059408 0.657072
0.973975 0.059408 0.657571
0.003027 0.311796 0.657254
0.027079 0.311884 0.656588
0.281011 0.311796 0.659084
0.612264 0.311819 0.656788
0.972076 0.312535 0.655669
0.002750 0.632776 0.656867
0.027364 0.631090 0.659588
0.280516 0.632234 0.658279
0.610357 0.630111 0.655276
0.970679 0.631314 0.655013
0.000000 0.977295 0.659508
0.027444 0.977083 0.659296
0.282051 0.977356 0.658308
0.608336 0.977240 0.659213
0.972661 0.976676 0.659974
0.000000 0.000000 0.980292
0.026361 0.001314 0.982186
0.278941 0.000000 0.983382
0.609845 0.000346 0.983382
0.973629 0.000968 0.984351
0.000684 0.058326 0.983382
0.027432 0.058989 0.983382
0.281590 0.059937 0.983576
0.612066 0.059725 0.983248
0.972741 0.058687 0.983837
0.000484 0.311796 0.981722
0.026973 0.311796 0.982443
0.279876 0.311863 0.981796
0.608923 0.312017 0.983304
0.971799 0.311796 0.983117
0.000000 0.630026 0.981238
0.025047 0.630026 0.982764
0.279750 0.629947 0.983866
0.609789 0.630316 0.982164
0.971935 0.631201 0.982414
0.001766 0.976950 0.984351
0.027045 0.975190 0.983757
0.281180 0.976731 0.984293
0.611359 0.976676 0.983969
0.973837 0.976184 0.984230
