_SYSTEM/luts/Universal LUT - Punch Overlay.cube
# Converted by Briz LUT Converter
LUT_3D_SIZE 8
DOMAIN_MIN 0.000000 0.000000 0.000000
DOMAIN_MAX 0.903226 0.903226 0.903226
0.000000 0.000000 0.000000
0.000000 0.000000 0.000000
0.051588 0.000000 0.000000
0.202819 0.000000 0.000757
0.368303 0.000000 0.000000
0.559392 0.000000 0.000000
0.774446 0.000000 0.002396
0.971715 0.000000 0.000000
0.000252 0.001514 0.000000
0.000252 0.001514 0.000000
0.051620 0.001514 0.000000
0.202567 0.001514 0.000757
0.368425 0.001514 0.000000
0.559392 0.001432 0.000000
0.774389 0.001359 0.002494
0.971776 0.001514 0.000000
0.000000 0.090688 0.000000
0.000000 0.090688 0.000000
0.054993 0.091128 0.000505
0.198909 0.086778 0.000407
0.368303 0.093215 0.000505
0.562041 0.090688 0.000342
0.770731 0.088292 0.002087
0.972938 0.090688 0.000000
0.003910 0.233343 0.003153
0.003910 0.233343 0.003153
0.051588 0.232838 0.002746
0.198909 0.233343 0.002543
0.367294 0.230442 0.002340
0.560141 0.233343 0.001017
0.773563 0.233343 0.000464
0.972661 0.233343 0.001729
0.000000 0.396557 0.000000
0.000000 0.396557 0.000000
0.052092 0.400971 0.000374
0.196008 0.397566 0.000000
0.370195 0.397826 0.000749
0.559392 0.399531 0.000000
0.770271 0.397175 0.000000
0.972661 0.399332 0.000456
0.000000 0.581591 0.000000
0.000000 0.581591 0.000000
0.052796 0.581591 0.001440
0.201558 0.582608 0.000000
0.367652 0.581591 0.003910
0.560332 0.579797 0.002649
0.773673 0.581591 0.002396
0.971664 0.580830 0.000000
0.000000 0.787690 0.000000
0.000000 0.787690 0.000000
0.050269 0.785716 0.000309
0.199373 0.785757 0.000293
0.367294 0.787071 0.000000
0.560478 0.787690 0.002885
0.773518 0.787690 0.001514
0.972779 0.786607 0.002144
0.000000 0.976950 0.001766
0.000000 0.976950 0.001766
0.051311 0.976950 0.001538
0.200675 0.976950 0.001839
0.365703 0.976950 0.001310
0.559392 0.977641 0.001261
0.773132 0.976950 0.000830
0.973837 0.975255 0.001973
0.000252 0.000000 0.018667
0.000252 0.000000 0.018667
0.052060 0.000000 0.018635
0.195251 0.000000 0.014350
0.370008 0.000944 0.018667
0.559473 0.000000 0.018497
0.769905 0.000000 0.013748
0.972661 0.000138 0.018806
0.000236 0.001514 0.018667
0.000236 0.001514 0.018667
0.052013 0.001516 0.018401
0.195487 0.001497 0.014570
0.369662 0.002409 0.018431
0.559479 0.001354 0.018348
0.770182 0.001504 0.013748
0.972790 0.001643 0.018797
0.000472 0.090688 0.018635
0.000472 0.090688 0.018635
0.054367 0.090908 0.017789
0.201843 0.091069 0.017696
0.368238 0.090851 0.017341
0.562730 0.090859 0.016201
0.774050 0.090978 0.015314
0.972203 0.088959 0.016416
0.000000 0.233343 0.015213
0.000000 0.233343 0.015213
0.054767 0.233723 0.015755
0.199112 0.232201 0.015037
0.367441 0.236057 0.015111
0.561162 0.233359 0.015180
0.770788 0.233422 0.013356
0.972688 0.233231 0.017069
0.002901 0.398510 0.017536
0.002901 0.398510 0.017536
0.052125 0.397680 0.015978
0.199853 0.397566 0.017821
0.369398 0.397517 0.015937
0.560372 0.397997 0.016525
0.773751 0.397931 0.016714
0.972697 0.397536 0.015207
0.000252 0.581591 0.015010
0.000252 0.581591 0.015010
0.049924 0.582619 0.015992
0.198909 0.581729 0.015718
0.367413 0.579753 0.015833
0.559418 0.584014 0.016804
0.772147 0.581239 0.014441
0.970703 0.582124 0.016763
0.002242 0.786274 0.013846
0.002242 0.786274 0.013846
0.051623 0.790855 0.015482
0.198909 0.789931 0.014291
0.370301 0.787690 0.015954
0.559794 0.787721 0.016389
0.771543 0.787141 0.014559
0.971363 0.789342 0.013919
0.000114 0.976950 0.013256
0.000114 0.976950 0.013256
0.053455 0.974432 0.015463
0.200699 0.976390 0.013511
0.367330 0.976432 0.014960
0.560845 0.974972 0.014724
0.773121 0.976950 0.015299
0.974604 0.974662 0.014218
0.000000 0.003910 0.133699
0.000000 0.003910 0.133699
0.051588 0.000000 0.132755
0.199413 0.000000 0.133951
0.364898 0.000000 0.133195
0.559734 0.001099 0.134293
0.774137 0.001514 0.137105
0.972661 0.000000 0.133195
0.000033 0.005171 0.133667
0.000033 0.005171 0.133667
0.051616 0.001701 0.132751
0.199161 0.001514 0.133903
0.365159 0.001489 0.133105
0.559722 0.002690 0.134200
0.773880 0.002929 0.137007
0.972487 0.001514 0.133195
0.003406 0.090688 0.132690
0.003406 0.090688 0.132690
0.051531 0.090249 0.130611
0.198974 0.090688 0.133687
0.366968 0.088162 0.130506
0.560491 0.090851 0.130790
0.773677 0.090688 0.135322
0.972902 0.090894 0.132931
0.002844 0.232936 0.136348
0.002844 0.232936 0.136348
0.054619 0.233343 0.136250
0.201908 0.233440 0.135477
0.368547 0.233368 0.135689
0.561699 0.232507 0.135804
0.773494 0.232723 0.133441
0.974167 0.231659 0.133322
0.000130 0.397566 0.133195
0.000130 0.397566 0.133195
0.051701 0.396800 0.130929
0.199788 0.397868 0.131352
0.365550 0.396914 0.131791
0.559180 0.396970 0.130676
0.774187 0.397645 0.135023
0.974161 0.397374 0.132535
0.000000 0.582690 0.130383
0.000000 0.582690 0.130383
0.052027 0.581591 0.134798
0.202315 0.583223 0.133234
0.368215 0.581503 0.137016
0.558635 0.581591 0.134582
0.771156 0.579620 0.132106
0.972938 0.581591 0.131238
0.000195 0.787690 0.137105
0.000195 0.787690 0.137105
0.052736 0.787690 0.133195
0.200536 0.787885 0.136237
0.366166 0.787740 0.133195
0.560395 0.788788 0.134293
0.772927 0.787614 0.134513
0.972554 0.785652 0.134960
0.001868 0.973981 0.136828
0.001868 0.973981 0.136828
0.052020 0.976950 0.134960
0.197371 0.978817 0.134958
0.368641 0.977400 0.134902
0.559636 0.975992 0.134960
0.771539 0.976842 0.131920
0.971637 0.976769 0.135826
0.000000 0.000757 0.268533
0.000000 0.000757 0.268533
0.052654 0.000000 0.271687
0.199666 0.003153 0.271223
0.369829 0.000000 0.271687
0.559661 0.000000 0.271687
0.770580 0.000293 0.268070
0.972661 0.000000 0.271687
0.000000 0.002222 0.268737
0.000000 0.002222 0.268737
0.052522 0.001336 0.271441
0.199617 0.004463 0.271213
0.369502 0.001477 0.271434
0.559659 0.001409 0.271549
0.770800 0.001788 0.268051
0.972734 0.001422 0.271687
0.000407 0.090688 0.271182
0.000407 0.090688 0.271182
0.049098 0.090688 0.270351
0.198909 0.091220 0.271033
0.366024 0.090688 0.267947
0.558273 0.090866 0.269104
0.772267 0.092621 0.269095
0.969176 0.090688 0.269730
0.000757 0.233343 0.269754
0.000757 0.233343 0.269754
0.054413 0.233671 0.269656
0.199519 0.233233 0.269546
0.368561 0.235267 0.269716
0.560918 0.233099 0.268997
0.770511 0.233196 0.266454
0.972581 0.233618 0.270547
0.002340 0.398379 0.270873
0.002340 0.398379 0.270873
0.052208 0.397566 0.268905
0.200284 0.397566 0.271114
0.369175 0.397421 0.269075
0.560077 0.397448 0.269459
0.773873 0.398000 0.270358
0.972969 0.396390 0.268883
0.000000 0.580574 0.267777
0.000000 0.580574 0.267777
0.052654 0.584338 0.270704
0.198333 0.581078 0.268730
0.369278 0.581854 0.270875
0.559905 0.583038 0.268802
0.771756 0.579907 0.266308
0.971254 0.582051 0.269749
0.002226 0.786469 0.268070
0.002226 0.786469 0.268070
0.051745 0.787690 0.268940
0.199373 0.789915 0.268590
0.370068 0.787765 0.267913
0.559786 0.787351 0.269802
0.773195 0.788581 0.269538
0.971441 0.787435 0.267146
0.000000 0.976535 0.267146
0.000000 0.976535 0.267146
0.053629 0.974779 0.269364
0.200253 0.973895 0.267407
0.367690 0.975967 0.268734
0.561649 0.976816 0.269489
0.772790 0.975261 0.268350
0.974390 0.975824 0.269063
0.002901 0.000000 0.428846
0.002901 0.000000 0.428846
0.051718 0.000879 0.428472
0.197900 0.000000 0.428594
0.368043 0.000260 0.428098
0.560328 0.000684 0.426881
0.772554 0.000000 0.431243
0.972661 0.002047 0.428846
0.002714 0.001514 0.428846
0.002714 0.001514 0.428846
0.051864 0.002336 0.428488
0.197965 0.001326 0.428472
0.367995 0.001757 0.428129
0.560394 0.002153 0.426964
0.772561 0.001399 0.431243
0.972799 0.003428 0.428846
0.000130 0.090688 0.428472
0.000130 0.090688 0.428472
0.052727 0.092889 0.429237
0.197261 0.090714 0.429423
0.368925 0.090688 0.428602
0.560345 0.092442 0.428472
0.772638 0.090768 0.430868
0.970297 0.090206 0.428342
0.000000 0.233343 0.431804
0.000000 0.233343 0.431804
0.054504 0.233473 0.431111
0.201967 0.232806 0.431232
0.367948 0.233881 0.431228
0.559618 0.233343 0.429971
0.773437 0.233223 0.430309
0.972969 0.232427 0.429519
0.000749 0.397826 0.426954
0.000749 0.397826 0.426954
0.053559 0.398788 0.427916
0.199169 0.397421 0.427306
0.367294 0.398414 0.428291
0.560904 0.397650 0.428423
0.771666 0.397666 0.430266
0.973072 0.397228 0.428436
0.002901 0.581591 0.427837
0.002901 0.581591 0.427837
0.051497 0.581470 0.432756
0.198646 0.581591 0.428032
0.369935 0.580897 0.433003
0.560328 0.581591 0.431390
0.773172 0.581591 0.430498
0.972121 0.581738 0.426524
0.002396 0.787299 0.432366
0.002396 0.787299 0.432366
0.051493 0.787460 0.429186
0.198909 0.788232 0.429294
0.367310 0.786530 0.428846
0.560092 0.787364 0.429782
0.773286 0.787538 0.429590
0.972938 0.787690 0.430893
0.001310 0.976950 0.432203
0.001310 0.976950 0.432203
0.053455 0.976326 0.430469
0.200956 0.976199 0.430685
0.367705 0.977011 0.430424
0.561358 0.975670 0.430394
0.773811 0.976950 0.429749
0.972496 0.975467 0.430612
0.000000 0.000000 0.608962
0.000000 0.000000 0.608962
0.054993 0.000000 0.608620
0.202819 0.000000 0.609718
0.368303 0.000000 0.608278
0.562448 0.000407 0.607574
0.774446 0.000000 0.611846
0.974114 0.000000 0.608962
0.000081 0.001343 0.608962
0.000081 0.001343 0.608962
0.054806 0.001514 0.608571
0.202705 0.001618 0.609670
0.368425 0.001514 0.608301
0.562387 0.001894 0.607664
0.774323 0.001311 0.611815
0.974020 0.001514 0.608962
0.000000 0.090688 0.608457
0.000000 0.090688 0.608457
0.053753 0.090844 0.608347
0.199072 0.089966 0.609368
0.366479 0.091716 0.607642
0.561186 0.090578 0.608339
0.773032 0.089274 0.610917
0.974805 0.090534 0.609588
0.003910 0.233343 0.612115
0.003910 0.233343 0.612115
0.052026 0.233067 0.611295
0.198909 0.233540 0.611552
0.369815 0.231758 0.611539
0.560325 0.233015 0.610155
0.773563 0.233343 0.610735
0.972661 0.232453 0.609592
0.000325 0.397566 0.606996
0.000325 0.397566 0.606996
0.050519 0.399157 0.607884
0.196944 0.397566 0.607572
0.368511 0.397566 0.608840
0.559084 0.399360 0.608328
0.770971 0.397301 0.609116
0.971921 0.399145 0.608717
0.000407 0.581998 0.608107
0.000407 0.581998 0.608107
0.050025 0.581591 0.612872
0.198909 0.583792 0.607583
0.367515 0.581696 0.612872
0.559031 0.582170 0.611204
0.771957 0.582848 0.610254
0.970779 0.582585 0.606432
0.001514 0.787690 0.611248
0.001514 0.787690 0.611248
0.052261 0.786276 0.608962
0.201305 0.787690 0.609808
0.367913 0.787271 0.608962
0.560246 0.786432 0.610065
0.774104 0.787989 0.610475
0.973284 0.787095 0.610984
0.000000 0.978402 0.612180
0.000000 0.978402 0.612180
0.052938 0.977039 0.610573
0.200797 0.976146 0.610789
0.366672 0.977463 0.610727
0.559169 0.977418 0.610810
0.773184 0.977512 0.609613
0.972661 0.975802 0.611040
0.000000 0.000000 0.805726
0.000000 0.000000 0.805726
0.054993 0.000000 0.805726
0.198909 0.000000 0.803794
0.368303 0.000000 0.805726
0.562041 0.000000 0.805726
0.772977 0.000000 0.808123
0.974805 0.000000 0.805726
0.000155 0.001514 0.805726
0.000155 0.001514 0.805726
0.054761 0.001514 0.805694
0.198909 0.001514 0.803967
0.368311 0.001514 0.805661
0.561951 0.001514 0.805555
0.773015 0.001514 0.808123
0.974720 0.001598 0.805726
0.000000 0.093280 0.805726
0.000000 0.093280 0.805726
0.053175 0.090688 0.805791
0.202819 0.090688 0.806792
0.367765 0.090688 0.806231
0.559524 0.091950 0.804654
0.774446 0.091692 0.808123
0.972661 0.089965 0.805222
0.001221 0.229433 0.808123
0.001221 0.229433 0.808123
0.053155 0.234002 0.808820
0.198445 0.233343 0.807285
0.369696 0.233538 0.808066
0.559786 0.232640 0.808880
0.772238 0.233050 0.804506
0.972661 0.234425 0.806904
0.002132 0.397566 0.806735
0.002132 0.397566 0.806735
0.050089 0.397566 0.803574
0.198909 0.399905 0.805922
0.368043 0.397566 0.804323
0.559323 0.397440 0.803961
0.773563 0.399274 0.807895
0.971070 0.397566 0.804135
0.000000 0.581591 0.801816
0.000000 0.581591 0.801816
0.051563 0.580602 0.809636
0.197710 0.581442 0.802573
0.367839 0.579007 0.808892
0.561015 0.582616 0.807968
0.772590 0.581117 0.805238
0.972779 0.581688 0.804310
0.000000 0.786717 0.807195
0.000000 0.786717 0.807195
0.053870 0.789008 0.807853
0.199792 0.787690 0.807952
0.369036 0.788080 0.806161
0.561015 0.788318 0.805726
0.771481 0.785276 0.803898
0.973170 0.787059 0.807492
0.001314 0.975635 0.807492
0.001314 0.975635 0.807492
0.052674 0.974787 0.806871
0.198909 0.976950 0.807565
0.366959 0.977565 0.806764
0.560378 0.974856 0.806296
0.772656 0.976441 0.803729
0.973629 0.975179 0.807947
0.000000 0.000000 0.980292
0.000000 0.000000 0.980292
0.051864 0.002095 0.983382
0.196765 0.000000 0.983382
0.367575 0.000553 0.983382
0.559392 0.001453 0.983382
0.770735 0.000000 0.983500
0.973629 0.000968 0.984351
0.000114 0.001514 0.980491
0.000114 0.001514 0.980491
0.051829 0.003474 0.983364
0.196903 0.001536 0.983409
0.367454 0.002031 0.983382
0.559392 0.002880 0.983288
0.770949 0.001583 0.983577
0.973580 0.002419 0.984364
0.000277 0.089427 0.983382
0.000277 0.089427 0.983382
0.053611 0.090718 0.983418
0.202017 0.090514 0.983446
0.368976 0.090857 0.983659
0.561495 0.090795 0.983480
0.773213 0.090263 0.984133
0.972509 0.089789 0.983106
0.000000 0.233343 0.984696
0.000000 0.233343 0.984696
0.050455 0.232113 0.983284
0.198567 0.233343 0.984326
0.366946 0.234341 0.984022
0.558907 0.233574 0.983423
0.771010 0.234216 0.981185
0.971265 0.234124 0.983550
0.001591 0.398119 0.983138
0.001591 0.398119 0.983138
0.052863 0.397566 0.982202
0.200317 0.398849 0.983643
0.369151 0.397683 0.982612
0.560614 0.397566 0.982047
0.772218 0.397316 0.982858
0.973380 0.397771 0.982072
0.000000 0.581591 0.981238
0.000000 0.581591 0.981238
0.049582 0.581404 0.984608
0.197277 0.581591 0.981653
0.367254 0.580513 0.985348
0.558408 0.582060 0.983628
0.773132 0.581591 0.984005
0.971935 0.582767 0.982414
0.000000 0.785545 0.980292
0.000000 0.785545 0.980292
0.052637 0.789093 0.984208
0.199338 0.788749 0.981856
0.367696 0.787869 0.984759
0.560393 0.787227 0.983382
0.771244 0.786860 0.982068
0.972315 0.787486 0.982955
0.001766 0.976950 0.984351
0.001766 0.976950 0.984351
0.051691 0.974476 0.983202
0.199877 0.976950 0.983024
0.367013 0.975794 0.983382
0.560102 0.975802 0.982749
0.773326 0.976950 0.982287
0.973837 0.976184 0.984230
