_SYSTEM/luts/Universal LUT - Punch Overlay.cube
# Converted by Briz LUT Converter
LUT_3D_SIZE 32
0.000000 0.000000 0.000000
0.000000 0.000000 0.000000
0.000000 0.000000 0.000000
0.000000 0.000000 0.000000
0.000000 0.000000 0.000000
0.000000 0.000000 0.000000
0.004162 0.000000 0.000000
0.026361 0.000000 0.000000
0.051588 0.000000 0.000000
0.085895 0.000000 0.000000
0.122095 0.000000 0.000000
0.162457 0.000000 0.000000
0.202819 0.000000 0.000757
0.243181 0.000000 0.002775
0.283543 0.000000 0.003027
0.323905 0.000000 0.001009
0.368303 0.000000 0.000000
0.416738 0.000000 0.000000
0.464037 0.000000 0.000000
0.510453 0.000000 0.000000
0.559392 0.000000 0.000000
0.609845 0.000000 0.000000
0.664459 0.000000 0.001387
0.720966 0.000000 0.003406
0.774446 0.000000 0.002396
0.826916 0.000000 0.000378
0.885946 0.000000 0.000000
0.946489 0.000000 0.000000
0.971715 0.000000 0.000000
0.991896 0.000000 0.000000
0.993157 0.000000 0.000000
0.993157 0.000000 0.000000
0.000000 0.000000 0.000000
0.000000 0.000000 0.000000
0.000000 0.000000 0.000000
0.000000 0.000000 0.000000
0.000000 0.000000 0.000000
0.000000 0.000000 0.000000
0.004162 0.000000 0.000000
0.026361 0.000000 0.000000
0.051588 0.000000 0.000000
0.085895 0.000000 0.000000
0.122095 0.000000 0.000000
0.162457 0.000000 0.000000
0.202819 0.000000 0.000757
0.243181 0.000000 0.002775
0.283543 0.000000 0.003027
0.323905 0.000000 0.001009
0.368303 0.000000 0.000000
0.416738 0.000000 0.000000
0.464037 0.000000 0.000000
0.510453 0.000000 0.000000
0.559392 0.000000 0.000000
0.609845 0.000000 0.000000
0.664459 0.000000 0.001387
0.720966 0.000000 0.003406
0.774446 0.000000 0.002396
0.826916 0.000000 0.000378
0.885946 0.000000 0.000000
0.946489 0.000000 0.000000
0.971715 0.000000 0.000000
0.991896 0.000000 0.000000
0.993157 0.000000 0.000000
0.993157 0.000000 0.000000
0.000000 0.000000 0.000000
0.000000 0.000000 0.000000
0.000000 0.000000 0.000000
0.000000 0.000000 0.000000
0.000000 0.000000 0.000000
0.000000 0.000000 0.000000
0.004162 0.000000 0.000000
0.026361 0.000000 0.000000
0.051588 0.000000 0.000000
0.085895 0.000000 0.000000
0.122095 0.000000 0.000000
0.162457 0.000000 0.000000
0.202819 0.000000 0.000757
0.243181 0.000000 0.002775
0.283543 0.000000 0.003027
0.323905 0.000000 0.001009
0.368303 0.000000 0.000000
0.416738 0.000000 0.000000
0.464037 0.000000 0.000000
0.510453 0.000000 0.000000
0.559392 0.000000 0.000000
0.609845 0.000000 0.000000
0.664459 0.000000 0.001387
0.720966 0.000000 0.003406
0.774446 0.000000 0.002396
0.826916 0.000000 0.000378
0.885946 0.000000 0.000000
0.946489 0.000000 0.000000
0.971715 0.000000 0.000000
0.991896 0.000000 0.000000
0.993157 0.000000 0.000000
0.993157 0.000000 0.000000
0.000000 0.000000 0.000000
0.000000 0.000000 0.000000
0.000000 0.000000 0.000000
0.000000 0.000000 0.000000
0.000000 0.000000 0.000000
0.000000 0.000000 0.000000
0.004162 0.000000 0.000000
0.026361 0.000000 0.000000
0.051588 0.000000 0.000000
0.085895 0.000000 0.000000
0.122095 0.000000 0.000000
0.162457 0.000000 0.000000
0.202819 0.000000 0.000757
0.243181 0.000000 0.002775
0.283543 0.000000 0.003027
0.323905 0.000000 0.001009
0.368303 0.000000 0.000000
0.416738 0.000000 0.000000
0.464037 0.000000 0.000000
0.510453 0.000000 0.000000
0.559392 0.000000 0.000000
0.609845 0.000000 0.000000
0.664459 0.000000 0.001387
0.720966 0.000000 0.003406
0.774446 0.000000 0.002396
0.826916 0.000000 0.000378
0.885946 0.000000 0.000000
0.946489 0.000000 0.000000
0.971715 0.000000 0.000000
0.991896 0.000000 0.000000
0.993157 0.000000 0.000000
0.993157 0.000000 0.000000
0.000252 0.001514 0.000000
0.000252 0.001514 0.000000
0.000252 0.001514 0.000000
0.000252 0.001514 0.000000
0.000252 0.001514 0.000000
0.000252 0.001514 0.000000
0.004390 0.001514 0.000000
0.026459 0.001514 0.000000
0.051620 0.001514 0.000000
0.086058 0.001514 0.000000
0.122266 0.001514 0.000000
0.162368 0.001514 0.000000
0.202567 0.001514 0.000757
0.242929 0.001514 0.002775
0.283405 0.001514 0.003027
0.324027 0.001514 0.001009
0.368425 0.001514 0.000000
0.416599 0.001514 0.000000
0.463858 0.001514 0.000000
0.510404 0.001514 0.000000
0.559392 0.001432 0.000000
0.609845 0.001302 0.000000
0.664370 0.001261 0.001387
0.720746 0.001261 0.003406
0.774389 0.001359 0.002494
0.827120 0.001489 0.000606
0.885987 0.001514 0.000146
0.946269 0.001514 0.000016
0.971776 0.001514 0.000000
0.992315 0.001514 0.000000
0.993599 0.001514 0.000000
0.993599 0.001514 0.000000
0.002270 0.013622 0.000000
0.002270 0.013622 0.000000
0.002270 0.013622 0.000000
0.002270 0.013622 0.000000
0.002270 0.013622 0.000000
0.002270 0.013622 0.000000
0.006213 0.013622 0.000000
0.027240 0.013622 0.000000
0.051881 0.013622 0.000000
0.087360 0.013622 0.000000
0.123633 0.013622 0.000000
0.161651 0.013622 0.000000
0.200549 0.013622 0.000757
0.240911 0.013622 0.002775
0.282298 0.013622 0.003027
0.325004 0.013622 0.001009
0.369402 0.013622 0.000000
0.415493 0.013622 0.000000
0.462426 0.013622 0.000000
0.510014 0.013622 0.000000
0.559392 0.012890 0.000000
0.609845 0.011718 0.000000
0.663654 0.011352 0.001387
0.718989 0.011352 0.003406
0.773933 0.012231 0.003275
0.828747 0.013402 0.002429
0.886312 0.013622 0.001318
0.944511 0.013622 0.000146
0.972264 0.013622 0.000000
0.995668 0.013622 0.000000
0.997131 0.013622 0.000000
0.997131 0.013622 0.000000
0.003532 0.029136 0.000000
0.003532 0.029136 0.000000
0.003532 0.029136 0.000000
0.003532 0.029136 0.000000
0.003532 0.029136 0.000000
0.003532 0.029136 0.000000
0.007389 0.029136 0.000000
0.027960 0.029136 0.000000
0.052373 0.029185 0.000000
0.088308 0.029380 0.000000
0.124426 0.029393 0.000000
0.160948 0.029002 0.000000
0.198909 0.028758 0.000684
0.239271 0.028758 0.002506
0.281313 0.028929 0.002734
0.325516 0.029319 0.000911
0.370012 0.029417 0.000000
0.414801 0.029222 0.000000
0.461640 0.029136 0.000000
0.510075 0.029136 0.000000
0.559648 0.027997 0.000000
0.609906 0.026174 0.000000
0.663072 0.025470 0.001387
0.717561 0.025275 0.003406
0.773270 0.026740 0.003764
0.829386 0.028758 0.003568
0.886137 0.029136 0.002051
0.943034 0.029136 0.000228
0.972661 0.029136 0.000000
0.998392 0.029136 0.000000
1.000000 0.029136 0.000000
1.000000 0.029136 0.000000
0.001514 0.059408 0.000000
0.001514 0.059408 0.000000
0.001514 0.059408 0.000000
0.001514 0.059408 0.000000
0.001514 0.059408 0.000000
0.001514 0.059408 0.000000
0.005761 0.059408 0.000000
0.028416 0.059408 0.000000
0.053870 0.059717 0.000000
0.087722 0.060954 0.000000
0.122734 0.061031 0.000000
0.160297 0.058557 0.000000
0.198909 0.057011 0.000293
0.239271 0.057011 0.001074
0.280858 0.058094 0.001172
0.324019 0.060567 0.000391
0.369036 0.061186 0.000000
0.415908 0.059949 0.000000
0.463658 0.059408 0.000000
0.512093 0.059408 0.000000
0.561015 0.058920 0.000000
0.610231 0.058138 0.000000
0.663072 0.057044 0.001387
0.717561 0.055807 0.003406
0.771708 0.057011 0.002982
0.825741 0.059029 0.001745
0.883793 0.059408 0.000879
0.942774 0.059408 0.000098
0.972661 0.059408 0.000000
0.998392 0.059408 0.000000
1.000000 0.059408 0.000000
1.000000 0.059408 0.000000
0.000000 0.090688 0.000000
0.000000 0.090688 0.000000
0.000000 0.090688 0.000000
0.000000 0.090688 0.000000
0.000000 0.090688 0.000000
0.000000 0.090688 0.000000
0.004541 0.090688 0.000049
0.028758 0.090688 0.000309
0.054993 0.091128 0.000505
0.087283 0.092885 0.000505
0.121464 0.092914 0.000505
0.159808 0.089138 0.000505
0.198909 0.086778 0.000407
0.239271 0.086778 0.000146
0.280516 0.088430 0.000114
0.322896 0.092206 0.000374
0.368303 0.093215 0.000505
0.416738 0.091457 0.000505
0.465172 0.090688 0.000505
0.513606 0.090688 0.000505
0.562041 0.090688 0.000342
0.610475 0.090688 0.000081
0.663072 0.089301 0.001208
0.717561 0.087283 0.002966
0.770731 0.088292 0.002087
0.823462 0.090310 0.000330
0.882540 0.090688 0.000000
0.943083 0.090688 0.000000
0.972938 0.090688 0.000000
0.998408 0.090688 0.000000
1.000000 0.090688 0.000000
1.000000 0.090688 0.000000
0.000000 0.124996 0.000000
0.000000 0.124996 0.000000
0.000000 0.124996 0.000000
0.000000 0.124996 0.000000
0.000000 0.124996 0.000000
0.000000 0.124996 0.000000
0.004541 0.124996 0.000244
0.028758 0.124996 0.001546
0.054993 0.125175 0.002523
0.087283 0.125891 0.002523
0.121464 0.125529 0.002523
0.159808 0.122795 0.002523
0.198909 0.121086 0.002034
0.239271 0.121086 0.000732
0.280516 0.122282 0.000570
0.322896 0.125016 0.001872
0.368303 0.126025 0.002523
0.416738 0.125309 0.002523
0.465172 0.124996 0.002523
0.513606 0.124996 0.002523
0.562041 0.124996 0.001709
0.610475 0.124996 0.000407
0.663072 0.123609 0.000492
0.717561 0.121591 0.001208
0.771512 0.122600 0.000850
0.825285 0.124618 0.000134
0.884558 0.124996 0.000000
0.945101 0.124996 0.000000
0.974044 0.124996 0.000000
0.998473 0.124996 0.000000
1.000000 0.124996 0.000000
1.000000 0.124996 0.000000
0.000631 0.159934 0.000631
0.000631 0.159934 0.000631
0.000631 0.159934 0.000631
0.000631 0.159934 0.000631
0.000631 0.159934 0.000631
0.000631 0.159934 0.000631
0.005049 0.159934 0.000948
0.028616 0.159934 0.002641
0.054444 0.159853 0.003829
0.087059 0.159528 0.003503
0.121464 0.158877 0.003381
0.159808 0.157509 0.003707
0.198909 0.156655 0.003153
0.239271 0.156655 0.001135
0.280516 0.157253 0.000883
0.322896 0.158620 0.002901
0.368140 0.159467 0.003747
0.416249 0.159792 0.003422
0.464541 0.159934 0.003279
0.512976 0.159934 0.003279
0.561817 0.159934 0.002425
0.610902 0.159934 0.001058
0.663479 0.158771 0.000407
0.717642 0.157078 0.000081
0.772293 0.157924 0.000000
0.827108 0.159617 0.000000
0.886048 0.159934 0.000264
0.945940 0.159934 0.000590
0.974459 0.159934 0.000346
0.998498 0.159934 0.000020
1.000000 0.159934 0.000000
1.000000 0.159934 0.000000
0.002649 0.196260 0.002649
0.002649 0.196260 0.002649
0.002649 0.196260 0.002649
0.002649 0.196260 0.002649
0.002649 0.196260 0.002649
0.002649 0.196260 0.002649
0.006677 0.196260 0.002771
0.028160 0.196260 0.003422
0.052686 0.195918 0.003568
0.086343 0.194551 0.002201
0.121464 0.193835 0.001689
0.159808 0.194551 0.003056
0.198909 0.194999 0.003153
0.239271 0.194999 0.001135
0.280516 0.194686 0.000883
0.322896 0.193970 0.002901
0.367620 0.194295 0.003227
0.414687 0.195662 0.001859
0.462523 0.196260 0.001261
0.510958 0.196260 0.001261
0.561101 0.196260 0.001709
0.612270 0.196260 0.002425
0.664781 0.195813 0.001709
0.717902 0.195162 0.000342
0.773075 0.195487 0.000000
0.828930 0.196138 0.000000
0.886373 0.196260 0.001111
0.944182 0.196260 0.002478
0.973353 0.196260 0.001453
0.998433 0.196260 0.000085
1.000000 0.196260 0.000000
1.000000 0.196260 0.000000
0.003910 0.233343 0.003153
0.003910 0.233343 0.003153
0.003910 0.233343 0.003153
0.003910 0.233343 0.003153
0.003910 0.233343 0.003153
0.003910 0.233343 0.003153
0.007694 0.233343 0.003153
0.027875 0.233343 0.003153
0.051588 0.232838 0.002746
0.085895 0.230820 0.001119
0.121464 0.230063 0.000509
0.159808 0.232081 0.002136
0.198909 0.233343 0.002543
0.239271 0.233343 0.000915
0.280516 0.232460 0.000712
0.322896 0.230442 0.002340
0.367294 0.230442 0.002340
0.413710 0.232460 0.000712
0.461042 0.233343 0.000000
0.509086 0.233343 0.000000
0.560141 0.233343 0.001017
0.613002 0.233343 0.002645
0.665595 0.233343 0.002303
0.718065 0.233343 0.001066
0.773563 0.233343 0.000464
0.830070 0.233343 0.000073
0.886576 0.233343 0.001322
0.943083 0.233343 0.002950
0.972661 0.233343 0.001729
0.998392 0.233343 0.000102
1.000000 0.233343 0.000000
1.000000 0.233343 0.000000
0.003910 0.271687 0.001135
0.003910 0.271687 0.001135
0.003910 0.271687 0.001135
0.003910 0.271687 0.001135
0.003910 0.271687 0.001135
0.003910 0.271687 0.001135
0.007694 0.271687 0.001135
0.027875 0.271687 0.001135
0.051588 0.271182 0.000989
0.085895 0.269164 0.000403
0.121464 0.268407 0.000183
0.159808 0.270425 0.000769
0.198909 0.271687 0.000915
0.239271 0.271687 0.000330
0.280516 0.270804 0.000256
0.322896 0.268786 0.000842
0.367294 0.268786 0.000842
0.413710 0.270804 0.000256
0.460456 0.271687 0.000000
0.507459 0.271687 0.000000
0.558774 0.271687 0.000366
0.612676 0.271687 0.000952
0.665595 0.271687 0.001717
0.718065 0.271687 0.002563
0.773563 0.271687 0.001701
0.830070 0.271687 0.000269
0.886576 0.271687 0.000476
0.943083 0.271687 0.001062
0.972661 0.271687 0.000623
0.998392 0.271687 0.000037
1.000000 0.271687 0.000000
1.000000 0.271687 0.000000
0.003027 0.311796 0.000000
0.003027 0.311796 0.000000
0.003027 0.311796 0.000000
0.003027 0.311796 0.000000
0.003027 0.311796 0.000000
0.003027 0.311796 0.000000
0.006897 0.311882 0.000000
0.027533 0.312338 0.000000
0.051702 0.312175 0.000114
0.086465 0.310157 0.000570
0.122062 0.309258 0.000741
0.159495 0.310820 0.000285
0.198026 0.311796 0.000000
0.238388 0.311796 0.000000
0.280032 0.311113 0.000000
0.323323 0.309550 0.000000
0.367949 0.309550 0.000228
0.413910 0.311113 0.000684
0.460383 0.312053 0.000627
0.507255 0.312508 0.000171
0.558318 0.312395 0.000000
0.611895 0.311939 0.000000
0.664712 0.311796 0.001074
0.717182 0.311796 0.002637
0.772680 0.311796 0.001855
0.829187 0.311796 0.000293
0.886064 0.311796 0.000000
0.943026 0.311796 0.000000
0.972661 0.312195 0.000000
0.998392 0.312651 0.000000
1.000000 0.312679 0.000000
1.000000 0.312679 0.000000
0.001009 0.354177 0.000000
0.001009 0.354177 0.000000
0.001009 0.354177 0.000000
0.001009 0.354177 0.000000
0.001009 0.354177 0.000000
0.001009 0.354177 0.000000
0.005074 0.354457 0.000000
0.026752 0.355955 0.000000
0.051962 0.356573 0.000374
0.087767 0.354555 0.001872
0.123430 0.353330 0.002433
0.158779 0.353851 0.000936
0.196008 0.354177 0.000000
0.236370 0.354177 0.000000
0.278925 0.353949 0.000000
0.324300 0.353428 0.000000
0.369447 0.353428 0.000749
0.414366 0.353949 0.002246
0.460969 0.355019 0.002059
0.508883 0.356516 0.000561
0.559034 0.356142 0.000000
0.610528 0.354644 0.000000
0.662694 0.354177 0.000358
0.715164 0.354177 0.000879
0.770662 0.354177 0.000618
0.827169 0.354177 0.000098
0.884892 0.354177 0.000000
0.942896 0.354177 0.000000
0.972661 0.355487 0.000000
0.998392 0.356984 0.000000
1.000000 0.357078 0.000000
1.000000 0.357078 0.000000
0.000000 0.396557 0.000000
0.000000 0.396557 0.000000
0.000000 0.396557 0.000000
0.000000 0.396557 0.000000
0.000000 0.396557 0.000000
0.000000 0.396557 0.000000
0.004162 0.397033 0.000000
0.026361 0.399572 0.000000
0.052092 0.400971 0.000374
0.088418 0.398953 0.001872
0.124276 0.397566 0.002433
0.159104 0.397566 0.000936
0.196008 0.397566 0.000000
0.236370 0.397566 0.000000
0.279153 0.397566 0.000000
0.325048 0.397566 0.000000
0.370195 0.397826 0.000749
0.414593 0.398347 0.002246
0.461262 0.399124 0.002059
0.509696 0.400100 0.000561
0.559392 0.399531 0.000000
0.609845 0.398034 0.000000
0.662043 0.397566 0.000000
0.715034 0.397566 0.000000
0.770271 0.397175 0.000000
0.826257 0.396654 0.000000
0.884306 0.396980 0.000000
0.942831 0.397501 0.000000
0.972661 0.399332 0.000456
0.998392 0.401350 0.000976
1.000000 0.401476 0.001009
1.000000 0.401476 0.001009
0.000000 0.438937 0.000000
0.000000 0.438937 0.000000
0.000000 0.438937 0.000000
0.000000 0.438937 0.000000
0.000000 0.438937 0.000000
0.000000 0.438937 0.000000
0.004162 0.439608 0.000000
0.026361 0.443189 0.000000
0.052092 0.445369 0.000114
0.088418 0.443351 0.000570
0.124601 0.441964 0.000741
0.160471 0.441964 0.000285
0.198026 0.441964 0.000000
0.238388 0.441964 0.000000
0.280715 0.441964 0.000000
0.325569 0.441964 0.000000
0.370195 0.442745 0.000228
0.414593 0.444307 0.000684
0.461262 0.444368 0.000627
0.509696 0.443262 0.000171
0.559392 0.442562 0.000000
0.609845 0.442106 0.000000
0.662759 0.441964 0.000000
0.716792 0.441964 0.000000
0.771508 0.440792 0.000000
0.826453 0.439230 0.000000
0.884306 0.440206 0.000000
0.942831 0.441769 0.000000
0.972661 0.443730 0.001367
0.998392 0.445748 0.002929
1.000000 0.445874 0.003027
1.000000 0.445874 0.003027
0.000000 0.484722 0.000000
0.000000 0.484722 0.000000
0.000000 0.484722 0.000000
0.000000 0.484722 0.000000
0.000000 0.484722 0.000000
0.000000 0.484722 0.000000
0.004272 0.485259 0.000000
0.027057 0.488124 0.000000
0.052934 0.489914 0.000146
0.088088 0.488482 0.000732
0.123975 0.487497 0.000952
0.161472 0.487497 0.000366
0.200044 0.487497 0.000000
0.240406 0.487497 0.000000
0.282021 0.487497 0.000256
0.325248 0.487497 0.000842
0.369646 0.488213 0.001135
0.415216 0.489646 0.001135
0.462397 0.489137 0.001135
0.510832 0.487119 0.001135
0.560161 0.486728 0.000769
0.610028 0.487314 0.000183
0.663475 0.487497 0.000403
0.718549 0.487497 0.000989
0.772745 0.486423 0.000696
0.826648 0.484991 0.000110
0.884306 0.485410 0.000000
0.942831 0.486256 0.000000
0.972661 0.488128 0.001253
0.998392 0.490146 0.002685
1.000000 0.490272 0.002775
1.000000 0.490272 0.002775
0.000000 0.533157 0.000000
0.000000 0.533157 0.000000
0.000000 0.533157 0.000000
0.000000 0.533157 0.000000
0.000000 0.533157 0.000000
0.000000 0.533157 0.000000
0.004467 0.533303 0.000000
0.028294 0.534084 0.000000
0.054432 0.534573 0.000407
0.087503 0.534182 0.002034
0.122608 0.533914 0.002645
0.162188 0.533914 0.001017
0.202062 0.533914 0.000000
0.242424 0.533914 0.000000
0.283128 0.533914 0.000712
0.324271 0.533914 0.002340
0.368669 0.534109 0.003153
0.416323 0.534499 0.003153
0.464415 0.533535 0.003153
0.512850 0.531517 0.003153
0.561528 0.531777 0.002136
0.610353 0.533405 0.000509
0.664191 0.533914 0.001119
0.720307 0.533914 0.002746
0.773982 0.533621 0.001933
0.826843 0.533230 0.000305
0.884306 0.532152 0.000000
0.942831 0.530915 0.000000
0.972661 0.532526 0.000342
0.998392 0.534544 0.000732
1.000000 0.534670 0.000757
1.000000 0.534670 0.000757
0.000000 0.581591 0.000000
0.000000 0.581591 0.000000
0.000000 0.581591 0.000000
0.000000 0.581591 0.000000
0.000000 0.581591 0.000000
0.000000 0.581591 0.000000
0.004297 0.581591 0.000122
0.027212 0.581591 0.000773
0.052796 0.581591 0.001440
0.086388 0.581591 0.002156
0.121892 0.581795 0.002222
0.161603 0.582446 0.000854
0.201558 0.582608 0.000000
0.241920 0.581957 0.000000
0.282567 0.581591 0.000883
0.323580 0.581591 0.002901
0.367652 0.581591 0.003910
0.414785 0.581591 0.003910
0.462649 0.580822 0.003910
0.511084 0.579455 0.003910
0.560332 0.579797 0.002649
0.610068 0.581164 0.000631
0.664012 0.581591 0.001387
0.719868 0.581591 0.003406
0.773673 0.581591 0.002396
0.826794 0.581591 0.000378
0.884306 0.581009 0.000000
0.942831 0.580293 0.000000
0.971664 0.580830 0.000000
0.996256 0.581546 0.000000
0.997793 0.581591 0.000000
0.997793 0.581591 0.000000
0.000000 0.630026 0.000000
0.000000 0.630026 0.000000
0.000000 0.630026 0.000000
0.000000 0.630026 0.000000
0.000000 0.630026 0.000000
0.000000 0.630026 0.000000
0.003906 0.630026 0.000317
0.024738 0.630026 0.002010
0.049281 0.630026 0.002938
0.084955 0.630026 0.001571
0.121566 0.630554 0.000529
0.160235 0.632247 0.000203
0.199540 0.632670 0.000000
0.239902 0.630978 0.000000
0.281004 0.630026 0.000883
0.323059 0.630026 0.002901
0.366611 0.630026 0.003910
0.411660 0.630026 0.003910
0.458613 0.629842 0.003910
0.507048 0.629517 0.003910
0.557598 0.629598 0.002649
0.609417 0.629924 0.000631
0.663296 0.630026 0.001387
0.718110 0.630026 0.003406
0.772436 0.630026 0.002396
0.826599 0.630026 0.000378
0.884306 0.631136 0.000000
0.942831 0.632503 0.000000
0.970069 0.631478 0.000000
0.992838 0.630111 0.000000
0.994261 0.630026 0.000000
0.994261 0.630026 0.000000
0.000000 0.681235 0.000000
0.000000 0.681235 0.000000
0.000000 0.681235 0.000000
0.000000 0.681235 0.000000
0.000000 0.681235 0.000000
0.000000 0.681235 0.000000
0.003918 0.681101 0.000244
0.024815 0.680384 0.001546
0.049391 0.680205 0.002376
0.085000 0.681638 0.001790
0.121464 0.682582 0.001164
0.159808 0.682451 0.000448
0.199178 0.682150 0.000000
0.240256 0.681564 0.000000
0.281590 0.681235 0.000570
0.323254 0.681235 0.001872
0.366643 0.680877 0.002523
0.411757 0.680161 0.002523
0.459142 0.680250 0.002925
0.508293 0.680966 0.003642
0.558623 0.681235 0.003096
0.609661 0.681235 0.001794
0.663564 0.681235 0.001790
0.718769 0.681235 0.002376
0.772900 0.681235 0.002083
0.826672 0.681235 0.001497
0.884888 0.682293 0.001387
0.944129 0.683595 0.001387
0.971428 0.681992 0.000761
0.994164 0.679974 0.000045
0.995585 0.679847 0.000000
0.995585 0.679847 0.000000
0.000000 0.733705 0.000000
0.000000 0.733705 0.000000
0.000000 0.733705 0.000000
0.000000 0.733705 0.000000
0.000000 0.733705 0.000000
0.000000 0.733705 0.000000
0.004114 0.733376 0.000049
0.026052 0.731618 0.000309
0.051148 0.731179 0.000879
0.085716 0.734694 0.002376
0.121464 0.736094 0.002856
0.159808 0.732839 0.001099
0.199568 0.731366 0.000000
0.241688 0.732863 0.000000
0.283152 0.733705 0.000114
0.323775 0.733705 0.000374
0.367164 0.732827 0.000505
0.413320 0.731069 0.000505
0.461746 0.731289 0.001493
0.511938 0.733046 0.003251
0.561357 0.733705 0.003747
0.610312 0.733705 0.003487
0.664280 0.733705 0.002376
0.720527 0.733705 0.000879
0.774137 0.733705 0.001627
0.826868 0.733705 0.003125
0.885734 0.733917 0.003406
0.946017 0.734177 0.003406
0.974130 0.732444 0.001868
0.997647 0.730426 0.000110
0.999117 0.730300 0.000000
0.999117 0.730300 0.000000
0.000000 0.787690 0.000000
0.000000 0.787690 0.000000
0.000000 0.787690 0.000000
0.000000 0.787690 0.000000
0.000000 0.787690 0.000000
0.000000 0.787690 0.000000
0.004016 0.787458 0.000000
0.025434 0.786221 0.000000
0.050269 0.785716 0.000309
0.085358 0.787409 0.001546
0.121464 0.788044 0.002010
0.159808 0.786351 0.000773
0.199373 0.785757 0.000293
0.240972 0.786994 0.001074
0.282371 0.787690 0.001172
0.323514 0.787690 0.000391
0.367294 0.787071 0.000000
0.413710 0.785834 0.000000
0.461518 0.785989 0.000696
0.510408 0.787226 0.001933
0.560478 0.787690 0.002885
0.611256 0.787690 0.003666
0.664899 0.787690 0.002523
0.719843 0.787690 0.000505
0.773518 0.787690 0.001514
0.826770 0.787690 0.003532
0.885311 0.787690 0.003910
0.945073 0.787690 0.003910
0.972779 0.786607 0.002144
0.995906 0.785370 0.000126
0.997351 0.785293 0.000000
0.997351 0.785293 0.000000
0.000000 0.842178 0.000000
0.000000 0.842178 0.000000
0.000000 0.842178 0.000000
0.000000 0.842178 0.000000
0.000000 0.842178 0.000000
0.000000 0.842178 0.000000
0.003821 0.842142 0.000000
0.024197 0.841946 0.000000
0.048512 0.841442 0.000049
0.084642 0.840010 0.000244
0.121464 0.839473 0.000317
0.159808 0.840905 0.000122
0.198982 0.841873 0.000684
0.239539 0.842068 0.002506
0.280809 0.842178 0.002734
0.322994 0.842178 0.000911
0.367294 0.842081 0.000000
0.413710 0.841885 0.000000
0.460346 0.841910 0.000110
0.507153 0.842105 0.000305
0.558395 0.842178 0.001518
0.612298 0.842178 0.003340
0.665485 0.842178 0.002523
0.718346 0.842178 0.000505
0.772281 0.842178 0.001514
0.826575 0.842178 0.003532
0.884465 0.842178 0.003910
0.943185 0.842178 0.003910
0.970077 0.842007 0.002144
0.992423 0.841812 0.000126
0.993820 0.841800 0.000000
0.993820 0.841800 0.000000
0.000000 0.896667 0.000000
0.000000 0.896667 0.000000
0.000000 0.896667 0.000000
0.000000 0.896667 0.000000
0.000000 0.896667 0.000000
0.000000 0.896667 0.000000
0.003943 0.896667 0.000000
0.024970 0.896667 0.000000
0.049399 0.896374 0.000000
0.084032 0.895202 0.000000
0.120089 0.894763 0.000000
0.159279 0.895935 0.000000
0.198909 0.896667 0.000757
0.239271 0.896667 0.002775
0.280146 0.896667 0.003027
0.321679 0.896667 0.001009
0.366078 0.896667 0.000000
0.413340 0.896667 0.000000
0.460603 0.896667 0.000000
0.507865 0.896667 0.000000
0.558586 0.897196 0.001261
0.611383 0.898042 0.003279
0.664537 0.897725 0.002523
0.717854 0.896879 0.000505
0.772049 0.896667 0.001514
0.826538 0.896667 0.003532
0.884994 0.896667 0.003910
0.944365 0.896667 0.003910
0.971766 0.896667 0.002144
0.994600 0.896667 0.000126
0.996027 0.896667 0.000000
0.996027 0.896667 0.000000
0.000000 0.951156 0.000000
0.000000 0.951156 0.000000
0.000000 0.951156 0.000000
0.000000 0.951156 0.000000
0.000000 0.951156 0.000000
0.000000 0.951156 0.000000
0.004138 0.951156 0.000000
0.026207 0.951156 0.000000
0.050896 0.951123 0.000000
0.083446 0.950993 0.000000
0.118397 0.950944 0.000000
0.158628 0.951074 0.000000
0.198909 0.951156 0.000757
0.239271 0.951156 0.002775
0.279690 0.951156 0.003027
0.320182 0.951156 0.001009
0.364580 0.951156 0.000000
0.412885 0.951156 0.000000
0.461189 0.951156 0.000000
0.509493 0.951156 0.000000
0.559303 0.952336 0.001261
0.610015 0.954224 0.003279
0.663235 0.953516 0.002523
